<?xml version="1.0" encoding="UTF-8"?>
<map version="1.10" tiledversion="1.11.2" orientation="orthogonal" renderorder="right-down" width="128" height="128" tilewidth="32" tileheight="32" infinite="0" nextlayerid="8" nextobjectid="7">
 <tileset firstgid="1" name="highway" tilewidth="32" tileheight="32" tilecount="225" columns="15">
  <image source="highwaysheet.png" trans="000000" width="480" height="480"/>
  <tile id="0">
   <properties>
    <property name="BORDER" type="bool" value="false"/>
   </properties>
  </tile>
  <tile id="2">
   <properties>
    <property name="rumbo" type="bool" value="true"/>
   </properties>
  </tile>
  <tile id="7">
   <properties>
    <property name="rumbo" type="bool" value="true"/>
   </properties>
  </tile>
  <tile id="19">
   <properties>
    <property name="potHole" type="bool" value="true"/>
   </properties>
  </tile>
  <tile id="24">
   <properties>
    <property name="BORDER?" type="bool" value="false"/>
   </properties>
  </tile>
  <tile id="25">
   <properties>
    <property name="BORDER?" type="bool" value="false"/>
   </properties>
  </tile>
  <tile id="26">
   <properties>
    <property name="BORDER?" type="bool" value="false"/>
   </properties>
  </tile>
  <tile id="39">
   <properties>
    <property name="BORDER?" type="bool" value="false"/>
   </properties>
  </tile>
  <tile id="40">
   <properties>
    <property name="BORDER?" type="bool" value="false"/>
   </properties>
  </tile>
  <tile id="41">
   <properties>
    <property name="BORDER?" type="bool" value="false"/>
   </properties>
  </tile>
  <tile id="54">
   <properties>
    <property name="BORDER?" type="bool" value="false"/>
   </properties>
  </tile>
  <tile id="55">
   <properties>
    <property name="BORDER?" type="bool" value="false"/>
   </properties>
  </tile>
  <tile id="56">
   <properties>
    <property name="BORDER?" type="bool" value="false"/>
   </properties>
  </tile>
  <tile id="60">
   <properties>
    <property name="BORDER" type="bool" value="true"/>
   </properties>
  </tile>
  <tile id="90">
   <properties>
    <property name="wawa" type="bool" value="false"/>
   </properties>
  </tile>
  <tile id="99">
   <properties>
    <property name="wawa" type="bool" value="false"/>
   </properties>
  </tile>
  <tile id="100">
   <properties>
    <property name="wawa" type="bool" value="false"/>
   </properties>
  </tile>
  <tile id="101">
   <properties>
    <property name="wawa" type="bool" value="false"/>
   </properties>
  </tile>
  <tile id="110">
   <properties>
    <property name="wawa" type="bool" value="true"/>
   </properties>
  </tile>
  <tile id="114">
   <properties>
    <property name="wawa" type="bool" value="false"/>
   </properties>
  </tile>
  <tile id="115">
   <properties>
    <property name="wawa" type="bool" value="true"/>
   </properties>
  </tile>
  <tile id="116">
   <properties>
    <property name="wawa" type="bool" value="false"/>
   </properties>
  </tile>
  <tile id="129">
   <properties>
    <property name="wawa" type="bool" value="false"/>
   </properties>
  </tile>
  <tile id="130">
   <properties>
    <property name="wawa" type="bool" value="false"/>
   </properties>
  </tile>
  <tile id="131">
   <properties>
    <property name="wawa" type="bool" value="false"/>
   </properties>
  </tile>
 </tileset>
 <layer id="3" name="ROAD" width="128" height="128">
  <data encoding="csv">
0,0,0,0,0,0,0,0,0,0,0,0,0,0,0,0,0,0,0,0,0,0,0,0,0,0,0,0,0,0,0,0,0,0,0,0,0,0,0,0,0,0,0,0,0,0,0,0,0,0,0,0,0,0,0,0,0,0,0,0,0,0,0,0,0,0,0,0,0,0,0,0,0,0,0,0,0,0,0,0,0,0,0,0,0,0,0,0,0,0,0,0,0,0,0,0,0,0,0,0,0,0,0,0,0,0,0,0,0,0,0,0,0,0,0,0,0,0,0,0,0,0,0,0,0,0,0,0,
0,1,1,1,1,1,0,0,0,0,0,0,0,0,0,0,0,0,0,0,0,0,0,0,0,0,0,0,0,0,0,0,0,0,0,0,0,0,0,0,0,0,0,0,0,0,0,0,0,0,0,0,0,0,0,0,0,0,0,0,0,0,0,0,0,0,0,0,0,0,0,0,0,0,0,0,0,0,0,0,0,0,0,0,0,0,0,0,0,0,0,0,0,0,0,0,0,0,0,0,0,0,0,0,0,0,0,0,0,0,0,0,0,0,0,0,0,0,0,0,0,0,0,0,0,0,0,0,
0,0,28,70,70,70,70,70,70,70,70,70,70,70,71,72,72,72,72,72,72,72,72,2684354618,1610612760,1610612760,1610612760,1610612760,1610612760,1610612760,1610612760,1610612760,1610612760,1610612775,1610612760,1610612760,1610612760,72,72,72,72,72,72,72,72,72,72,72,72,72,72,72,72,72,72,72,72,72,72,72,72,72,72,72,72,72,72,72,72,72,72,72,72,72,72,72,72,72,72,72,72,72,72,72,72,72,72,72,72,72,72,72,72,72,72,72,72,72,72,72,72,72,72,72,72,72,72,72,72,72,72,72,72,70,71,70,71,72,72,72,72,72,72,72,72,72,0,0,
0,0,43,3758096392,3758096392,3758096392,3758096392,3758096392,3758096392,3758096392,3758096392,3758096392,3758096392,3758096392,3758096392,1610612744,1610612744,1610612744,1610612744,1610612744,1610612744,1610612744,1610612744,1610612744,1610612744,1610612744,1610612744,1610612744,1610612744,1610612744,1610612744,1610612744,1610612744,1610612744,1610612744,1610612744,1610612744,1610612744,1610612744,1610612744,1610612744,1610612744,1610612744,1610612744,1610612744,1610612744,1610612744,1610612744,1610612744,1610612744,1610612744,1610612744,1610612744,1610612744,1610612744,1610612744,1610612744,1610612744,1610612744,1610612744,1610612744,1610612744,1610612744,1610612744,1610612744,1610612744,1610612744,1610612744,1610612744,1610612744,1610612744,1610612744,1610612744,1610612744,1610612744,1610612744,1610612744,1610612744,1610612744,1610612744,1610612744,1610612744,1610612744,1610612744,1610612744,1610612744,1610612744,1610612744,1610612744,1610612744,1610612744,1610612744,1610612744,1610612744,1610612744,1610612744,1610612744,1610612744,1610612744,1610612744,1610612744,1610612744,1610612744,1610612744,1610612744,1610612744,1610612744,1610612744,1610612744,1610612744,1610612744,1610612744,3758096392,3758096392,3758096392,3758096392,3758096392,3758096392,3758096392,3758096392,3758096392,3758096392,3758096392,3758096392,3758096392,24,0,0,
0,0,58,2147483656,5,2684354564,2684354564,2684354564,2684354564,2684354564,2684354564,2684354564,2684354564,2684354564,2684354564,1610612743,1610612743,1610612743,1610612743,1610612743,1610612743,1610612743,1610612743,1610612743,1610612743,1610612743,1610612743,1610612743,1610612743,1610612743,1610612743,1610612743,1610612743,1610612743,1610612743,1610612743,1610612743,1610612743,1610612743,1610612743,1610612743,1610612743,1610612743,1610612743,1610612743,1610612743,1610612743,1610612743,1610612743,1610612743,1610612743,1610612743,1610612743,1610612743,1610612743,1610612743,1610612743,1610612743,1610612743,1610612743,1610612743,1610612743,1610612743,1610612743,1610612743,1610612743,1610612743,1610612743,1610612743,1610612743,1610612743,1610612743,1610612743,1610612743,1610612743,1610612743,1610612743,1610612743,1610612743,1610612743,1610612743,1610612743,1610612743,1610612743,1610612743,1610612743,1610612743,1610612743,1610612743,1610612743,1610612743,1610612743,1610612743,1610612743,1610612743,1610612743,1610612743,1610612743,1610612743,1610612743,1610612743,1610612743,1610612743,1610612743,1610612743,1610612743,1610612743,1610612743,1610612743,1610612743,1610612743,1610612743,1610612743,2684354564,2684354564,2684354564,2684354564,2684354564,2684354564,2684354564,2684354564,2684354564,2684354564,2684354565,1073741832,39,0,0,
0,0,28,2147483656,4,5,5,5,5,5,5,5,5,5,5,3221225477,1610612741,3221225477,1610612741,3221225477,1610612741,3221225477,1610612741,3221225477,2684354565,1610612741,1610612741,1610612741,1610612741,1610612741,1610612741,1610612741,1610612741,1610612741,1610612741,2684354565,2684354565,3221225477,1610612741,3221225477,1610612741,3221225477,1610612741,3221225477,1610612741,3221225477,1610612741,3221225477,1610612741,3221225477,1610612741,3221225477,1610612741,3221225477,1610612741,3221225477,1610612741,3221225477,1610612741,3221225477,1610612741,3221225477,1610612741,3221225477,1610612741,3221225477,1610612741,3221225477,1610612741,3221225477,1610612741,3221225477,1610612741,3221225477,1610612741,3221225477,1610612741,3221225477,1610612741,3221225477,1610612741,3221225477,1610612741,3221225477,1610612741,3221225477,1610612741,3221225477,1610612741,3221225477,1610612741,3221225477,1610612741,3221225477,1610612741,3221225477,1610612741,3221225477,1610612741,20,1610612741,3221225477,1610612741,3221225477,1610612741,3221225477,1610612741,3221225477,1610612741,3221225477,1610612741,3221225477,3221225477,2684354565,2684354565,2684354565,2684354565,2684354565,2684354565,2684354565,2684354565,2684354565,2684354565,3221225476,1073741832,54,0,0,
0,0,43,2147483656,4,5,5,5,5,5,5,5,5,5,5,1610612741,1610612741,1610612741,1610612741,1610612741,1610612741,1610612741,1610612741,1610612741,2684354565,1610612741,1610612741,1610612741,1610612741,1610612741,1610612741,1610612741,1610612741,1610612741,1610612741,2684354565,2684354565,1610612741,1610612741,1610612741,1610612741,1610612741,1610612741,1610612741,1610612741,1610612741,1610612741,1610612741,1610612741,1610612741,1610612741,1610612741,1610612741,1610612741,1610612741,1610612741,1610612741,1610612741,1610612741,1610612741,1610612741,1610612741,1610612741,1610612741,1610612741,1610612741,1610612741,1610612741,1610612741,1610612741,1610612741,1610612741,1610612741,1610612741,1610612741,1610612741,1610612741,1610612741,1610612741,1610612741,1610612741,1610612741,1610612741,1610612741,1610612741,1610612741,1610612741,1610612741,1610612741,1610612741,1610612741,1610612741,1610612741,1610612741,1610612741,1610612741,1610612741,1610612741,1610612741,1610612741,1610612741,1610612741,1610612741,1610612741,1610612741,1610612741,1610612741,1610612741,1610612741,1610612741,1610612741,1610612741,1610612741,2684354565,2684354565,2684354565,2684354565,2684354565,2684354565,2684354565,2684354565,2684354565,2684354565,3221225476,1073741832,54,0,0,
0,0,58,2147483656,4,5,5,5,1610612742,5,1610612742,5,1610612742,5,1610612742,1610612741,1610612742,1610612741,1610612742,1610612741,1610612742,1610612741,1610612742,1610612741,2684354565,1610612742,1610612741,1610612742,1610612741,1610612741,1610612741,1610612741,2684354566,1610612741,2684354566,2684354565,2684354566,1610612741,1610612742,1610612741,1610612742,1610612741,1610612742,1610612741,1610612742,1610612741,1610612742,1610612741,1610612742,1610612741,1610612742,1610612741,1610612742,1610612741,1610612742,1610612741,1610612742,1610612741,1610612742,1610612741,1610612742,1610612741,1610612742,1610612741,1610612742,1610612741,1610612742,1610612741,1610612742,1610612741,1610612742,1610612741,1610612742,1610612741,1610612742,1610612741,1610612742,1610612741,1610612742,1610612741,1610612742,1610612741,1610612742,1610612741,1610612742,1610612741,1610612742,1610612741,1610612742,1610612741,1610612742,1610612741,1610612742,1610612741,1610612742,1610612741,1610612742,1610612741,1610612742,1610612741,1610612742,1610612741,1610612742,1610612741,1610612742,1610612741,1610612742,1610612741,1610612742,1610612741,1610612742,1610612741,1610612742,2684354565,1610612742,2684354565,1610612742,2684354565,2684354566,2684354565,2684354565,2684354565,2684354565,3221225476,1073741832,24,0,0,
0,0,58,2147483656,4,5,5,6,5,5,5,5,5,5,5,1610612741,1610612741,1610612741,1610612741,1610612741,1610612741,1610612741,1610612741,1610612741,2684354565,1610612741,1610612741,1610612741,1610612741,1610612741,1610612741,1610612741,1610612741,1610612741,1610612741,2684354565,2684354565,1610612741,1610612741,1610612741,1610612741,1610612741,1610612741,1610612741,1610612741,1610612741,1610612741,1610612741,1610612741,1610612741,1610612741,1610612741,1610612741,1610612741,1610612741,1610612741,1610612741,1610612741,1610612741,1610612741,1610612741,1610612741,1610612741,1610612741,1610612741,1610612741,1610612741,1610612741,1610612741,1610612741,1610612741,1610612741,1610612741,1610612741,1610612741,1610612741,1610612741,1610612741,1610612741,1610612741,1610612741,1610612741,1610612741,1610612741,1610612741,1610612741,1610612741,1610612741,1610612741,1610612741,1610612741,1610612741,1610612741,1610612741,1610612741,1610612741,1610612741,1610612741,1610612741,1610612741,1610612741,1610612741,1610612741,1610612741,1610612741,1610612741,1610612741,1610612741,1610612741,1610612741,1610612741,1610612741,1610612741,2684354565,2684354565,2684354565,2684354565,2684354565,2684354565,2684354565,5,2684354565,2684354565,3221225476,1073741832,39,0,0,
0,0,58,2147483656,4,5,5,5,5,5,5,5,5,5,5,1610612741,1610612741,1610612741,1610612741,1610612741,1610612741,1610612741,1610612741,1610612741,2684354565,1610612741,1610612741,1610612741,1610612741,1610612741,1610612741,1610612741,1610612741,1610612741,1610612741,2684354565,2684354565,1610612741,1610612741,1610612741,1610612741,1610612741,1610612741,1610612741,1610612741,1610612741,1610612741,1610612741,1610612741,1610612741,1610612741,1610612741,1610612741,1610612741,1610612741,1610612741,1610612741,1610612741,1610612741,1610612741,1610612741,1610612741,1610612741,1610612741,1610612741,1610612741,1610612741,1610612741,1610612741,1610612741,1610612741,1610612741,1610612741,1610612741,1610612741,1610612741,1610612741,1610612741,1610612741,1610612741,1610612741,1610612741,1610612741,1610612741,1610612741,1610612741,1610612741,1610612741,1610612741,1610612741,1610612741,1610612741,1610612741,1610612741,1610612741,1610612741,1610612741,1610612741,1610612741,1610612741,1610612741,1610612741,1610612741,1610612741,1610612741,1610612741,1610612741,1610612741,1610612741,1610612741,1610612741,1610612741,1610612741,2684354565,2684354565,2684354565,2684354565,2684354565,2684354565,2684354565,6,2684354565,2684354565,3221225476,1073741832,54,0,0,
0,0,58,2147483656,4,5,5,6,5,5,3221225477,5,1610612742,5,1610612742,1610612741,1610612742,1610612741,1610612742,1610612741,1610612742,1610612741,1610612742,1610612741,2684354565,1610612742,1610612741,1610612742,1610612741,1610612741,1610612741,1610612741,2684354566,1610612741,2684354566,2684354565,2684354566,1610612741,1610612742,1610612741,1610612742,1610612741,1610612742,1610612741,1610612742,1610612741,1610612742,1610612741,1610612742,1610612741,1610612742,1610612741,1610612742,1610612741,1610612742,1610612741,1610612742,1610612741,1610612742,1610612741,1610612742,1610612741,1610612742,1610612741,1610612742,1610612741,1610612742,1610612741,1610612742,1610612741,1610612742,1610612741,1610612742,1610612741,1610612742,1610612741,1610612742,1610612741,1610612742,1610612741,1610612742,1610612741,1610612742,1610612741,1610612742,1610612741,1610612742,1610612741,1610612742,1610612741,1610612742,1610612741,1610612742,1610612741,1610612742,1610612741,1610612742,1610612741,1610612742,1610612741,1610612742,1610612741,1610612742,1610612741,1610612742,1610612741,1610612742,1610612741,1610612742,1610612741,1610612742,1610612741,1610612742,2684354565,1610612742,2684354565,1610612742,1610612741,2684354565,2684354565,5,2684354565,2684354565,3221225476,1073741832,24,0,0,
0,0,58,2147483656,4,5,5,5,5,5,5,5,5,5,5,1610612741,1610612741,1610612741,1610612741,1610612741,1610612741,1610612741,1610612741,1610612741,2684354565,1610612741,1610612741,1610612741,1610612741,1610612741,1610612741,1610612741,1610612741,1610612741,1610612741,2684354565,2684354565,20,1610612741,1610612741,1610612741,1610612741,1610612741,1610612741,1610612741,1610612741,1610612741,1610612741,1610612741,1610612741,1610612741,1610612741,1610612741,1610612741,1610612741,1610612741,1610612741,1610612741,1610612741,1610612741,1610612741,1610612741,1610612741,1610612741,1610612741,1610612741,1610612741,1610612741,1610612741,1610612741,1610612741,1610612741,1610612741,1610612741,1610612741,1610612741,1610612741,1610612741,1610612741,1610612741,1610612741,1610612741,1610612741,1610612741,1610612741,1610612741,1610612741,1610612741,1610612741,1610612741,1610612741,1610612741,1610612741,1610612741,1610612741,1610612741,1610612741,1610612741,1610612741,1610612741,1610612741,1610612741,1610612741,1610612741,1610612741,1610612741,1610612741,1610612741,1610612741,1610612741,1610612741,1610612741,1610612741,2684354565,2684354565,2684354565,2684354565,6,2684354565,2684354565,6,2684354565,2684354565,3221225476,1073741832,39,0,0,
0,0,58,2147483656,4,5,5,6,5,5,6,5,5,5,5,1610612741,1610612741,1610612741,1610612741,1610612741,1610612741,1610612741,1610612741,1610612741,5,1610612741,1610612741,1610612741,3221225478,1610612741,1610612741,3221225478,1610612741,1610612741,1610612741,5,2684354565,1610612741,1610612741,1610612741,1610612741,1610612741,1610612741,1610612741,1610612741,1610612741,1610612741,1610612741,1610612741,1610612741,1610612741,1610612741,1610612741,1610612741,1610612741,1610612741,1610612741,1610612741,1610612741,1610612741,1610612741,1610612741,1610612741,1610612741,1610612741,1610612741,1610612741,1610612741,1610612741,1610612741,1610612741,1610612741,1610612741,1610612741,1610612741,1610612741,1610612741,1610612741,1610612741,1610612741,1610612741,1610612741,1610612741,1610612741,1610612741,1610612741,1610612741,1610612741,1610612741,1610612741,1610612741,1610612741,1610612741,1610612741,1610612741,1610612741,1610612741,1610612741,1610612741,1610612741,1610612741,1610612741,1610612741,1610612741,1610612741,1610612741,1610612741,1610612741,1610612741,1610612741,1610612741,1610612741,1610612741,2684354565,2684354565,2684354565,2684354565,2684354565,2684354565,2684354565,5,2684354565,2684354565,3221225476,1073741832,54,0,0,
0,0,58,2147483656,4,5,5,5,5,5,5,5,5,5,2684354567,2684354567,2684354567,2684354567,2684354567,2684354567,2684354567,2684354567,2684354567,2684354567,2684354567,1610612741,1610612741,1610612741,1610612741,1610612741,1610612741,1610612741,1610612741,1610612741,1610612741,2684354567,2684354567,2684354567,2684354567,2684354567,2684354567,2684354567,2684354567,2684354567,2684354567,2684354567,2684354567,2684354567,2684354567,2684354567,2684354567,2684354567,2684354567,2684354567,2684354567,2684354567,2684354567,2684354567,2684354567,2684354567,2684354567,2684354567,2684354567,2684354567,2684354567,2684354567,2684354567,2684354567,2684354567,2684354567,2684354567,2684354567,2684354567,2684354567,2684354567,2684354567,2684354567,2684354567,2684354567,2684354567,2684354567,2684354567,2684354567,2684354567,2684354567,2684354567,2684354567,2684354567,2684354567,2684354567,2684354567,2684354567,2684354567,2684354567,2684354567,2684354567,2684354567,2684354567,2684354567,2684354567,2684354567,2684354567,2684354567,2684354567,2684354567,2684354567,2684354567,2684354567,2684354567,2684354567,2684354567,2684354567,2684354567,2684354567,2684354565,2684354565,2684354565,6,2684354565,2684354565,6,2684354565,2684354565,3221225476,1073741832,24,0,0,
0,0,58,2147483656,4,5,5,6,5,5,6,5,5,7,5,5,536870920,536870920,536870920,536870920,536870920,536870920,536870920,2684354568,1610612741,3221225479,2684354565,3221225477,3221225478,3221225477,3221225477,3221225478,3221225477,3221225477,7,1610612741,536870920,536870920,536870920,536870920,536870920,536870920,536870920,536870920,536870920,536870920,536870920,536870920,536870920,536870920,536870920,536870920,536870920,536870920,536870920,536870920,536870920,536870920,536870920,536870920,536870920,536870920,536870920,536870920,536870920,536870920,536870920,536870920,536870920,536870920,536870920,536870920,536870920,536870920,536870920,536870920,536870920,536870920,536870920,536870920,536870920,536870920,536870920,536870920,536870920,536870920,536870920,536870920,536870920,536870920,536870920,536870920,536870920,536870920,536870920,536870920,536870920,536870920,536870920,536870920,536870920,536870920,536870920,536870920,536870920,536870920,536870920,536870920,536870920,536870920,536870920,536870920,536870920,2684354565,3221225479,2684354565,2684354565,2684354565,2684354565,2684354565,5,2684354565,2684354565,3221225476,1073741832,39,0,0,
0,0,1610612808,3221225480,3221225479,2684354565,3221225477,3221225477,3221225477,3221225477,3221225477,3221225477,3221225477,7,1073741832,9,10,12,10,12,10,12,10,3221225616,3221225480,3221225479,3221225477,3221225477,1610612741,3221225477,3221225477,1610612741,3221225477,3221225477,7,1073741832,1610612749,12,10,12,10,12,10,12,10,12,10,12,10,12,10,12,10,12,10,12,10,12,10,12,10,12,10,12,10,12,10,12,10,12,10,12,10,12,10,12,10,12,10,12,10,12,10,12,10,12,10,12,10,12,10,12,10,12,10,12,10,12,10,12,10,12,10,12,10,12,10,12,10,12,10,12,2684354569,2684354565,3221225479,5,5,6,5,5,6,5,1610612741,7,1073741832,24,0,0,
0,0,1610612808,3221225480,3221225479,3221225477,3221225477,3221225478,3221225477,3221225477,3221225478,3221225477,3221225477,7,1073741832,1610612746,25,26,26,26,26,26,27,43,3221225480,3221225479,3221225477,3221225477,3221225478,3221225477,3221225477,3221225478,3221225477,3221225477,7,8,24,25,26,26,26,26,26,26,26,26,26,26,26,26,26,26,26,26,26,26,26,26,26,1610612833,1610612853,1610612853,1610612853,1610612853,1610612853,1610612853,1610612853,1610612853,1610612853,1610612853,1610612853,1610612853,1610612853,1610612853,1610612853,1610612853,1610612853,1610612853,1610612853,1610612853,1610612853,1610612853,1610612853,1610612853,1610612853,96,97,26,26,26,26,26,26,26,26,26,26,26,26,26,26,26,26,26,26,26,26,26,26,26,26,27,2684354572,2147483656,3221225479,5,5,5,5,5,5,5,1610612741,7,8,2684354632,0,0,
0,0,1610612808,3221225480,3221225479,2684354565,3221225477,3221225477,3221225477,3221225477,3221225477,3221225477,3221225477,7,1073741832,1610612748,40,41,41,41,41,41,42,58,3221225480,3221225479,2684354565,3221225477,3221225477,3221225477,3221225477,3221225477,3221225477,3221225477,7,8,24,40,41,41,41,41,41,41,41,41,41,41,41,41,41,95,96,96,96,96,96,96,96,3221225563,116,116,116,116,116,116,116,116,116,116,116,116,116,116,116,116,116,116,116,116,116,116,116,116,116,91,92,41,41,41,41,41,41,41,41,41,41,41,41,41,41,41,41,41,41,41,41,41,41,41,41,42,2684354570,2147483656,3221225479,5,5,6,5,5,6,5,5,7,8,2684354632,0,0,
0,0,1610612808,3221225480,3221225479,3221225477,3221225477,3221225478,3221225477,3221225477,3221225478,3221225477,3221225477,7,1073741832,1610612746,40,41,41,41,41,41,42,43,3221225480,3221225479,3221225477,3221225477,3221225478,3221225477,3221225477,3221225478,3221225477,3221225477,7,8,24,40,41,41,41,41,41,41,41,95,96,96,96,96,96,3221225563,91,126,126,126,126,126,126,126,2684354677,2684354677,2684354677,2684354677,2684354677,2684354677,2684354677,2684354677,2684354677,2684354677,2684354677,2684354677,2684354677,2684354677,2684354677,2684354677,2684354677,2684354677,2684354677,2684354677,2684354677,2684354677,2684354677,2684354677,2684354677,132,56,56,56,56,56,56,56,56,56,56,56,56,56,56,56,56,56,56,56,56,56,56,56,56,56,57,2684354572,2147483656,3221225479,5,5,5,5,5,5,5,1610612741,7,8,2684354632,0,0,
0,0,1610612808,3221225480,3221225479,2684354565,3221225477,3221225477,3221225477,3221225477,3221225477,3221225477,3221225477,7,1073741832,1610612748,40,41,41,41,41,41,42,58,3221225480,3221225479,2684354565,3221225477,3221225477,3221225477,3221225477,3221225477,3221225477,3221225477,7,8,24,40,41,41,41,95,96,96,97,110,111,111,111,111,111,111,112,3221225526,3221225484,3221225483,3221225482,3221225484,3221225484,3221225484,3221225484,3221225484,3221225484,3221225484,3221225484,3221225484,72,2684354618,2684354603,2684354588,2684354618,2684354603,2684354618,2684354603,2684354618,2684354603,2684354618,2684354603,2684354618,2684354603,2684354618,2684354603,2684354618,2684354603,2684354618,2684354603,2684354618,2684354603,2684354618,2684354603,2684354618,2684354603,2684354618,2684354603,2684354618,2684354603,2684354618,2684354603,2684354618,2684354603,2684354618,2684354603,2684354618,2684354603,2684354618,2684354603,2684354618,2684354603,2684354618,2684354603,2684354618,2684354603,1610612880,3221225480,3221225479,5,5,3221225478,5,5,3221225478,5,1610612741,7,8,3221225530,0,0,
0,0,1610612808,3221225480,3221225479,3221225477,20,3221225478,3221225477,3221225477,3221225478,3221225477,3221225477,7,1073741832,1610612746,40,41,41,41,41,41,42,43,3221225480,3221225479,3221225477,3221225477,3221225478,3221225477,3221225477,3221225478,3221225477,3221225477,7,8,24,40,41,41,41,110,111,111,1610612827,3221225563,111,111,111,111,111,111,112,3221225511,3758096392,3758096392,3758096392,3758096392,3758096392,3758096392,3758096392,3758096392,3758096392,3758096392,3758096392,3758096392,1610612744,1610612744,1610612744,1610612744,1610612744,1610612744,1610612744,1610612744,1610612744,1610612744,1610612744,1610612744,1610612744,1610612744,1610612744,1610612744,1610612744,1610612744,1610612744,1610612744,1610612744,1610612744,1610612744,1610612744,1610612744,1610612744,1610612744,1610612744,1610612744,1610612744,1610612744,1610612744,1610612744,1610612744,1610612744,1610612744,1610612744,1610612744,1610612744,1610612744,1610612744,1610612744,1610612744,1610612744,1610612744,1610612744,1610612744,5,3221225479,2684354565,3221225477,3221225477,3221225477,3221225477,3221225477,3221225477,3221225477,7,8,24,0,0,
0,0,1610612808,3221225480,3221225479,2684354565,3221225477,3221225477,3221225477,3221225477,3221225477,3221225477,3221225477,7,1073741832,1610612748,40,41,41,41,41,41,42,58,3221225480,3221225479,2684354565,3221225477,3221225477,3221225477,3221225477,3221225477,3221225477,3221225477,7,8,24,40,41,41,41,110,111,111,111,111,111,111,111,111,111,111,112,3221225496,2147483656,5,2684354564,2684354564,2684354564,2684354564,2684354564,2684354564,2684354564,2684354564,2684354564,2684354564,1610612743,1610612743,1610612743,1610612743,1610612743,1610612743,1610612743,1610612743,1610612743,1610612743,1610612743,1610612743,1610612743,1610612743,1610612743,1610612743,1610612743,1610612743,1610612743,1610612743,1610612743,1610612743,1610612743,1610612743,1610612743,1610612743,1610612743,1610612743,1610612743,1610612743,1610612743,1610612743,1610612743,1610612743,1610612743,1610612743,1610612743,1610612743,1610612743,1610612743,1610612743,1610612743,1610612743,1610612743,1610612743,1610612743,1610612743,1610612743,5,5,5,6,5,5,6,5,5,7,8,24,0,0,
0,0,1610612808,3221225480,3221225479,3221225477,3221225477,3221225478,3221225477,3221225477,3221225478,3221225477,3221225477,7,1073741832,1610612746,40,41,41,41,41,41,42,43,3221225480,3221225479,3221225477,3221225477,3221225478,3221225477,3221225477,3221225478,3221225477,3221225477,7,8,24,40,41,41,41,110,111,111,111,111,111,111,111,111,111,111,112,3221225496,2147483656,4,5,5,5,5,5,5,5,5,5,5,3221225477,3221225477,1610612741,3221225477,3221225477,1610612741,3221225477,1610612741,3221225477,1610612741,3221225477,1610612741,3221225477,1610612741,3221225477,1610612741,3221225477,1610612741,3221225477,1610612741,3221225477,1610612741,3221225477,1610612741,3221225477,1610612741,3221225477,1610612741,3221225477,1610612741,3221225477,1610612741,3221225477,1610612741,3221225477,1610612741,3221225477,1610612741,3221225477,1610612741,3221225477,1610612741,3221225477,1610612741,3221225477,1610612741,1610612741,3221225477,5,5,5,5,5,5,5,5,5,7,8,24,0,0,
0,0,1610612808,3221225480,3221225479,2684354565,3221225477,3221225477,3221225477,3221225477,3221225477,3221225477,3221225477,7,1073741832,1610612748,40,41,41,41,41,41,42,58,3221225480,3221225479,2684354565,3221225477,3221225477,3221225477,3221225477,3221225477,3221225477,3221225477,7,8,24,40,41,41,41,125,126,126,2684354651,111,111,111,111,91,126,126,127,3221225496,2147483656,4,5,5,5,5,5,5,5,5,5,5,1610612741,1610612741,1610612741,1610612741,1610612741,1610612741,1610612741,1610612741,1610612741,1610612741,1610612741,1610612741,1610612741,1610612741,1610612741,1610612741,1610612741,1610612741,1610612741,1610612741,1610612741,1610612741,1610612741,1610612741,1610612741,1610612741,1610612741,1610612741,1610612741,1610612741,1610612741,1610612741,1610612741,1610612741,1610612741,1610612741,1610612741,1610612741,1610612741,1610612741,1610612741,1610612741,1610612741,1610612741,1610612741,1610612741,1610612741,1610612741,5,5,5,6,5,5,6,5,5,7,8,24,0,0,
0,0,1610612808,3221225480,3221225479,3221225477,3221225477,3221225478,3221225477,3221225477,3221225478,3221225477,3221225477,7,1073741832,1610612746,40,41,41,41,41,41,42,43,3221225480,3221225479,3221225477,3221225477,3221225478,3221225477,3221225477,3221225478,3221225477,3221225477,7,8,24,40,41,41,41,41,41,41,125,2684354651,111,111,111,112,41,41,42,3221225496,2147483656,4,5,5,5,1610612742,5,1610612742,5,1610612742,5,1610612742,1610612741,1610612742,1610612741,1610612742,1610612741,1610612742,1610612741,1610612742,1610612741,1610612742,1610612741,1610612742,1610612741,1610612742,1610612741,1610612742,1610612741,1610612742,1610612741,1610612742,1610612741,1610612742,1610612741,1610612742,1610612741,1610612742,1610612741,1610612742,1610612741,1610612742,1610612741,1610612742,1610612741,1610612742,1610612741,1610612742,1610612741,1610612742,1610612741,1610612742,1610612741,1610612742,1610612741,1610612742,1610612741,1610612742,5,1610612742,5,1610612742,5,5,5,5,5,5,5,7,8,24,0,0,
0,0,1610612808,3221225480,3221225479,2684354565,3221225477,3221225477,3221225477,3221225477,3221225477,3221225477,3221225477,7,1073741832,1610612748,40,41,41,41,41,41,42,58,3221225480,3221225479,2684354565,3221225477,3221225477,3221225477,3221225477,3221225477,3221225477,3221225477,7,8,24,40,41,41,41,41,41,41,41,125,126,126,126,127,41,41,42,3221225496,2147483656,4,5,5,6,5,5,5,5,5,5,5,1610612741,1610612741,1610612741,1610612741,1610612741,1610612741,1610612741,1610612741,1610612741,1610612741,1610612741,1610612741,1610612741,1610612741,1610612741,1610612741,1610612741,1610612741,1610612741,1610612741,1610612741,1610612741,1610612741,1610612741,1610612741,1610612741,1610612741,1610612741,1610612741,1610612741,1610612741,1610612741,1610612741,1610612741,1610612741,1610612741,1610612741,1610612741,1610612741,1610612741,1610612741,1610612741,1610612741,1610612741,1610612741,1610612741,1610612741,1610612741,5,5,5,5,5,5,5,5,5,7,8,24,0,0,
0,0,1610612808,3221225480,3221225479,3221225477,3221225477,3221225478,3221225477,3221225477,3221225478,3221225477,3221225477,7,1073741832,1610612746,40,41,41,41,41,41,42,43,3221225480,3221225479,3221225477,3221225477,3221225478,3221225477,3221225477,3221225478,3221225477,3221225477,7,8,24,40,41,41,41,41,41,41,41,41,41,41,41,41,41,41,42,3221225511,2147483656,4,5,5,5,5,5,5,5,5,5,5,1610612741,1610612741,1610612741,1610612741,1610612741,1610612741,1610612741,1610612741,1610612741,1610612741,1610612741,1610612741,1610612741,1610612741,1610612741,1610612741,1610612741,1610612741,1610612741,1610612741,1610612741,1610612741,1610612741,1610612741,1610612741,1610612741,1610612741,1610612741,1610612741,1610612741,1610612741,1610612741,1610612741,1610612741,1610612741,1610612741,1610612741,1610612741,1610612741,1610612741,1610612741,1610612741,1610612741,1610612741,1610612741,1610612741,1610612741,1610612741,5,5,5,5,5,5,5,5,5,7,8,24,0,0,
0,0,1610612808,3221225480,3221225479,2684354565,3221225477,3221225477,3221225477,3221225477,3221225477,3221225477,3221225477,7,1073741832,1610612748,40,41,41,41,41,41,42,58,3221225480,3221225479,2684354565,3221225477,3221225477,3221225477,3221225477,3221225477,3221225477,3221225477,7,8,24,40,41,41,41,41,41,41,41,41,41,41,41,41,41,41,42,3221225496,2147483656,4,5,5,6,5,5,3221225477,5,1610612742,5,1610612742,1610612741,1610612742,1610612741,1610612742,1610612741,1610612742,1610612741,1610612742,1610612741,1610612742,1610612741,1610612742,1610612741,1610612742,1610612741,1610612742,1610612741,1610612742,1610612741,1610612742,1610612741,1610612742,1610612741,1610612742,1610612741,1610612742,1610612741,1610612742,1610612741,1610612742,1610612741,1610612742,1610612741,1610612742,1610612741,1610612742,1610612741,1610612742,1610612741,1610612742,1610612741,1610612742,1610612741,1610612742,1610612741,1610612742,5,1610612742,5,1610612742,5,5,20,5,5,5,5,7,8,24,0,0,
0,0,1610612808,3221225480,3221225479,3221225477,3221225477,3221225478,3221225477,3221225477,3221225478,3221225477,3221225477,7,1073741832,1610612746,40,41,41,41,41,41,42,43,3221225480,3221225479,3221225477,3221225477,3221225478,3221225477,3221225477,3221225478,3221225477,3221225477,7,8,24,40,41,41,41,41,41,41,41,41,41,41,41,41,41,41,42,3221225526,2147483656,4,5,5,5,5,5,5,5,5,5,5,1610612741,1610612741,1610612741,1610612741,1610612741,1610612741,1610612741,1610612741,1610612741,1610612741,1610612741,1610612741,1610612741,1610612741,1610612741,1610612741,1610612741,1610612741,1610612741,1610612741,1610612741,1610612741,1610612741,1610612741,1610612741,1610612741,1610612741,1610612741,1610612741,1610612741,1610612741,1610612741,1610612741,1610612741,1610612741,1610612741,1610612741,1610612741,1610612741,1610612741,1610612741,1610612741,1610612741,1610612741,1610612741,1610612741,1610612741,1610612741,5,5,5,3221225478,5,5,3221225478,5,5,7,8,24,0,0,
0,0,1610612808,3221225480,3221225479,2684354565,3221225477,3221225477,3221225477,3221225477,3221225477,3221225477,3221225477,7,1073741832,1610612748,40,41,41,41,41,41,42,58,3221225480,3221225479,2684354565,3221225477,3221225477,3221225477,3221225477,3221225477,3221225477,3221225477,7,8,24,40,41,41,41,41,41,41,41,41,41,41,41,41,41,41,42,3221225511,2147483656,4,5,5,6,5,5,6,5,5,5,5,1610612741,1610612741,1610612741,1610612741,1610612741,1610612741,1610612741,1610612741,1610612741,1610612741,1610612741,1610612741,1610612741,1610612741,1610612741,1610612741,1610612741,1610612741,1610612741,1610612741,1610612741,1610612741,1610612741,1610612741,1610612741,1610612741,1610612741,1610612741,1610612741,1610612741,1610612741,1610612741,1610612741,1610612741,1610612741,1610612741,1610612741,1610612741,1610612741,1610612741,1610612741,1610612741,1610612741,1610612741,1610612741,1610612741,1610612741,1610612741,5,5,5,5,5,5,5,5,5,7,8,39,0,0,
0,0,1610612808,3221225480,3221225479,3221225477,3221225477,3221225478,3221225477,3221225477,3221225478,3221225477,3221225477,7,1073741832,1610612746,40,41,41,41,41,41,42,43,3221225480,3221225479,3221225477,3221225477,3221225478,3221225477,3221225477,3221225478,3221225477,3221225477,7,8,24,40,41,41,41,41,41,41,41,41,41,41,41,41,41,41,42,3221225496,2147483656,4,5,20,5,5,5,5,5,5,5,2684354567,2684354567,2684354567,2684354567,2684354567,2684354567,2684354567,2684354567,2684354567,2684354567,2684354567,2684354567,2684354567,2684354567,2684354567,2684354567,2684354567,2684354567,2684354567,2684354567,2684354567,2684354567,2684354567,2684354567,2684354567,2684354567,2684354567,2684354567,2684354567,2684354567,2684354567,2684354567,2684354567,2684354567,2684354567,2684354567,2684354567,2684354567,2684354567,2684354567,2684354567,2684354567,2684354567,2684354567,2684354567,2684354567,2684354567,2684354567,2684354567,5,5,5,3221225478,5,5,3221225478,5,5,7,8,24,0,0,
0,0,1610612808,3221225480,3221225479,2684354565,3221225477,3221225477,3221225477,3221225477,3221225477,3221225477,3221225477,7,1073741832,1610612748,40,41,41,41,41,41,42,58,3221225480,3221225479,2684354565,3221225477,3221225477,3221225477,3221225477,3221225477,3221225477,3221225477,7,8,24,40,41,41,41,41,41,41,41,41,41,41,41,41,41,41,42,3221225526,2147483656,4,5,5,6,5,5,6,5,5,7,5,536870920,2684354568,2684354568,2684354568,2684354568,2684354568,2684354568,2684354568,2684354568,2684354568,2684354568,2684354568,2684354568,2684354568,2684354568,2684354568,2684354568,2684354568,2684354568,2684354568,2684354568,2684354568,2684354568,2684354568,2684354568,2684354568,2684354568,2684354568,2684354568,2684354568,2684354568,2684354568,2684354568,2684354568,2684354568,2684354568,2684354568,2684354568,2684354568,2684354568,2684354568,2684354568,2684354568,2684354568,2684354568,2684354568,536870920,5,3221225479,2684354565,3221225477,3221225477,3221225477,3221225477,3221225477,3221225477,3221225477,7,8,24,0,0,
0,0,1610612808,3221225480,3221225479,3221225477,3221225477,3221225478,3221225477,3221225477,3221225478,3221225477,3221225477,7,1073741832,1610612746,40,41,41,41,41,41,42,43,3221225480,3221225479,3221225477,3221225477,3221225478,3221225477,3221225477,3221225478,3221225477,3221225477,7,8,24,40,41,41,41,41,41,41,41,41,41,41,41,41,41,41,42,1610612808,3221225480,3221225479,2684354565,3221225477,3221225477,3221225477,3221225477,3221225477,3221225477,3221225477,7,1073741832,84,2684354584,2684354584,2684354584,2684354584,2684354584,2684354584,2684354584,2684354584,2684354584,2684354584,2684354584,2684354584,2684354584,2684354584,2684354584,2684354584,2684354584,2684354584,2684354584,2684354584,2684354584,2684354584,2684354584,2684354584,2684354584,2684354584,2684354584,2684354584,2684354584,2684354584,2684354584,2684354584,2684354584,2684354584,2684354584,2684354584,2684354584,2684354584,2684354584,2684354584,2684354584,2684354584,2684354584,2684354584,2684354584,13,2147483656,3221225479,3221225477,3221225477,3221225478,3221225477,3221225477,3221225478,3221225477,3221225477,7,8,24,0,0,
0,0,1610612808,3221225480,3221225479,2684354565,3221225477,3221225477,3221225477,3221225477,3221225477,3221225477,3221225477,7,1073741832,1610612748,40,41,41,41,41,41,42,58,3221225480,3221225479,2684354565,3221225477,3221225477,3221225477,3221225477,3221225477,3221225477,3221225477,7,8,24,40,41,41,41,41,41,41,41,41,41,41,41,41,41,41,42,28,3221225480,3221225479,2684354565,3221225477,3221225477,3221225477,3221225477,3221225477,3221225477,3221225477,7,8,24,25,26,26,26,26,26,26,26,26,26,26,26,26,26,26,26,26,26,26,26,26,26,26,26,26,26,26,26,26,26,26,26,26,26,26,26,26,26,26,26,26,26,26,26,27,2684354570,2147483656,3221225479,5,5,3221225477,5,5,3221225477,5,5,7,8,2684354632,0,0,
0,0,1610612808,3221225480,3221225479,3221225477,3221225477,3221225478,3221225477,3221225477,3221225478,3221225477,3221225477,7,1073741832,1610612746,40,41,41,41,41,41,42,43,3221225480,3221225479,3221225477,3221225477,3221225478,3221225477,3221225477,3221225478,3221225477,3221225477,7,8,24,40,41,41,41,41,41,41,41,41,41,41,41,41,41,41,42,43,3221225480,3221225479,3221225477,3221225477,3221225478,3221225477,3221225477,3221225478,3221225477,3221225477,7,8,24,40,41,41,41,41,41,41,41,41,41,41,41,41,41,41,41,41,41,41,41,41,41,41,41,41,41,41,41,41,41,41,41,41,41,41,41,41,41,41,41,41,41,41,41,42,2684354572,2147483656,3221225479,5,5,5,5,5,5,5,1610612741,7,8,2684354632,0,0,
0,0,1610612808,3221225480,3221225479,2684354565,3221225477,3221225477,3221225477,3221225477,3221225477,3221225477,3221225477,7,1073741832,1610612748,40,41,41,41,41,41,42,58,3221225480,3221225479,2684354565,3221225477,3221225477,3221225477,3221225477,3221225477,3221225477,3221225477,7,8,24,40,41,41,41,41,41,41,41,41,41,41,41,41,41,41,42,58,3221225480,3221225479,2684354565,3221225477,3221225477,3221225477,3221225477,3221225477,3221225477,3221225477,7,8,24,40,41,41,41,41,41,41,41,41,41,41,41,41,41,41,41,41,41,41,41,41,41,41,41,41,41,41,41,41,41,41,41,41,41,41,41,41,41,41,41,41,41,41,41,42,2684354570,2147483656,3221225479,5,5,6,5,5,6,5,5,7,8,2684354632,0,0,
0,0,1610612808,3221225480,3221225479,3221225477,3221225477,3221225478,3221225477,3221225477,3221225478,3221225477,3221225477,7,1073741832,1610612746,40,41,41,41,41,41,42,43,3221225480,3221225479,3221225477,3221225477,3221225478,3221225477,3221225477,3221225478,3221225477,3221225477,7,8,24,40,41,41,41,41,41,41,41,41,41,41,41,41,41,41,42,43,3221225480,3221225479,3221225477,3221225477,3221225478,3221225477,3221225477,3221225478,3221225477,3221225477,7,8,24,40,41,41,41,41,41,41,41,41,41,41,41,41,41,41,41,41,41,41,41,41,41,41,41,41,41,41,41,41,41,41,41,41,41,41,41,41,41,41,41,41,41,41,41,42,2684354572,2147483656,3221225479,5,5,5,5,5,5,5,1610612741,7,8,2684354632,0,0,
0,0,1610612808,3221225480,3221225479,2684354565,3221225477,3221225477,3221225477,3221225477,3221225477,3221225477,3221225477,7,1073741832,1610612748,55,56,56,56,56,56,57,58,3221225480,3221225479,2684354565,3221225477,3221225477,3221225477,3221225477,3221225477,3221225477,3221225477,7,8,24,55,56,56,56,56,56,56,56,56,56,56,56,56,56,56,57,58,3221225480,3221225479,2684354565,3221225477,3221225477,3221225477,3221225477,3221225477,3221225477,3221225477,7,8,24,55,56,56,56,56,56,56,56,56,56,56,56,56,56,56,56,56,56,56,56,56,56,56,56,56,56,56,56,56,56,56,56,56,56,56,56,56,56,56,41,41,41,41,41,42,2684354570,2147483656,3221225479,5,5,6,5,5,6,5,5,7,8,2684354632,0,0,
0,0,1610612808,3221225480,3221225479,3221225477,3221225477,3221225478,3221225477,3221225477,3221225478,3221225477,3221225477,7,1073741832,2684354573,1610612760,1610612760,1610612760,1610612760,1610612760,1610612760,1610612760,2684354573,2147483656,3221225479,5,5,6,5,5,6,5,5,7,8,144,1610612760,1610612760,1610612760,1610612760,1610612760,1610612760,1610612760,1610612760,1610612760,1610612760,1610612760,1610612760,1610612760,1610612760,1610612760,1610612760,3221225481,3221225480,3221225479,1610612741,1610612741,3221225478,1610612741,1610612741,3221225478,1610612741,1610612741,7,8,1610612745,2684354618,2684354603,2684354618,2684354603,2684354618,2684354603,2684354618,2684354603,2684354618,2684354603,2684354618,2684354603,2684354618,2684354603,2684354618,2684354603,2684354618,2684354603,2684354618,2684354603,2684354618,2684354603,2684354618,2684354603,2684354588,72,70,71,70,71,72,72,72,72,72,72,72,72,13,40,41,41,41,41,42,2684354572,2147483656,3221225479,5,5,5,5,5,5,5,1610612741,7,8,2684354632,0,0,
0,0,1610612808,3221225480,3221225479,2684354565,3221225477,3221225477,3221225477,3221225477,3221225477,3221225477,3221225477,7,1073741832,3758096392,1610612744,1610612744,1610612744,1610612744,1610612744,1610612744,1610612744,3758096392,2684354565,3221225479,5,5,5,5,5,5,5,1610612741,7,2684354565,1610612744,1610612744,1610612744,1610612744,1610612744,1610612744,1610612744,1610612744,1610612744,1610612744,1610612744,1610612744,1610612744,1610612744,1610612744,1610612744,1610612744,1610612744,3221225477,3221225479,1610612741,1610612741,1610612741,1610612741,1610612741,1610612741,1610612741,1610612741,7,1610612741,1610612744,1610612744,1610612744,1610612744,1610612744,1610612744,1610612744,1610612744,1610612744,1610612744,1610612744,1610612744,1610612744,1610612744,1610612744,1610612744,1610612744,1610612744,1610612744,1610612744,1610612744,1610612744,1610612744,1610612744,1610612744,1610612744,3758096392,3758096392,3758096392,3758096392,3758096392,3758096392,3758096392,3758096392,3758096392,3758096392,3758096392,3758096392,3758096392,24,40,41,41,41,41,42,2684354570,2147483656,3221225479,5,5,6,5,5,6,5,5,7,8,2684354632,0,0,
0,0,1610612808,3221225480,3221225479,3221225477,3221225477,3221225478,3221225477,3221225477,3221225478,3221225477,3221225477,2684354565,1610612743,1610612743,1610612743,1610612743,1610612743,1610612743,1610612743,1610612743,1610612743,1610612743,1610612743,2684354565,2684354565,2684354565,6,2684354565,2684354565,6,2684354565,2684354565,2684354565,1610612743,1610612743,1610612743,1610612743,1610612743,1610612743,1610612743,1610612743,1610612743,1610612743,1610612743,1610612743,1610612743,1610612743,1610612743,1610612743,1610612743,1610612743,1610612743,1610612743,2684354565,1610612741,1610612741,3221225478,1610612741,1610612741,3221225478,1610612741,1610612741,3221225477,1610612743,1610612743,1610612743,1610612743,1610612743,1610612743,1610612743,1610612743,1610612743,1610612743,1610612743,1610612743,1610612743,1610612743,1610612743,1610612743,1610612743,1610612743,1610612743,1610612743,1610612743,1610612743,1610612743,1610612743,1610612743,1610612743,1610612743,1610612743,2684354564,2684354564,2684354564,2684354564,2684354564,2684354564,2684354564,2684354564,2684354564,2684354564,2684354565,1073741832,39,40,41,41,41,41,42,2684354572,2147483656,3221225479,5,5,5,5,5,5,5,1610612741,7,8,2684354632,0,0,
0,0,1610612808,3221225480,3221225479,2684354565,3221225477,3221225477,3221225477,3221225477,3221225477,3221225477,3221225477,2684354565,2684354565,1610612741,2684354565,2684354565,2684354565,2684354565,2684354565,2684354565,2684354565,1610612741,3221225477,2684354565,2684354565,2684354565,2684354565,2684354565,2684354565,2684354565,2684354565,2684354565,2684354565,3221225477,2684354565,2684354565,2684354565,2684354565,2684354565,2684354565,2684354565,2684354565,2684354565,2684354565,2684354565,2684354565,2684354565,2684354565,2684354565,2684354565,2684354565,1610612741,1610612741,1610612741,1610612741,1610612741,1610612741,1610612741,1610612741,1610612741,1610612741,1610612741,1610612741,5,5,3221225477,1610612741,3221225477,1610612741,3221225477,1610612741,3221225477,1610612741,3221225477,1610612741,3221225477,1610612741,3221225477,1610612741,3221225477,1610612741,3221225477,1610612741,3221225477,1610612741,3221225477,1610612741,3221225477,1610612741,3221225477,3221225477,2684354565,2684354565,2684354565,2684354565,2684354565,2684354565,2684354565,2684354565,2684354565,2684354565,3221225476,1073741832,54,40,41,41,41,41,42,2684354570,2147483656,3221225479,5,5,6,5,5,6,5,5,7,8,2684354632,0,0,
0,0,1610612808,3221225480,3221225479,3221225477,3221225477,3221225478,3221225477,3221225477,3221225478,3221225477,3221225477,2684354565,2684354565,1610612741,2684354565,2684354565,2684354565,2684354565,2684354565,2684354565,2684354565,1610612741,1610612741,2684354565,2684354565,2684354565,6,2684354565,2684354565,6,2684354565,2684354565,2684354565,1610612741,2684354565,2684354565,2684354565,2684354565,2684354565,2684354565,2684354565,2684354565,2684354565,2684354565,2684354565,2684354565,2684354565,2684354565,2684354565,2684354565,2684354565,1610612741,1610612741,1610612741,1610612741,1610612741,3221225478,1610612741,1610612741,3221225478,1610612741,1610612741,1610612741,5,5,1610612741,1610612741,1610612741,1610612741,1610612741,1610612741,1610612741,1610612741,1610612741,1610612741,1610612741,1610612741,1610612741,1610612741,1610612741,1610612741,1610612741,1610612741,1610612741,1610612741,1610612741,1610612741,1610612741,1610612741,1610612741,1610612741,2684354565,2684354565,2684354565,2684354565,2684354565,2684354565,20,2684354565,2684354565,2684354565,3221225476,1073741832,54,40,41,41,41,41,42,2684354572,2147483656,3221225479,5,5,5,5,5,5,5,1610612741,7,8,2684354632,0,0,
0,0,1610612808,3221225480,3221225479,2684354565,3221225477,3221225477,3221225477,3221225477,3221225477,1610612742,3221225477,1610612742,2684354565,1610612742,2684354565,2684354566,2684354565,2684354566,2684354565,2684354566,2684354565,1610612742,1610612741,1610612742,2684354565,1610612742,2684354565,2684354565,2684354565,2684354565,2684354566,2684354565,2684354566,1610612741,2684354565,2684354566,2684354565,2684354566,2684354565,2684354566,2684354565,2684354566,2684354565,2684354566,2684354565,2684354566,2684354565,2684354566,2684354565,2684354566,2684354565,1610612742,1610612741,1610612742,1610612741,1610612742,1610612741,1610612741,1610612741,1610612741,2684354566,1610612741,2684354566,5,1610612742,1610612741,1610612742,1610612741,1610612742,1610612741,1610612742,1610612741,1610612742,1610612741,1610612742,1610612741,1610612742,1610612741,1610612742,1610612741,1610612742,1610612741,1610612742,1610612741,1610612742,1610612741,1610612742,1610612741,1610612742,1610612741,1610612742,2684354565,1610612742,2684354565,1610612742,2684354565,2684354566,2684354565,2684354565,2684354565,2684354565,3221225476,1073741832,24,40,41,41,41,41,42,2684354570,2147483656,3221225479,5,5,6,5,5,6,5,5,7,8,2684354632,0,0,
0,0,1610612808,3221225480,3221225479,3221225477,3221225477,3221225478,3221225477,3221225477,3221225477,3221225477,3221225477,2684354565,2684354565,1610612741,2684354565,2684354565,2684354565,2684354565,2684354565,2684354565,20,1610612741,1610612741,2684354565,2684354565,2684354565,2684354565,2684354565,2684354565,2684354565,2684354565,2684354565,2684354565,1610612741,2684354565,2684354565,2684354565,2684354565,2684354565,2684354565,2684354565,2684354565,2684354565,2684354565,2684354565,2684354565,2684354565,2684354565,2684354565,2684354565,2684354565,1610612741,1610612741,1610612741,1610612741,1610612741,1610612741,1610612741,1610612741,1610612741,1610612741,1610612741,1610612741,5,5,1610612741,1610612741,1610612741,1610612741,1610612741,1610612741,1610612741,1610612741,1610612741,1610612741,1610612741,1610612741,1610612741,1610612741,1610612741,1610612741,1610612741,1610612741,1610612741,1610612741,1610612741,1610612741,1610612741,1610612741,1610612741,1610612741,2684354565,2684354565,2684354565,2684354565,2684354565,2684354565,2684354565,5,2684354565,2684354565,3221225476,1073741832,39,40,41,41,41,41,42,2684354572,2147483656,3221225479,5,5,5,5,5,5,5,1610612741,7,8,2684354632,0,0,
0,0,1610612808,3221225480,3221225479,2684354565,3221225477,3221225477,3221225477,3221225477,3221225477,3221225477,3221225477,2684354565,2684354565,1610612741,2684354565,2684354565,2684354565,2684354565,2684354565,2684354565,2684354565,1610612741,1610612741,2684354565,2684354565,2684354565,2684354565,2684354565,2684354565,2684354565,2684354565,2684354565,2684354565,1610612741,2684354565,2684354565,2684354565,2684354565,2684354565,2684354565,2684354565,2684354565,2684354565,2684354565,2684354565,2684354565,2684354565,2684354565,2684354565,2684354565,2684354565,1610612741,1610612741,1610612741,1610612741,1610612741,1610612741,1610612741,1610612741,1610612741,1610612741,1610612741,1610612741,5,5,1610612741,1610612741,1610612741,1610612741,1610612741,1610612741,1610612741,1610612741,1610612741,1610612741,1610612741,1610612741,1610612741,1610612741,1610612741,1610612741,1610612741,1610612741,1610612741,1610612741,1610612741,1610612741,1610612741,1610612741,1610612741,1610612741,2684354565,2684354565,2684354565,2684354565,2684354565,2684354565,2684354565,6,2684354565,2684354565,3221225476,1073741832,54,40,41,41,41,41,42,2684354570,2147483656,3221225479,5,5,6,5,5,6,5,5,7,8,2684354632,0,0,
0,0,1610612808,3221225480,3221225479,3221225477,3221225477,3221225478,3221225477,3221225477,3221225477,1610612742,3221225477,1610612742,2684354565,1610612742,2684354565,2684354566,2684354565,2684354566,2684354565,2684354566,2684354565,1610612742,1610612741,1610612742,2684354565,1610612742,2684354565,2684354565,2684354565,2684354565,2684354566,2684354565,2684354566,1610612741,2684354565,2684354566,2684354565,2684354566,2684354565,2684354566,2684354565,2684354566,2684354565,2684354566,2684354565,2684354566,2684354565,2684354566,2684354565,2684354566,2684354565,1610612742,1610612741,1610612742,1610612741,1610612742,1610612741,1610612741,1610612741,1610612741,2684354566,1610612741,2684354566,5,1610612742,1610612741,1610612742,1610612741,1610612742,1610612741,1610612742,1610612741,1610612742,1610612741,1610612742,1610612741,1610612742,1610612741,1610612742,1610612741,1610612742,1610612741,1610612742,1610612741,1610612742,1610612741,1610612742,1610612741,1610612742,1610612741,1610612742,2684354565,1610612742,2684354565,1610612742,1610612741,2684354565,2684354565,5,2684354565,2684354565,3221225476,1073741832,24,40,41,41,41,41,42,2684354572,2147483656,3221225479,5,5,5,5,5,5,5,1610612741,7,8,2684354632,0,0,
0,0,1610612808,3221225480,3221225479,2684354565,3221225477,3221225477,3221225477,3221225477,3221225477,3221225477,3221225477,2684354565,2684354565,1610612741,2684354565,2684354565,2684354565,2684354565,2684354565,2684354565,2684354565,1610612741,1610612741,2684354565,2684354565,2684354565,2684354565,2684354565,2684354565,2684354565,2684354565,2684354565,2684354565,1610612741,2684354565,2684354565,2684354565,2684354565,2684354565,2684354565,2684354565,2684354565,2684354565,2684354565,2684354565,2684354565,2684354565,2684354565,2684354565,2684354565,2684354565,1610612741,1610612741,1610612741,1610612741,1610612741,1610612741,1610612741,1610612741,1610612741,1610612741,1610612741,1610612741,5,5,1610612741,1610612741,1610612741,1610612741,1610612741,1610612741,1610612741,1610612741,1610612741,1610612741,1610612741,1610612741,1610612741,1610612741,1610612741,1610612741,1610612741,1610612741,1610612741,1610612741,1610612741,1610612741,1610612741,1610612741,1610612741,1610612741,2684354565,2684354565,2684354565,2684354565,6,2684354565,2684354565,6,2684354565,2684354565,3221225476,1073741832,39,40,41,41,41,41,42,2684354570,2147483656,3221225479,5,5,6,5,5,6,5,5,7,8,2684354632,0,0,
0,0,1610612808,3221225480,3221225479,3221225477,3221225477,3221225478,3221225477,3221225477,3221225478,3221225477,3221225477,2684354565,2684354565,1610612741,5,2684354565,5,2684354565,5,2684354565,5,1610612741,1610612741,2684354565,2684354565,2684354565,2684354565,2684354565,2684354565,2684354565,2684354565,2684354565,2684354565,1610612741,5,2684354565,5,2684354565,5,2684354565,5,2684354565,5,2684354565,5,2684354565,5,2684354565,5,2684354565,5,1610612741,1610612741,1610612741,1610612741,1610612741,1610612741,1610612741,1610612741,1610612741,1610612741,1610612741,1610612741,5,5,1610612741,1610612741,1610612741,1610612741,1610612741,1610612741,1610612741,1610612741,1610612741,1610612741,1610612741,1610612741,1610612741,1610612741,1610612741,1610612741,1610612741,1610612741,1610612741,1610612741,1610612741,1610612741,1610612741,1610612741,1610612741,1610612741,2684354565,2684354565,2684354565,2684354565,2684354565,2684354565,2684354565,5,2684354565,2684354565,3221225476,1073741832,54,40,41,41,41,41,42,2684354572,2147483656,3221225479,5,5,5,5,5,5,5,1610612741,7,8,2684354632,0,0,
0,0,1610612808,3221225480,3221225479,2684354565,3221225477,3221225477,3221225477,3221225477,3221225477,3221225477,3221225477,2684354565,2684354567,2684354567,2684354567,2684354567,2684354567,2684354567,2684354567,2684354567,2684354567,2684354567,2684354567,2684354567,2684354567,2684354567,2684354567,2684354567,2684354567,2684354567,2684354567,2684354567,2684354567,2684354567,2684354567,2684354567,2684354567,2684354567,2684354567,2684354567,2684354567,2684354567,2684354567,2684354567,2684354567,2684354567,2684354567,2684354567,2684354567,2684354567,2684354567,2684354567,2684354567,2684354567,2684354567,2684354567,2684354567,2684354567,2684354567,2684354567,2684354567,2684354567,2684354567,2684354567,2684354567,2684354567,2684354567,2684354567,2684354567,2684354567,2684354567,2684354567,2684354567,2684354567,2684354567,2684354567,2684354567,2684354567,2684354567,2684354567,2684354567,2684354567,2684354567,2684354567,2684354567,2684354567,2684354567,2684354567,2684354567,2684354567,2684354567,2684354567,2684354565,2684354565,2684354565,6,2684354565,2684354565,6,2684354565,2684354565,3221225476,1073741832,24,40,41,41,41,41,42,2684354570,2147483656,3221225479,5,5,6,5,5,6,5,5,7,8,2684354632,0,0,
0,0,1610612808,3221225480,3221225479,3221225477,3221225477,3221225478,3221225477,3221225477,3221225478,3221225477,3221225477,7,2684354565,2684354568,2684354568,2684354568,2684354568,2684354568,2684354568,2684354568,2684354568,2684354568,2684354568,2684354568,2684354568,2684354568,2684354568,2684354568,2684354568,2684354568,2684354568,2684354568,2684354568,2684354568,2684354568,2684354568,2684354568,2684354568,2684354568,2684354568,2684354568,2684354568,2684354568,2684354568,2684354568,2684354568,2684354568,2684354568,2684354568,2684354568,2684354568,2684354568,2684354568,2684354568,2684354568,2684354568,2684354568,2684354568,2684354568,2684354568,2684354568,2684354568,2684354568,2684354568,2684354568,2684354568,2684354568,2684354568,2684354568,2684354568,2684354568,2684354568,2684354568,2684354568,2684354568,2684354568,2684354568,2684354568,2684354568,2684354568,2684354568,2684354568,2684354568,2684354568,2684354568,2684354568,2684354568,2684354568,2684354568,2684354568,536870920,2684354565,3221225479,2684354565,2684354565,2684354565,2684354565,2684354565,5,2684354565,2684354565,3221225476,1073741832,39,40,41,41,41,41,42,2684354572,2147483656,3221225479,5,5,5,5,5,5,5,1610612741,7,8,2684354632,0,0,
0,0,1610612808,3221225480,3221225479,2684354565,3221225477,3221225477,3221225477,3221225477,3221225477,3221225477,3221225477,7,1073741832,2684354584,1610612794,1610612779,1610612794,1610612779,1610612794,1610612779,1610612794,1610612794,1610612794,1610612794,1610612794,1610612794,1610612794,1610612794,1610612794,1610612794,1610612794,1610612794,1610612794,1610612794,1610612794,1610612779,1610612794,1610612779,1610612794,1610612779,1610612794,1610612779,1610612794,1610612779,1610612794,1610612779,1610612794,1610612779,1610612794,1610612779,1610612794,1610612794,1610612794,1610612794,1610612794,1610612794,1610612794,1610612794,1610612794,1610612794,1610612794,1610612794,1610612794,1610612794,1610612794,1610612794,1610612794,1610612794,1610612794,1610612794,1610612794,1610612794,1610612794,1610612794,1610612794,1610612794,1610612794,1610612794,1610612794,1610612794,1610612794,1610612794,1610612794,1610612794,1610612794,1610612794,1610612794,1610612794,1610612794,1610612794,2684354569,2684354565,3221225479,5,5,6,5,5,6,5,1610612741,7,1073741832,24,40,41,41,41,41,42,2684354570,2147483656,3221225479,5,5,6,5,5,6,5,5,7,8,2684354632,0,0,
0,0,1610612808,3221225480,3221225479,3221225477,3221225477,3221225478,3221225477,3221225477,3221225478,3221225477,3221225477,7,1073741832,1610612746,25,26,26,26,26,26,26,26,26,100,101,101,101,101,101,101,101,101,101,101,101,101,101,101,102,26,26,26,26,26,26,26,26,26,26,26,26,26,26,26,26,26,26,26,26,26,26,26,26,26,26,95,96,97,26,26,26,26,26,95,101,101,101,101,102,26,26,26,26,26,26,26,26,26,26,27,58,3221225480,3221225479,5,5,5,5,5,5,5,1610612741,7,8,3221225530,40,41,41,41,41,42,2684354572,2147483656,3221225479,5,5,5,5,5,5,5,1610612741,7,8,2684354632,0,0,
0,0,1610612808,3221225480,3221225479,2684354565,3221225477,3221225477,3221225477,3221225477,3221225477,3221225477,3221225477,7,1073741832,1610612748,40,41,41,41,41,41,41,41,41,115,111,111,111,111,111,111,111,111,111,111,111,111,111,111,112,41,41,41,41,41,41,41,41,41,41,41,41,41,41,41,41,41,41,41,41,41,41,41,41,41,41,110,116,1610612827,97,41,41,95,96,3221225563,116,116,116,116,1610612827,101,101,101,97,41,41,41,41,41,41,42,58,3221225480,3221225479,5,5,6,5,5,6,5,5,7,8,3221225515,40,41,41,41,41,42,2684354570,2147483656,3221225479,5,5,6,5,5,6,5,5,7,8,2684354632,0,0,
0,0,1610612808,3221225480,3221225479,3221225477,3221225477,3221225478,3221225477,3221225477,3221225478,3221225477,3221225477,7,1073741832,1610612746,40,41,41,41,41,41,41,41,41,115,111,111,111,111,111,111,111,111,111,111,111,111,111,91,127,41,41,41,41,41,41,41,41,41,41,41,41,41,41,41,41,41,41,41,41,41,41,41,41,41,41,110,116,116,112,41,95,3221225563,116,116,116,116,116,116,116,116,116,116,1610612827,96,97,41,41,41,41,42,58,3221225480,3221225479,2684354565,3221225477,3221225477,3221225477,3221225477,3221225477,3221225477,3221225477,7,8,24,40,41,41,41,41,2684354602,2684354572,2147483656,3221225479,5,5,5,5,5,5,5,1610612741,7,8,2684354632,0,0,
0,0,1610612808,3221225480,3221225479,2684354565,3221225477,3221225477,3221225477,3221225477,3221225477,3221225477,3221225477,7,1073741832,1610612748,40,41,41,41,41,41,41,41,41,115,111,111,111,111,111,111,111,111,111,111,111,111,91,127,41,41,41,41,41,41,41,41,41,41,41,41,41,41,41,41,41,41,41,41,41,41,41,41,41,41,41,110,116,116,112,41,110,116,116,116,116,116,116,116,116,116,116,116,116,116,1610612827,97,41,41,41,42,43,3221225480,3221225479,3221225477,3221225477,3221225478,3221225477,3221225477,3221225478,3221225477,3221225477,7,8,24,40,41,41,41,41,2684354602,2684354570,2147483656,3221225479,5,5,6,5,5,6,5,5,7,8,2684354632,0,0,
0,0,1610612808,3221225480,3221225479,3221225477,3221225477,3221225478,3221225477,3221225477,3221225478,3221225477,3221225477,7,1073741832,1610612746,40,41,41,41,41,41,41,41,41,115,111,111,111,111,111,111,111,111,111,111,111,91,127,41,41,41,41,41,41,41,41,41,41,41,41,41,41,41,41,41,41,41,41,41,41,41,41,41,41,41,41,110,116,116,112,41,110,116,116,116,116,116,116,116,116,116,116,116,116,116,116,112,41,41,41,42,58,3221225480,3221225479,2684354565,3221225477,3221225477,3221225477,3221225477,3221225477,3221225477,3221225477,7,8,24,40,41,41,41,41,2684354602,2684354572,2147483656,3221225479,5,5,5,5,5,5,5,1610612741,7,8,2684354632,0,0,
0,0,1610612808,3221225480,3221225479,2684354565,3221225477,3221225477,3221225477,3221225477,3221225477,3221225477,3221225477,7,1073741832,1610612748,40,41,41,41,41,41,41,41,95,3221225563,111,111,111,111,111,111,111,111,111,91,126,127,41,41,41,41,41,41,41,41,41,41,41,41,41,41,41,41,41,41,41,41,41,41,41,41,41,41,41,41,41,110,116,116,112,41,110,116,116,116,116,116,116,116,116,116,116,116,116,116,116,1610612827,97,41,41,42,43,3221225480,3221225479,3221225477,3221225477,3221225478,3221225477,3221225477,3221225478,3221225477,3221225477,7,8,24,40,41,41,41,41,2684354602,2684354570,2147483656,3221225479,5,5,6,5,5,6,5,5,7,8,2684354632,0,0,
0,0,1610612808,3221225480,3221225479,3221225477,3221225477,3221225478,3221225477,3221225477,3221225478,3221225477,3221225477,7,1073741832,1610612746,40,41,41,41,41,41,41,41,110,111,111,111,111,111,111,111,111,111,91,127,41,41,41,41,41,41,41,41,41,41,41,41,41,41,41,41,41,41,41,41,41,41,41,41,41,41,41,41,41,41,41,110,116,116,112,41,125,2684354651,116,116,116,116,116,116,116,116,116,116,116,116,116,116,112,41,41,42,58,3221225480,3221225479,2684354565,3221225477,3221225477,3221225477,3221225477,3221225477,3221225477,3221225477,7,8,24,40,41,41,41,41,2684354602,2684354572,2147483656,3221225479,5,5,5,5,5,5,5,1610612741,7,8,2684354632,0,0,
0,0,1610612808,3221225480,3221225479,2684354565,3221225477,3221225477,3221225477,3221225477,3221225477,3221225477,3221225477,7,1073741832,1610612748,40,41,41,41,41,41,41,41,110,111,111,111,111,111,111,111,111,91,127,41,41,41,41,41,41,41,41,41,41,41,41,41,41,41,41,41,41,41,41,41,41,41,41,41,41,41,41,41,41,41,41,110,116,91,127,41,41,125,2684354651,116,116,116,116,116,116,116,116,116,116,116,116,116,1610612827,97,41,42,43,3221225480,3221225479,3221225477,3221225477,3221225478,3221225477,3221225477,3221225478,3221225477,3221225477,7,8,24,40,41,41,41,41,2684354602,2684354570,2147483656,3221225479,5,5,6,5,5,6,5,5,7,8,2684354632,0,0,
0,0,1610612808,3221225480,3221225479,3221225477,3221225477,3221225478,3221225477,3221225477,3221225478,3221225477,3221225477,7,1073741832,1610612746,40,41,41,41,41,41,41,41,110,111,111,111,111,111,91,126,126,92,41,41,41,41,41,41,41,41,41,41,41,41,41,41,41,41,41,41,41,41,41,41,41,41,41,41,41,41,41,41,41,41,41,110,116,112,41,41,41,41,125,2684354651,116,116,116,116,116,116,116,116,116,116,116,116,116,112,41,42,58,3221225480,3221225479,2684354565,3221225477,3221225477,3221225477,3221225477,3221225477,3221225477,3221225477,7,8,24,40,41,41,41,41,2684354602,2684354572,2147483656,3221225479,5,5,5,5,5,5,5,1610612741,7,8,2684354632,0,0,
0,0,1610612808,3221225480,3221225479,2684354565,3221225477,3221225477,3221225477,3221225477,3221225477,3221225477,3221225477,7,1073741832,1610612748,40,41,41,41,41,41,41,41,125,126,126,126,126,126,127,41,41,41,41,41,41,41,41,41,41,41,41,41,41,41,41,41,41,41,41,41,41,41,41,41,41,41,41,41,41,41,41,41,41,41,41,110,91,127,41,41,41,41,41,125,126,2684354651,116,116,116,116,116,116,116,116,116,116,116,112,41,42,43,3221225480,3221225479,3221225477,3221225477,3221225478,3221225477,3221225477,3221225478,3221225477,3221225477,7,8,24,40,41,41,41,41,2684354602,2684354570,2147483656,3221225479,5,5,6,5,5,6,5,5,7,8,2684354632,0,0,
0,0,1610612808,3221225480,3221225479,3221225477,3221225477,3221225478,3221225477,3221225477,3221225478,3221225477,3221225477,7,1073741832,1610612746,40,41,41,41,41,41,41,41,41,41,41,41,41,41,41,41,41,41,41,41,41,41,41,41,41,41,41,41,41,41,41,41,41,41,41,41,41,41,41,41,41,41,41,41,41,41,41,41,41,41,41,125,127,41,41,41,41,41,41,41,41,125,126,126,126,126,126,126,126,126,126,126,126,127,41,42,58,3221225480,3221225479,2684354565,3221225477,3221225477,3221225477,3221225477,3221225477,3221225477,3221225477,7,8,24,40,41,41,41,41,2684354602,2684354572,2147483656,3221225479,5,5,5,5,5,5,5,1610612741,7,8,2684354632,0,0,
0,0,1610612808,3221225480,3221225479,2684354565,3221225477,3221225477,3221225477,3221225477,3221225477,3221225477,3221225477,7,1073741832,1610612748,40,41,41,41,41,41,41,41,41,41,41,41,41,41,41,41,41,41,41,41,41,41,41,41,41,41,41,41,41,41,41,41,41,41,41,41,41,41,41,41,41,41,41,41,41,41,41,41,41,41,41,41,41,41,41,41,41,41,41,41,41,41,41,41,41,41,41,41,41,41,41,41,41,41,41,42,43,3221225480,3221225479,3221225477,3221225477,3221225478,3221225477,3221225477,3221225478,3221225477,3221225477,7,8,24,40,41,41,41,41,2684354602,2684354570,2147483656,3221225479,5,5,6,5,5,6,5,5,7,8,2684354632,0,0,
0,0,1610612808,3221225480,3221225479,3221225477,3221225477,3221225478,3221225477,3221225477,3221225478,3221225477,3221225477,7,1073741832,1610612746,40,41,41,41,41,41,41,41,41,41,41,41,41,41,41,41,41,41,41,41,41,41,41,41,41,41,41,41,41,41,41,41,41,41,41,41,41,41,41,41,41,41,41,41,41,41,41,41,41,41,41,41,41,41,41,41,41,41,41,41,41,41,41,41,41,41,41,41,41,41,41,41,41,41,41,42,58,3221225480,3221225479,2684354565,3221225477,3221225477,3221225477,3221225477,3221225477,3221225477,3221225477,7,8,24,40,41,41,41,41,2684354602,2684354572,2147483656,3221225479,5,5,5,5,5,5,5,1610612741,7,8,2684354632,0,0,
0,0,1610612808,3221225480,3221225479,2684354565,3221225477,3221225477,3221225477,3221225477,3221225477,3221225477,3221225477,7,1073741832,1610612748,40,41,41,41,41,41,41,41,41,41,41,41,41,41,41,41,41,41,41,41,41,41,41,41,41,41,41,41,41,41,41,41,41,41,41,41,41,41,41,41,41,41,41,41,41,41,41,41,41,41,41,41,41,41,41,41,41,41,41,41,41,41,41,41,41,41,41,41,41,41,41,41,41,41,41,42,43,3221225480,3221225479,3221225477,3221225477,3221225478,3221225477,3221225477,3221225478,3221225477,3221225477,7,8,24,40,41,41,41,41,2684354602,2684354570,2147483656,3221225479,5,5,6,5,5,6,5,5,7,8,2684354632,0,0,
0,0,1610612808,3221225480,3221225479,3221225477,3221225477,3221225478,3221225477,3221225477,3221225478,3221225477,3221225477,7,1073741832,1610612746,40,41,41,41,41,41,41,41,41,41,41,41,41,41,41,41,41,41,41,41,41,41,41,41,41,41,41,41,41,41,41,41,41,41,41,41,42,56,56,56,56,56,56,56,56,56,56,56,56,56,56,56,56,56,56,56,56,56,56,56,56,56,56,56,56,56,56,56,56,56,56,56,56,56,56,57,58,3221225480,3221225479,2684354565,3221225477,3221225477,3221225477,3221225477,3221225477,3221225477,3221225477,7,8,24,55,56,56,56,56,57,2684354572,2147483656,3221225479,5,5,5,5,5,5,5,1610612741,7,8,2684354632,0,0,
0,0,1610612808,3221225480,3221225479,2684354565,3221225477,3221225477,3221225477,3221225477,3221225477,3221225477,3221225477,7,1073741832,1610612748,40,41,41,41,41,41,41,41,41,41,41,41,41,41,41,41,41,41,41,41,41,41,41,41,41,41,41,41,41,41,41,41,41,41,41,41,42,2684354603,2684354603,2684354603,2684354603,2684354603,2684354603,2684354603,2684354603,2684354603,2684354603,2684354603,2684354603,2684354603,2684354618,2684354603,2684354603,2684354603,2684354603,2684354603,2684354603,2684354603,2684354603,2684354603,2684354603,2684354603,2684354603,2684354603,2684354603,2684354603,2684354618,2684354603,2684354618,2684354603,2684354618,2684354603,2684354618,2684354603,2684354618,2684354603,3221225481,3221225480,3221225479,1610612741,1610612741,3221225478,1610612741,1610612741,3221225478,1610612741,1610612741,7,8,1610612745,2684354618,2684354603,2684354618,2684354603,2684354618,2684354603,1610612880,3221225480,3221225479,5,5,3221225478,5,5,3221225478,5,1610612741,7,8,3221225530,0,0,
0,0,1610612808,3221225480,3221225479,3221225477,3221225477,3221225478,3221225477,3221225477,3221225478,3221225477,3221225477,7,1073741832,1610612746,40,41,41,41,41,41,41,41,41,41,41,41,41,41,41,41,41,41,41,41,41,41,41,41,41,41,41,41,41,41,41,41,41,41,41,41,42,58,3221225477,1610612744,1610612744,1610612744,1610612744,1610612744,1610612744,1610612744,1610612744,1610612744,1610612744,1610612744,1610612744,1610612744,1610612744,1610612744,1610612744,1610612744,1610612744,1610612744,1610612744,1610612744,1610612744,1610612744,1610612744,1610612744,1610612744,1610612744,1610612744,1610612744,1610612744,1610612744,1610612744,1610612744,1610612744,1610612744,1610612744,1610612744,1610612744,3221225477,3221225479,1610612741,1610612741,1610612741,1610612741,1610612741,1610612741,1610612741,1610612741,7,1610612741,1610612744,1610612744,1610612744,1610612744,1610612744,1610612744,1610612744,1610612744,5,3221225479,2684354565,3221225477,3221225477,3221225477,3221225477,3221225477,3221225477,3221225477,7,8,24,0,0,
0,0,1610612808,3221225480,3221225479,2684354565,3221225477,3221225477,3221225477,3221225477,3221225477,3221225477,3221225477,7,1073741832,1610612748,40,41,41,41,41,41,41,41,41,41,41,41,41,41,41,41,2684354685,3221225598,3221225598,3221225598,3221225597,41,41,41,41,41,41,41,41,41,41,41,41,41,41,41,42,58,3221225480,3221225477,1610612743,1610612743,1610612743,1610612743,1610612743,1610612743,1610612743,1610612743,1610612743,1610612743,1610612743,1610612743,1610612743,1610612743,1610612743,1610612743,1610612743,1610612743,1610612743,1610612743,1610612743,1610612743,1610612743,1610612743,1610612743,1610612743,1610612743,1610612743,1610612743,1610612743,1610612743,1610612743,1610612743,1610612743,1610612743,1610612743,1610612743,1610612743,2684354565,1610612741,1610612741,3221225478,1610612741,1610612741,3221225478,1610612741,1610612741,3221225477,1610612743,1610612743,1610612743,1610612743,1610612743,1610612743,1610612743,1610612743,1610612743,1610612743,5,5,5,6,5,5,6,5,5,7,8,24,0,0,
0,0,1610612808,3221225480,3221225479,3221225477,3221225477,3221225478,3221225477,3221225477,3221225478,3221225477,3221225477,7,1073741832,1610612746,40,41,41,41,41,41,41,41,41,41,41,41,41,41,41,2684354685,3221225563,111,111,111,1610612827,3221225598,3221225598,3221225598,3221225598,3221225598,3221225598,3221225598,3221225597,41,41,41,41,41,41,41,42,58,3221225480,3221225479,3221225477,3221225477,3221225477,3221225477,3221225477,3221225477,3221225477,3221225477,3221225477,2684354565,3221225477,1610612741,3221225477,1610612741,3221225477,1610612741,3221225477,1610612741,3221225477,1610612741,3221225477,1610612741,3221225477,1610612741,3221225477,1610612741,3221225477,1610612741,3221225477,1610612741,3221225477,1610612741,3221225477,1610612741,3221225477,1610612741,1610612741,1610612741,1610612741,1610612741,1610612741,1610612741,1610612741,1610612741,1610612741,1610612741,1610612741,1610612741,5,5,3221225477,1610612741,3221225477,1610612741,3221225477,1610612741,1610612741,3221225477,5,5,5,5,5,5,5,5,5,7,8,24,0,0,
0,0,1610612808,3221225480,3221225479,2684354565,3221225477,3221225477,3221225477,3221225477,3221225477,3221225477,3221225477,7,1073741832,1610612748,40,41,41,41,41,41,41,41,41,41,41,41,41,41,2684354685,3221225563,111,111,111,111,111,111,111,111,111,111,111,111,1610612827,3221225598,3221225598,3221225598,3221225598,3221225597,41,41,42,58,3221225480,3221225479,3221225477,3221225477,3221225477,3221225477,3221225477,3221225477,3221225477,3221225477,3221225477,2684354565,1610612741,1610612741,1610612741,1610612741,1610612741,1610612741,1610612741,1610612741,1610612741,1610612741,1610612741,1610612741,1610612741,1610612741,1610612741,1610612741,1610612741,1610612741,1610612741,1610612741,1610612741,1610612741,1610612741,1610612741,1610612741,1610612741,1610612741,1610612741,1610612741,1610612741,1610612741,3221225478,1610612741,1610612741,3221225478,1610612741,1610612741,1610612741,5,5,1610612741,1610612741,1610612741,1610612741,1610612741,1610612741,1610612741,1610612741,5,5,5,6,5,5,6,5,5,7,8,24,0,0,
0,0,1610612808,3221225480,3221225479,3221225477,3221225477,3221225478,3221225477,3221225477,3221225478,3221225477,3221225477,7,1073741832,1610612746,40,41,41,41,41,41,41,41,41,41,41,41,41,41,2684354686,111,111,111,111,111,111,111,111,111,111,111,111,111,111,111,111,111,111,1610612827,3221225597,41,42,58,3221225480,3221225479,3221225477,3221225477,3221225477,3221225477,3221225477,2684354566,3221225477,2684354566,3221225477,2684354566,1610612741,1610612742,1610612741,1610612742,1610612741,1610612742,1610612741,1610612742,1610612741,1610612742,1610612741,1610612742,1610612741,1610612742,1610612741,1610612742,1610612741,1610612742,1610612741,1610612742,1610612741,1610612742,1610612741,1610612742,1610612741,3221225477,1610612742,1610612741,1610612742,1610612741,1610612742,1610612741,1610612741,1610612741,1610612741,2684354566,1610612741,2684354566,5,1610612742,1610612741,1610612742,1610612741,1610612742,1610612741,1610612742,5,1610612742,5,1610612742,5,5,5,5,5,5,5,7,8,24,0,0,
0,0,1610612808,3221225480,3221225479,2684354565,3221225477,3221225477,3221225477,3221225477,3221225477,3221225477,3221225477,7,1073741832,1610612748,40,41,41,41,41,41,41,41,41,41,41,41,41,2684354685,3221225563,111,111,111,111,111,111,111,111,111,111,111,111,111,111,111,111,111,111,111,1610612827,3221225597,42,58,3221225480,3221225479,3221225477,3221225477,3221225477,3221225477,3221225477,3221225477,3221225477,3221225477,3221225477,2684354565,1610612741,1610612741,1610612741,1610612741,1610612741,1610612741,1610612741,1610612741,1610612741,1610612741,1610612741,1610612741,1610612741,1610612741,1610612741,1610612741,1610612741,1610612741,1610612741,1610612741,1610612741,1610612741,1610612741,1610612741,1610612741,1610612741,1610612741,1610612741,1610612741,1610612741,1610612741,1610612741,1610612741,1610612741,1610612741,1610612741,1610612741,1610612741,5,5,1610612741,1610612741,1610612741,1610612741,1610612741,1610612741,1610612741,1610612741,5,5,5,5,5,5,5,5,5,7,8,24,0,0,
0,0,1610612808,3221225480,3221225479,3221225477,3221225477,3221225478,3221225477,3221225477,3221225478,3221225477,3221225477,7,1073741832,1610612746,40,41,41,41,41,41,41,41,41,41,41,41,41,2684354686,111,111,111,111,111,111,111,111,111,111,111,111,111,111,111,111,111,111,111,111,111,1610612862,42,58,3221225480,3221225479,3221225477,3221225477,3221225478,3221225477,3221225477,3221225477,3221225477,3221225477,3221225477,2684354565,1610612741,1610612741,1610612741,1610612741,1610612741,1610612741,1610612741,1610612741,1610612741,1610612741,1610612741,1610612741,1610612741,1610612741,1610612741,1610612741,1610612741,1610612741,1610612741,1610612741,1610612741,1610612741,1610612741,1610612741,1610612741,1610612741,1610612741,1610612741,1610612741,1610612741,1610612741,1610612741,1610612741,1610612741,1610612741,1610612741,1610612741,1610612741,5,5,1610612741,1610612741,1610612741,1610612741,1610612741,1610612741,1610612741,1610612741,5,5,5,5,5,5,5,5,5,7,8,24,0,0,
0,0,1610612808,3221225480,3221225479,2684354565,3221225477,3221225477,3221225477,3221225477,3221225477,3221225477,3221225477,7,1073741832,1610612748,40,41,41,41,41,41,41,41,41,41,41,41,41,2684354686,111,111,111,111,111,111,111,111,111,111,111,111,111,111,111,111,111,111,111,111,111,1610612862,42,58,3221225480,3221225479,3221225477,3221225477,3221225477,3221225477,3221225477,3221225477,3221225477,2684354566,3221225477,2684354566,1610612741,1610612742,1610612741,1610612742,1610612741,1610612742,1610612741,1610612742,1610612741,1610612742,1610612741,1610612742,1610612741,1610612742,1610612741,1610612742,1610612741,1610612742,1610612741,1610612742,1610612741,1610612742,1610612741,1610612742,1610612741,3221225477,1610612742,1610612741,1610612742,1610612741,1610612742,1610612741,1610612741,1610612741,1610612741,2684354566,1610612741,2684354566,5,1610612742,1610612741,1610612742,1610612741,1610612742,1610612741,1610612742,5,1610612742,5,1610612742,5,5,5,5,5,5,5,7,8,24,0,0,
0,0,1610612808,3221225480,3221225479,3221225477,3221225477,3221225478,3221225477,3221225477,3221225478,3221225477,3221225477,7,1073741832,1610612746,40,41,41,41,41,41,41,41,41,41,41,41,41,125,2684354651,111,111,111,111,111,111,111,111,111,111,111,111,111,111,111,111,111,111,111,111,1610612862,42,58,3221225480,3221225479,3221225477,3221225477,3221225478,3221225477,3221225477,3221225478,3221225477,3221225477,3221225477,2684354565,1610612741,1610612741,1610612741,1610612741,1610612741,1610612741,1610612741,1610612741,1610612741,1610612741,1610612741,1610612741,1610612741,1610612741,1610612741,1610612741,1610612741,1610612741,1610612741,1610612741,1610612741,1610612741,1610612741,1610612741,1610612741,1610612741,1610612741,1610612741,1610612741,1610612741,1610612741,3221225478,1610612741,1610612741,3221225478,1610612741,1610612741,1610612741,5,5,1610612741,1610612741,1610612741,1610612741,1610612741,1610612741,1610612741,1610612741,5,5,5,3221225478,5,5,3221225478,5,5,7,8,24,0,0,
0,0,1610612808,3221225480,3221225479,2684354565,3221225477,3221225477,3221225477,3221225477,3221225477,3221225477,3221225477,7,1073741832,1610612748,40,41,41,41,41,41,41,41,41,41,41,41,41,41,125,2684354651,111,111,111,111,111,111,111,111,111,111,111,111,111,111,111,111,111,111,91,1610612861,42,58,3221225480,3221225479,3221225477,3221225477,3221225477,3221225477,3221225477,3221225477,3221225477,3221225477,3221225477,5,1610612741,1610612741,1610612741,1610612741,1610612741,1610612741,1610612741,1610612741,1610612741,1610612741,1610612741,1610612741,1610612741,1610612741,1610612741,1610612741,1610612741,1610612741,1610612741,1610612741,1610612741,1610612741,1610612741,1610612741,1610612741,1610612741,1610612741,1610612741,1610612741,1610612741,1610612741,1610612741,1610612741,1610612741,1610612741,1610612741,1610612741,1610612741,5,5,1610612741,1610612741,1610612741,1610612741,20,1610612741,1610612741,1610612741,5,5,5,5,5,5,5,5,5,7,8,39,0,0,
0,0,1610612808,3221225480,3221225479,3221225477,3221225477,3221225478,3221225477,3221225477,3221225478,3221225477,3221225477,7,1073741832,1610612746,40,41,41,41,41,41,41,41,41,41,41,41,41,41,41,2684354686,111,111,111,111,111,111,111,111,111,111,111,91,126,2684354651,111,111,111,91,1610612861,41,42,58,3221225480,3221225479,3221225477,3221225477,3221225478,3221225477,3221225477,3221225478,3221225477,3221225477,3221225477,2684354567,2684354567,2684354567,2684354567,2684354567,2684354567,2684354567,2684354567,2684354567,2684354567,2684354567,2684354567,2684354567,2684354567,2684354567,2684354567,2684354567,2684354567,2684354567,2684354567,2684354567,2684354567,2684354567,2684354567,2684354567,2684354567,2684354567,2684354567,2684354567,5,1610612741,1610612741,3221225478,1610612741,1610612741,3221225478,1610612741,1610612741,1610612741,2684354567,2684354567,2684354567,2684354567,2684354567,2684354567,2684354567,2684354567,2684354567,2684354567,5,5,5,3221225478,5,5,3221225478,5,5,7,8,24,0,0,
0,0,1610612808,3221225480,3221225479,2684354565,3221225477,3221225477,3221225477,3221225477,3221225477,3221225477,3221225477,7,1073741832,1610612748,40,41,41,41,41,41,41,41,41,41,41,41,41,41,41,125,126,2684354651,111,111,111,111,111,111,111,111,91,127,41,125,126,126,126,1610612861,41,41,42,58,3221225480,3221225479,5,5,5,5,5,5,5,1610612741,7,3221225477,2684354568,2684354568,2684354568,2684354568,2684354568,2684354568,2684354568,2684354568,2684354568,2684354568,2684354568,2684354568,2684354568,2684354568,2684354568,2684354568,2684354568,2684354568,2684354568,2684354568,2684354568,2684354568,2684354568,2684354568,2684354568,2684354568,2684354568,2684354565,3221225479,5,5,5,5,5,5,5,5,7,5,2684354568,2684354568,2684354568,2684354568,2684354568,2684354568,2684354568,536870920,5,3221225479,2684354565,3221225477,3221225477,3221225477,3221225477,3221225477,3221225477,3221225477,7,8,24,0,0,
0,0,1610612808,3221225480,3221225479,3221225477,3221225477,3221225478,3221225477,3221225477,3221225478,3221225477,3221225477,7,1073741832,1610612746,40,41,41,41,41,41,41,41,41,41,41,41,56,56,56,56,56,125,126,126,126,126,126,126,126,126,127,56,56,56,56,56,56,56,56,56,57,58,3221225480,3221225479,2684354565,3221225477,3221225477,3221225477,3221225477,3221225477,3221225477,3221225477,7,8,84,2684354584,2684354584,2684354584,2684354584,2684354584,2684354584,2684354584,2684354584,2684354584,2684354584,2684354584,2684354584,2684354584,2684354584,2684354584,2684354584,2684354584,2684354584,2684354584,2684354584,2684354584,2684354584,2684354584,2684354584,2684354584,2684354569,3221225480,3221225479,5,5,6,5,5,6,5,5,7,8,9,2684354584,2684354584,2684354584,2684354584,2684354584,2684354584,13,2147483656,3221225479,3221225477,3221225477,5,3221225477,3221225477,5,3221225477,3221225477,7,8,24,0,0,
0,0,1610612808,3221225480,3221225479,2684354565,3221225477,3221225477,3221225477,3221225477,3221225477,3221225477,3221225477,7,1073741832,1610612748,40,41,41,41,41,41,41,41,41,41,41,42,28,70,71,72,72,72,72,72,72,72,72,72,72,72,72,72,72,72,72,72,72,72,72,72,72,73,3221225480,3221225479,3221225477,3221225477,3221225478,3221225477,3221225477,3221225478,3221225477,3221225477,7,8,24,25,26,26,26,26,26,26,26,26,26,26,26,26,26,26,26,26,26,26,26,26,26,26,26,27,3221225496,3221225480,3221225479,5,5,5,5,5,5,5,1610612741,7,8,24,25,26,26,26,26,27,2684354570,2147483656,3221225479,5,5,6,5,5,6,5,5,7,8,2684354632,0,0,
0,0,1610612808,3221225480,3221225479,3221225477,3221225477,3221225478,3221225477,3221225477,3221225478,3221225477,3221225477,7,1073741832,1610612746,40,41,41,41,41,41,41,41,41,41,41,42,43,5,1610612744,1610612744,1610612744,1610612744,1610612744,1610612744,1610612744,1610612744,1610612744,1610612744,1610612744,1610612744,1610612744,1610612744,1610612744,1610612744,1610612744,1610612744,1610612744,1610612744,1610612744,1610612744,1610612744,1610612744,5,3221225479,2684354565,3221225477,3221225477,3221225477,3221225477,3221225477,3221225477,3221225477,7,8,24,40,41,100,96,96,102,41,41,41,41,41,41,41,41,41,41,41,41,41,41,41,41,41,41,42,3221225496,3221225480,3221225479,5,5,6,5,5,6,5,5,7,8,3221225515,40,41,41,41,41,42,2684354572,2147483656,3221225479,5,5,5,5,5,5,5,1610612741,7,8,2684354632,0,0,
0,0,1610612808,3221225480,3221225479,2684354565,3221225477,3221225477,3221225477,3221225477,3221225477,3221225477,3221225477,7,1073741832,1610612748,40,41,41,41,41,41,41,41,41,41,41,42,58,3221225480,5,2684354564,2684354564,2684354564,2684354564,2684354564,2684354564,2684354564,2684354564,2684354564,1610612743,1610612743,1610612743,1610612743,1610612743,1610612743,1610612743,1610612743,1610612743,1610612743,1610612743,1610612743,1610612743,1610612743,1610612743,5,5,5,6,5,5,6,5,5,7,8,24,40,41,110,116,116,1610612827,102,41,41,41,41,41,41,41,41,41,41,41,41,41,41,41,41,41,42,3221225496,3221225480,3221225479,5,5,5,5,5,5,5,1610612741,7,8,3221225530,40,41,41,41,41,42,2684354570,2147483656,3221225479,5,5,6,5,5,6,5,5,7,8,2684354632,0,0,
0,0,1610612808,3221225480,3221225479,3221225477,3221225477,3221225478,3221225477,3221225477,3221225478,3221225477,3221225477,7,1073741832,1610612746,40,41,41,41,41,41,41,41,41,41,41,42,58,3221225480,4,5,5,5,5,5,5,5,5,5,5,1610612741,3221225477,1610612741,3221225477,1610612741,3221225477,1610612741,3221225477,1610612741,3221225477,1610612741,3221225477,1610612741,3221225477,5,5,5,5,5,5,5,5,5,7,8,24,40,41,110,116,116,116,1610612827,102,41,41,41,41,41,41,41,41,41,41,41,41,41,41,41,41,42,3221225496,3221225480,3221225479,5,5,6,5,5,6,5,5,7,8,3221225515,40,41,41,41,41,42,2684354572,2147483656,3221225479,5,5,5,5,5,5,5,1610612741,7,8,2684354632,0,0,
0,0,1610612808,3221225480,3221225479,2684354565,3221225477,3221225477,3221225477,3221225477,3221225477,3221225477,3221225477,7,1073741832,1610612748,40,41,41,41,41,41,41,41,41,41,41,42,28,3221225480,4,5,5,5,5,5,5,5,5,5,1610612741,1610612741,1610612741,1610612741,1610612741,1610612741,1610612741,1610612741,1610612741,1610612741,1610612741,1610612741,1610612741,1610612741,1610612741,5,5,5,6,5,5,6,5,5,7,8,24,40,41,110,116,116,116,116,1610612827,96,102,41,41,41,41,41,41,41,41,41,41,41,41,41,41,42,3221225496,3221225480,3221225479,5,5,5,5,5,5,5,1610612741,7,8,3221225530,40,41,41,41,41,42,2684354570,2147483656,3221225479,5,5,6,5,5,6,5,5,7,8,2684354632,0,0,
0,0,1610612808,3221225480,3221225479,3221225477,3221225477,3221225478,3221225477,3221225477,3221225478,3221225477,3221225477,7,1073741832,1610612746,40,41,41,41,41,41,41,41,41,41,41,42,43,3221225480,4,5,5,5,5,1610612742,5,1610612742,5,1610612742,1610612741,1610612742,1610612741,1610612742,1610612741,1610612742,1610612741,1610612742,1610612741,1610612742,1610612741,1610612742,1610612741,1610612742,1610612741,1610612742,5,1610612742,5,5,5,5,5,5,7,8,24,40,41,110,116,116,116,116,116,116,1610612827,96,102,41,41,41,41,41,41,41,41,41,41,41,41,42,3221225496,3221225480,3221225479,5,5,6,5,5,6,5,5,7,8,3221225515,40,41,41,41,41,42,2684354572,2147483656,3221225479,5,5,5,5,5,5,5,1610612741,7,8,2684354632,0,0,
0,0,1610612808,3221225480,3221225479,2684354565,3221225477,3221225477,3221225477,3221225477,3221225477,3221225477,3221225477,7,1073741832,1610612748,40,41,41,41,41,41,41,41,41,41,41,42,58,3221225480,4,5,5,5,5,5,5,5,5,5,1610612741,1610612741,1610612741,1610612741,1610612741,1610612741,1610612741,1610612741,1610612741,1610612741,1610612741,1610612741,1610612741,1610612741,1610612741,5,5,5,5,5,5,5,5,5,7,8,24,40,100,3221225563,116,116,116,116,116,116,116,116,1610612827,96,102,41,41,41,41,41,41,41,41,41,41,42,3221225496,3221225480,3221225479,5,5,5,5,5,5,5,1610612741,7,8,3221225530,40,41,41,41,41,42,2684354570,2147483656,3221225479,5,5,6,5,5,6,5,5,7,8,2684354632,0,0,
0,0,1610612808,3221225480,3221225479,3221225477,3221225477,3221225478,3221225477,3221225477,3221225478,3221225477,3221225477,7,1073741832,1610612746,40,41,41,41,41,41,41,41,41,41,41,42,28,3221225480,4,5,5,3221225478,5,5,5,5,5,5,5,1610612741,1610612741,1610612741,1610612741,1610612741,1610612741,1610612741,1610612741,1610612741,1610612741,1610612741,1610612741,1610612741,1610612741,5,5,5,5,5,5,5,5,5,7,8,24,40,110,116,116,116,116,116,116,116,116,116,116,116,1610612827,102,41,41,41,41,41,41,41,41,41,42,3221225496,3221225480,3221225479,5,5,6,5,5,6,5,5,7,8,3221225515,40,41,41,41,41,42,2684354572,2147483656,3221225479,5,5,5,5,5,5,5,1610612741,7,8,2684354632,0,0,
0,0,1610612808,3221225480,3221225479,2684354565,3221225477,3221225477,3221225477,3221225477,3221225477,3221225477,3221225477,7,1073741832,1610612748,40,41,41,41,41,41,41,41,41,41,41,42,43,3221225480,4,5,5,5,5,5,5,1610612742,5,1610612742,1610612741,1610612742,1610612741,1610612742,1610612741,1610612742,1610612741,1610612742,1610612741,1610612742,1610612741,1610612742,1610612741,1610612742,1610612741,1610612742,5,1610612742,5,5,5,5,5,5,7,8,24,40,110,116,116,116,116,116,116,116,116,116,116,116,116,1610612827,102,41,41,41,41,41,41,41,41,42,3221225496,3221225480,3221225479,5,5,5,5,5,5,5,1610612741,7,8,3221225530,40,41,41,41,41,42,2684354570,2147483656,3221225479,5,5,6,5,5,6,5,5,7,8,2684354632,0,0,
0,0,1610612808,3221225480,3221225479,3221225477,3221225477,3221225478,3221225477,3221225477,3221225478,3221225477,3221225477,7,1073741832,1610612746,40,41,41,41,41,41,41,41,41,41,41,42,58,3221225480,4,5,5,6,5,5,6,5,5,5,1610612741,1610612741,1610612741,1610612741,1610612741,1610612741,1610612741,1610612741,1610612741,1610612741,1610612741,1610612741,1610612741,1610612741,1610612741,5,5,5,3221225478,5,5,3221225478,5,5,7,8,24,40,110,116,116,116,116,116,116,116,116,116,116,116,116,116,1610612827,96,102,41,41,41,41,41,41,42,3221225496,3221225480,3221225479,5,5,6,5,5,6,5,5,7,8,3221225515,40,41,41,41,41,42,2684354572,2147483656,3221225479,5,5,5,5,5,5,5,1610612741,7,8,2684354632,0,0,
0,0,1610612808,3221225480,3221225479,2684354565,3221225477,3221225477,3221225477,3221225477,3221225477,3221225477,3221225477,7,1073741832,1610612748,40,41,41,41,41,41,41,41,41,41,41,42,28,3221225480,4,5,5,5,5,5,5,5,5,5,5,1610612741,1610612741,1610612741,1610612741,1610612741,1610612741,1610612741,1610612741,1610612741,1610612741,1610612741,1610612741,1610612741,1610612741,5,5,5,5,5,5,5,5,5,7,8,39,40,110,116,116,116,116,116,116,116,116,116,116,116,116,116,116,116,1610612827,96,102,41,41,41,41,42,3221225496,3221225480,3221225479,5,5,5,5,5,5,5,1610612741,7,8,3221225530,40,41,41,41,41,42,2684354570,2147483656,3221225479,5,5,6,5,5,6,5,5,7,8,2684354632,0,0,
0,0,1610612808,3221225480,3221225479,3221225477,3221225477,3221225478,3221225477,3221225477,3221225478,3221225477,3221225477,7,1073741832,1610612746,40,41,41,41,41,41,41,41,41,41,41,42,43,3221225480,4,5,5,6,5,5,6,5,5,5,2684354567,2684354567,2684354567,2684354567,2684354567,2684354567,2684354567,2684354567,2684354567,2684354567,2684354567,2684354567,2684354567,2684354567,2684354567,5,5,5,3221225478,5,5,3221225478,5,5,7,8,24,40,110,116,116,116,116,116,116,116,116,116,116,116,116,116,116,116,116,116,1610612827,102,41,41,41,42,3221225496,3221225480,3221225479,5,5,6,5,5,6,5,5,7,8,3221225515,40,41,41,41,41,42,2684354572,2147483656,3221225479,5,5,5,5,5,5,5,1610612741,7,8,2684354632,0,0,
0,0,1610612808,3221225480,3221225479,2684354565,3221225477,3221225477,3221225477,3221225477,3221225477,3221225477,3221225477,7,1073741832,1610612748,40,41,41,41,41,41,41,41,41,41,41,42,58,3221225480,3221225479,2684354565,3221225477,3221225477,3221225477,3221225477,3221225477,3221225477,3221225477,7,5,536870920,536870920,536870920,536870920,536870920,536870920,536870920,536870920,536870920,536870920,536870920,536870920,536870920,5,3221225479,2684354565,3221225477,3221225477,3221225477,3221225477,3221225477,3221225477,3221225477,7,8,24,40,110,116,116,116,116,116,116,116,116,116,116,116,116,116,116,116,116,116,116,1610612827,102,41,41,42,3221225496,3221225480,3221225479,5,5,5,5,5,5,5,1610612741,7,8,3221225530,40,41,41,41,41,42,2684354570,2147483656,3221225479,5,5,6,5,5,6,5,5,7,8,2684354632,0,0,
0,0,58,2147483656,3221225479,3221225477,3221225477,3221225478,3221225477,3221225477,3221225478,3221225477,3221225477,7,8,54,40,41,41,41,41,41,41,41,41,41,41,42,28,3221225480,3221225479,3221225477,3221225477,3221225478,3221225477,3221225477,3221225478,3221225477,3221225477,7,1073741832,9,10,11,12,10,10,10,10,10,10,11,12,13,2147483656,3221225479,3221225477,3221225477,3221225478,3221225477,3221225477,3221225478,3221225477,3221225477,7,8,24,40,110,116,116,116,116,116,116,116,116,116,116,116,116,116,116,116,116,116,116,116,1610612827,96,102,42,3221225496,3221225480,3221225479,5,5,6,5,5,6,5,5,7,8,3221225515,40,41,41,41,41,42,2684354572,2147483656,3221225479,5,5,5,5,5,5,5,1610612741,7,8,2684354632,0,0,
0,0,28,2147483656,3221225479,2684354565,3221225477,3221225477,3221225477,3221225477,3221225477,3221225477,3221225477,7,8,54,40,41,41,41,41,41,41,41,41,41,41,42,1610612808,3221225480,3221225479,2684354565,3221225477,3221225477,3221225477,3221225477,3221225477,3221225477,3221225477,7,1073741832,24,95,96,96,96,96,96,96,96,96,97,27,28,2147483656,3221225479,2684354565,3221225477,3221225477,3221225477,3221225477,3221225477,3221225477,3221225477,7,8,24,40,110,116,116,91,126,2684354651,116,116,116,116,116,116,116,116,116,116,116,116,116,116,116,116,112,42,3221225496,3221225480,3221225479,5,5,5,5,5,5,5,1610612741,7,8,3221225530,40,41,41,41,41,42,2684354570,2147483656,3221225479,5,5,6,5,5,6,5,5,7,8,2684354632,0,0,
0,0,43,2147483656,3221225479,3221225477,3221225477,3221225478,3221225477,3221225477,3221225478,3221225477,3221225477,7,8,54,40,41,41,41,41,41,41,41,41,41,41,42,1610612808,3221225480,3221225479,3221225477,3221225477,3221225478,3221225477,3221225477,3221225478,3221225477,3221225477,7,1073741832,39,110,116,116,116,116,116,116,116,116,112,42,43,2147483656,3221225479,3221225477,3221225477,3221225478,3221225477,3221225477,3221225478,3221225477,3221225477,7,8,24,40,130,126,126,132,41,130,126,2684354651,116,116,116,116,116,116,116,116,116,116,116,116,116,116,112,42,3221225496,3221225480,3221225479,5,5,6,5,5,6,5,5,7,8,3221225515,40,41,41,41,41,42,2684354572,2147483656,3221225479,5,5,5,5,5,5,5,1610612741,7,8,2684354632,0,0,
0,0,58,2147483656,3221225479,2684354565,3221225477,3221225477,3221225477,3221225477,3221225477,3221225477,3221225477,7,8,54,40,41,41,41,41,41,41,41,41,41,41,42,1610612808,3221225480,3221225479,2684354565,3221225477,3221225477,3221225477,3221225477,3221225477,3221225477,3221225477,7,1073741832,54,110,116,116,116,116,116,116,116,116,112,42,58,2147483656,3221225479,2684354565,3221225477,3221225477,3221225477,3221225477,3221225477,3221225477,3221225477,7,8,24,40,41,41,41,41,41,41,41,110,116,116,116,116,116,116,116,116,116,116,116,116,116,116,112,42,3221225496,3221225480,3221225479,5,5,5,5,5,5,5,1610612741,7,8,3221225530,40,41,41,41,41,42,2684354570,2147483656,3221225479,5,5,6,5,5,6,5,5,7,8,2684354632,0,0,
0,0,28,2147483656,3221225479,3221225477,3221225477,3221225478,3221225477,3221225477,3221225478,3221225477,3221225477,7,8,54,40,41,41,41,41,41,41,41,41,41,41,42,1610612808,3221225480,3221225479,3221225477,3221225477,3221225478,3221225477,3221225477,3221225478,3221225477,3221225477,7,1073741832,54,110,116,116,116,116,116,116,116,116,112,42,28,2147483656,3221225479,3221225477,3221225477,3221225478,3221225477,3221225477,3221225478,3221225477,3221225477,7,8,24,40,41,41,41,41,41,41,41,110,116,116,116,116,116,116,116,116,116,116,116,116,116,116,112,42,3221225496,3221225480,3221225479,5,5,6,5,5,6,5,5,7,8,3221225515,40,41,41,41,41,42,2684354572,2147483656,3221225479,5,5,5,5,5,5,5,1610612741,7,8,2684354632,0,0,
0,0,43,2147483656,3221225479,2684354565,3221225477,3221225477,3221225477,3221225477,3221225477,3221225477,3221225477,7,8,54,55,56,56,56,56,56,56,56,56,56,56,57,1610612808,3221225480,3221225479,2684354565,3221225477,3221225477,3221225477,3221225477,3221225477,3221225477,3221225477,7,1073741832,54,110,116,116,116,116,116,116,116,116,112,42,43,2147483656,3221225479,2684354565,3221225477,3221225477,3221225477,3221225477,3221225477,3221225477,3221225477,7,8,24,40,41,41,41,41,41,41,41,130,2684354651,116,116,116,116,91,2684354651,116,116,116,116,116,116,116,112,42,3221225496,3221225480,3221225479,5,5,5,5,5,5,5,1610612741,7,8,3221225530,40,41,41,41,41,42,2684354570,2147483656,3221225479,5,5,6,5,5,6,5,5,7,8,2684354632,0,0,
0,0,58,2147483656,3221225479,3221225477,3221225477,3221225478,3221225477,3221225477,3221225478,3221225477,3221225477,7,8,69,70,71,72,70,71,72,70,71,72,70,71,72,73,3221225480,3221225479,3221225477,3221225477,3221225478,3221225477,3221225477,3221225478,3221225477,3221225477,7,1073741832,54,110,116,116,116,116,116,116,116,116,112,42,58,2147483656,3221225479,3221225477,3221225477,3221225478,3221225477,3221225477,3221225478,3221225477,3221225477,7,8,24,40,41,41,41,41,41,41,41,41,130,126,2684354651,116,91,132,130,126,2684354651,116,116,116,116,116,112,42,3221225496,3221225480,3221225479,5,5,6,5,5,6,5,5,7,8,3221225515,40,41,41,41,41,42,2684354572,2147483656,3221225479,5,5,5,5,5,5,5,1610612741,7,8,2684354632,0,0,
0,0,58,2147483656,3221225479,2684354565,3221225477,3221225477,3221225477,3221225477,3221225477,3221225477,3221225477,7,5,1610612744,1610612744,1610612744,1610612744,1610612744,1610612744,1610612744,1610612744,1610612744,1610612744,1610612744,1610612744,1610612744,1610612744,5,3221225479,2684354565,3221225477,3221225477,3221225477,3221225477,3221225477,3221225477,3221225477,7,1073741832,54,110,116,116,116,116,116,116,116,116,112,42,28,2147483656,3221225479,2684354565,3221225477,3221225477,3221225477,3221225477,3221225477,3221225477,3221225477,7,8,39,40,41,41,41,41,41,41,41,41,41,41,130,126,132,41,41,41,130,126,2684354651,116,116,116,112,42,3221225496,3221225480,3221225479,5,5,5,5,5,5,5,1610612741,7,8,3221225530,40,41,41,41,41,42,2684354570,2147483656,3221225479,5,5,6,5,5,6,5,5,7,8,2684354632,0,0,
0,0,58,2147483656,3221225479,3221225477,3221225477,3221225478,3221225477,3221225477,3221225478,3221225477,3221225477,5,3758096391,3758096391,3758096391,3758096391,3758096391,3758096391,3758096391,3758096391,3758096391,3758096391,3758096391,3758096391,3758096391,3758096391,3758096391,3758096391,5,5,5,3221225478,5,5,3221225478,5,5,7,1073741832,54,110,116,116,116,116,116,116,116,91,127,41,28,2147483656,3221225479,3221225477,3221225477,3221225478,3221225477,3221225477,3221225478,3221225477,3221225477,7,8,24,40,41,41,41,41,41,41,41,41,41,41,41,41,41,41,41,41,41,41,110,116,116,116,112,42,3221225496,3221225480,3221225479,5,5,6,5,5,6,5,5,7,8,3221225515,40,41,41,41,41,42,2684354572,2147483656,3221225479,5,5,5,5,5,5,5,1610612741,7,8,2684354632,0,0,
0,0,58,2147483656,3221225479,2684354565,3221225477,3221225477,3221225477,3221225477,3221225477,3221225477,3221225477,5,536870917,536870917,536870917,536870917,536870917,536870917,536870917,536870917,536870917,536870917,536870917,536870917,536870917,536870917,536870917,536870917,5,5,5,5,5,5,5,5,5,7,1073741832,54,110,116,116,116,116,91,126,126,127,41,42,28,2147483656,3221225479,2684354565,3221225477,3221225477,3221225477,3221225477,3221225477,3221225477,3221225477,7,8,24,40,41,41,41,41,41,41,41,41,41,41,41,41,41,41,41,41,41,41,110,116,116,116,112,42,3221225496,3221225480,3221225479,5,5,5,5,5,5,5,1610612741,7,8,3221225530,40,41,41,41,41,42,2684354570,2147483656,3221225479,5,5,6,5,5,6,5,5,7,8,2684354632,0,0,
0,0,58,2147483656,3221225479,3221225477,3221225477,3221225478,3221225477,3221225477,3221225478,3221225477,3221225477,5,536870917,536870917,536870917,536870917,536870917,536870917,536870917,536870917,536870917,536870917,536870917,536870917,536870917,536870917,536870917,536870917,5,5,5,5,5,5,3221225478,5,5,7,1073741832,54,110,116,116,116,91,127,41,41,41,41,42,28,2147483656,3221225479,3221225477,3221225477,3221225478,3221225477,3221225477,3221225478,3221225477,3221225477,7,8,24,40,41,41,41,41,41,41,41,41,41,41,41,41,41,41,95,96,96,96,3221225563,116,116,116,112,42,3221225496,3221225480,3221225479,5,5,6,5,5,6,5,5,7,8,3221225515,40,41,41,41,41,42,2684354572,2147483656,3221225479,5,5,5,5,5,5,5,1610612741,7,8,2684354632,0,0,
0,0,58,2147483656,3221225479,2684354565,3221225477,3221225477,3221225477,3221225477,3221225477,536870918,3221225477,536870918,536870917,536870918,536870917,536870918,536870917,536870918,536870917,536870918,536870917,536870918,536870917,536870918,536870917,536870918,536870917,1610612742,5,1610612742,5,5,5,5,5,5,5,7,1073741832,54,110,116,116,91,127,41,41,41,41,41,42,28,2147483656,3221225479,2684354565,3221225477,3221225477,3221225477,3221225477,3221225477,3221225477,3221225477,7,8,24,40,41,41,41,41,41,41,41,41,41,41,41,41,41,95,3221225563,116,116,116,116,116,116,116,112,42,3221225496,3221225480,3221225479,5,5,5,5,5,5,5,1610612741,7,8,3221225530,40,41,41,41,41,42,2684354570,2147483656,3221225479,5,5,6,5,5,6,5,5,7,8,2684354632,0,0,
0,0,58,2147483656,3221225479,3221225477,3221225477,3221225477,20,3221225477,5,3221225477,3221225477,5,536870917,536870917,536870917,536870917,536870917,536870917,536870917,536870917,536870917,536870917,536870917,536870917,536870917,536870917,536870917,536870917,5,5,5,5,5,5,3221225478,5,5,7,1073741832,54,110,116,116,1610612827,1610612863,41,41,41,41,41,42,28,2147483656,3221225479,3221225477,3221225477,3221225478,3221225477,3221225477,3221225478,3221225477,3221225477,7,8,24,40,41,41,41,41,41,41,41,41,41,41,41,41,41,110,116,116,116,116,116,116,116,116,112,42,3221225496,3221225480,3221225479,5,5,6,5,5,6,5,5,7,8,3221225515,40,41,41,41,41,42,2684354572,2147483656,3221225479,5,5,5,5,5,5,5,1610612741,7,8,2684354632,0,0,
0,0,58,2147483656,3221225479,2684354565,3221225477,3221225477,3221225477,3221225477,3221225477,3221225477,3221225477,5,536870917,536870917,536870917,536870917,536870917,536870917,536870917,536870917,536870917,536870917,536870917,536870917,536870917,536870917,536870917,536870917,5,5,5,5,5,5,5,5,5,7,1073741832,54,110,116,116,116,1610612827,96,96,96,97,41,42,28,2147483656,3221225479,2684354565,3221225477,3221225477,3221225477,3221225477,3221225477,3221225477,3221225477,7,8,24,40,41,41,41,41,41,41,41,41,41,41,41,41,95,3221225563,116,116,116,116,116,116,116,116,112,42,3221225496,3221225480,3221225479,5,5,5,5,5,5,5,1610612741,7,8,3221225530,40,41,41,41,41,42,2684354570,2147483656,3221225479,5,5,6,5,5,6,5,5,7,8,2684354632,0,0,
0,0,58,2147483656,3221225479,3221225477,3221225477,3221225477,3221225477,3221225477,5,536870918,3221225477,536870918,536870917,536870918,536870917,536870918,536870917,536870918,536870917,536870918,536870917,536870918,536870917,536870918,536870917,536870918,536870917,1610612742,5,1610612742,5,2684354566,5,5,5,5,5,7,1073741832,54,110,116,116,116,116,116,116,116,112,41,42,28,2147483656,3221225479,3221225477,3221225477,3221225478,3221225477,3221225477,3221225478,3221225477,3221225477,7,8,24,40,41,41,41,41,41,41,41,41,41,41,41,95,3221225563,116,116,116,116,116,116,116,116,116,112,42,3221225496,3221225480,3221225479,5,20,6,5,5,6,5,5,7,8,3221225515,40,41,41,41,41,42,2684354572,2147483656,3221225479,5,5,5,5,5,5,5,1610612741,7,8,2684354632,0,0,
0,0,58,2147483656,3221225479,2684354565,3221225477,3221225478,1610612741,3221225477,3221225478,3221225477,3221225477,5,536870917,536870917,536870917,536870917,536870917,536870917,536870917,536870917,536870917,536870917,536870917,536870917,536870917,536870917,536870917,536870917,5,5,5,5,5,5,5,5,5,7,1073741832,54,125,126,126,126,126,126,126,126,127,41,42,28,2147483656,3221225479,2684354565,3221225477,3221225477,3221225477,3221225477,3221225477,3221225477,3221225477,7,8,24,40,41,41,41,41,41,41,41,41,41,41,41,110,116,116,116,116,116,116,116,116,116,91,132,42,3221225496,3221225480,3221225479,5,5,5,5,5,5,5,1610612741,7,8,3221225530,40,41,41,41,41,42,2684354570,2147483656,3221225479,5,5,6,5,5,6,5,5,7,8,2684354632,0,0,
0,0,58,2147483656,3221225479,3221225477,3221225477,1610612741,1610612741,1610612741,1610612741,3221225477,3221225477,5,2147483653,536870917,2147483653,536870917,2147483653,536870917,2147483653,536870917,2147483653,536870917,2147483653,536870917,2147483653,536870917,2147483653,2147483653,5,5,5,5,5,5,5,5,5,7,1073741832,54,40,41,41,41,41,41,41,41,41,41,42,43,2147483656,3221225479,3221225477,3221225477,3221225478,3221225477,3221225477,3221225478,3221225477,3221225477,7,8,39,40,41,41,41,41,41,41,41,41,41,41,41,110,116,116,116,116,116,116,116,116,116,112,41,42,3221225496,3221225480,3221225479,5,5,6,5,5,6,5,5,7,8,3221225515,40,41,41,41,41,42,2684354572,2147483656,3221225479,5,5,5,5,5,5,5,1610612741,7,8,2684354632,0,0,
0,0,58,2147483656,3221225479,2684354565,3221225477,3221225478,3221225477,1610612741,3221225478,3221225477,3221225477,5,536870919,536870919,536870919,536870919,536870919,536870919,536870919,536870919,536870919,536870919,536870919,536870919,536870919,536870919,536870919,536870919,1610612740,1610612740,1610612740,1610612740,1610612740,1610612740,1610612740,1610612740,1610612740,5,1073741832,54,55,56,56,56,56,56,56,56,56,56,57,58,2147483656,3221225479,2684354565,3221225477,3221225477,3221225477,3221225477,3221225477,3221225477,3221225477,7,8,54,55,56,56,56,56,56,56,56,56,56,56,56,130,131,131,131,131,131,131,131,131,131,127,56,57,3221225496,3221225480,3221225479,5,5,5,5,5,5,5,1610612741,7,8,3221225530,55,56,56,56,56,57,2684354570,2147483656,3221225479,5,5,6,5,5,6,5,5,7,8,2684354632,0,0,
0,0,58,2147483656,3221225479,3221225477,3221225477,1610612741,1610612741,1610612741,1610612741,3221225477,3221225477,7,536870920,536870920,536870920,536870920,536870920,536870920,536870920,536870920,536870920,536870920,536870920,536870920,536870920,536870920,536870920,536870920,536870920,536870920,536870920,536870920,536870920,536870920,536870920,536870920,536870920,536870920,5,69,70,70,70,70,70,70,71,72,70,71,72,73,2147483656,3221225479,3221225477,3221225477,3221225478,3221225477,3221225477,3221225478,3221225477,3221225477,7,8,3221225484,3221225482,3221225484,3221225482,3221225484,3221225482,3221225484,3221225482,3221225484,3221225482,3221225484,3221225482,3221225484,3221225482,3221225484,3221225482,3221225484,3221225482,3221225484,3221225482,3221225484,3221225482,3221225484,3221225482,3221225484,3221225482,2684354573,2147483656,3221225479,5,5,2684354565,5,5,2684354565,5,5,7,8,144,3221225484,3221225482,3221225484,3221225482,3221225484,3221225482,3221225484,2147483656,3221225479,5,5,5,5,5,5,5,1610612741,7,8,2684354632,0,0,
0,0,58,2147483656,3221225479,2684354565,3221225477,3221225478,1610612741,1610612741,3221225478,3221225477,3221225477,7,3758096392,3758096392,3758096392,3758096392,3758096392,3758096392,3758096392,3758096392,3758096392,3758096392,3758096392,3758096392,3758096392,3758096392,3758096392,3758096392,3758096392,3758096392,3758096392,3758096392,3758096392,3758096392,3758096392,3758096392,3758096392,3758096392,3758096392,3758096392,3758096392,3758096392,3758096392,3758096392,3758096392,3758096392,3758096392,3758096392,3758096392,3758096392,3758096392,3758096392,5,3221225479,2684354565,3221225477,3221225477,3221225477,3221225477,3221225477,3221225477,3221225477,7,5,3758096392,3758096392,3758096392,3758096392,3758096392,3758096392,3758096392,3758096392,3758096392,3758096392,3758096392,3758096392,3758096392,3758096392,3758096392,3758096392,3758096392,3758096392,3758096392,3758096392,3758096392,3758096392,3758096392,3758096392,3758096392,3758096392,3758096392,2684354565,3221225479,5,5,6,5,5,6,5,1610612741,7,2684354565,1610612744,3758096392,3758096392,3758096392,3758096392,3758096392,3758096392,3758096392,3221225477,3221225479,3221225477,3221225477,3221225478,3221225477,3221225477,3221225478,3221225477,3221225477,3221225476,1073741832,54,0,0,
0,0,58,2147483656,4,5,5,1610612741,1610612741,1610612741,1610612741,5,5,5,1610612743,1610612743,1610612743,1610612743,1610612743,1610612743,1610612743,1610612743,1610612743,1610612743,1610612743,1610612743,1610612743,1610612743,1610612743,1610612743,1610612743,1610612743,1610612743,1610612743,1610612743,1610612743,1610612743,1610612743,1610612743,1610612743,1610612743,1610612743,1610612743,1610612743,1610612743,1610612743,1610612743,1610612743,1610612743,1610612743,1610612743,1610612743,1610612743,1610612743,1610612743,5,2684354565,3221225477,3221225478,3221225477,3221225477,3221225478,3221225477,3221225477,5,1610612743,1610612743,1610612743,1610612743,1610612743,1610612743,1610612743,1610612743,1610612743,1610612743,1610612743,1610612743,1610612743,1610612743,1610612743,1610612743,1610612743,1610612743,1610612743,1610612743,1610612743,1610612743,1610612743,1610612743,1610612743,1610612743,1610612743,1610612743,1610612743,2684354565,2684354565,2684354565,2684354565,2684354565,2684354565,2684354565,2684354565,2684354565,2684354565,1610612743,1610612743,1610612743,1610612743,1610612743,1610612743,1610612743,1610612743,1610612743,1610612743,3221225477,3221225477,3221225477,3221225477,3221225477,3221225477,3221225477,3221225477,3221225477,3221225476,1073741832,24,0,0,
0,0,58,2147483656,4,5,5,3221225478,1610612741,1610612741,3221225478,5,5,5,1610612741,1610612741,1610612741,1610612741,1610612741,1610612741,1610612741,1610612741,1610612741,1610612741,1610612741,1610612741,1610612741,1610612741,1610612741,1610612741,1610612741,1610612741,1610612741,1610612741,1610612741,1610612741,1610612741,1610612741,1610612741,1610612741,1610612741,1610612741,1610612741,1610612741,1610612741,1610612741,1610612741,1610612741,1610612741,1610612741,1610612741,1610612741,2684354565,2684354565,2684354565,1610612741,2684354565,3221225477,5,5,3221225477,5,3221225477,3221225477,5,2684354565,2684354565,2684354565,2684354565,2684354565,2684354565,2684354565,2684354565,2684354565,2684354565,2684354565,2684354565,2684354565,2684354565,2684354565,2684354565,2684354565,2684354565,2684354565,2684354565,2684354565,2684354565,2684354565,2684354565,2684354565,2684354565,2684354565,1610612741,3221225477,2684354565,2684354565,2684354565,6,2684354565,2684354565,6,2684354565,2684354565,2684354565,3221225477,2684354565,2684354565,2684354565,2684354565,2684354565,2684354565,2684354565,2684354565,3221225477,3221225477,3221225477,3221225477,3221225478,3221225477,3221225477,3221225478,3221225477,3221225477,3221225476,1073741832,39,0,0,
0,0,58,2147483656,4,5,5,1610612741,1610612741,5,5,5,5,5,1610612741,1610612741,1610612741,1610612741,1610612741,1610612741,1610612741,1610612741,1610612741,1610612741,1610612741,1610612741,1610612741,1610612741,1610612741,1610612741,1610612741,1610612741,1610612741,1610612741,1610612741,1610612741,1610612741,1610612741,1610612741,1610612741,1610612741,1610612741,1610612741,1610612741,1610612741,1610612741,1610612741,1610612741,1610612741,1610612741,1610612741,1610612741,2684354565,2684354565,2684354565,1610612741,2684354565,5,6,5,5,3221225478,5,5,5,2684354565,2684354565,2684354565,2684354565,2684354565,2684354565,2684354565,2684354565,2684354565,2684354565,2684354565,2684354565,2684354565,2684354565,2684354565,2684354565,2684354565,2684354565,2684354565,2684354565,2684354565,2684354565,2684354565,2684354565,2684354565,2684354565,2684354565,1610612741,1610612741,2684354565,2684354565,2684354565,2684354565,2684354565,2684354565,2684354565,2684354565,2684354565,2684354565,1610612741,2684354565,2684354565,2684354565,2684354565,2684354565,2684354565,2684354565,2684354565,3221225477,3221225477,3221225477,3221225477,3221225477,3221225477,3221225477,3221225477,3221225477,3221225477,3221225476,1073741832,54,0,0,
0,0,58,2147483656,4,5,5,3221225478,5,1610612741,5,1610612741,1610612742,1610612741,1610612742,1610612741,1610612742,1610612741,1610612742,1610612741,1610612742,1610612741,1610612742,1610612741,1610612742,1610612741,1610612742,1610612741,1610612742,1610612741,1610612742,1610612741,1610612742,1610612741,1610612742,1610612741,1610612742,1610612741,1610612742,1610612741,1610612742,1610612741,1610612742,1610612741,1610612742,1610612741,1610612742,1610612741,1610612742,1610612741,1610612742,1610612741,1610612742,5,1610612742,5,1610612742,5,5,5,5,5,5,1610612742,5,1610612742,2684354565,2684354566,2684354565,2684354566,2684354565,2684354566,2684354565,2684354566,2684354565,2684354566,2684354565,2684354566,2684354565,2684354566,2684354565,2684354566,2684354565,2684354566,2684354565,2684354566,2684354565,2684354566,2684354565,2684354566,2684354565,2684354566,2684354565,1610612741,1610612742,2684354565,1610612742,2684354565,2684354565,2684354565,2684354565,2684354566,2684354565,2684354566,1610612741,1610612742,2684354565,2684354566,2684354565,2684354566,2684354565,2684354566,2684354565,2684354566,3221225477,2684354566,3221225477,5,3221225477,3221225477,3221225478,3221225477,3221225477,3221225476,1073741832,24,0,0,
0,0,58,2147483656,4,5,5,1610612741,1610612741,1610612741,5,5,5,5,1610612741,1610612741,1610612741,1610612741,1610612741,1610612741,1610612741,1610612741,1610612741,1610612741,1610612741,1610612741,1610612741,1610612741,1610612741,1610612741,1610612741,1610612741,1610612741,1610612741,1610612741,1610612741,1610612741,1610612741,1610612741,1610612741,1610612741,1610612741,1610612741,1610612741,1610612741,1610612741,1610612741,1610612741,1610612741,1610612741,1610612741,1610612741,2684354565,5,2684354565,5,2684354565,5,5,5,5,5,5,5,5,2684354565,2684354565,2684354565,2684354565,2684354565,2684354565,2684354565,2684354565,2684354565,2684354565,2684354565,2684354565,2684354565,2684354565,2684354565,2684354565,2684354565,2684354565,2684354565,2684354565,2684354565,2684354565,2684354565,2684354565,2684354565,2684354565,2684354565,1610612741,1610612741,2684354565,2684354565,2684354565,2684354565,2684354565,2684354565,2684354565,2684354565,2684354565,2684354565,1610612741,2684354565,2684354565,2684354565,2684354565,2684354565,2684354565,2684354565,2684354565,3221225477,3221225477,3221225477,3221225477,3221225477,3221225477,3221225477,3221225477,3221225477,3221225477,3221225476,1073741832,39,0,0,
0,0,58,2147483656,4,5,5,3221225478,5,5,5,5,5,5,1610612741,1610612741,1610612741,1610612741,1610612741,1610612741,1610612741,1610612741,1610612741,1610612741,1610612741,1610612741,1610612741,1610612741,1610612741,1610612741,1610612741,1610612741,1610612741,1610612741,1610612741,1610612741,1610612741,1610612741,1610612741,1610612741,1610612741,1610612741,1610612741,1610612741,1610612741,1610612741,1610612741,1610612741,1610612741,1610612741,1610612741,1610612741,2684354565,5,5,5,5,5,5,5,5,5,5,5,5,2684354565,2684354565,2684354565,20,2684354565,2684354565,2684354565,2684354565,2684354565,2684354565,2684354565,2684354565,2684354565,2684354565,2684354565,2684354565,2684354565,2684354565,2684354565,2684354565,2684354565,2684354565,2684354565,2684354565,2684354565,2684354565,2684354565,1610612741,1610612741,2684354565,2684354565,2684354565,2684354565,2684354565,2684354565,2684354565,2684354565,2684354565,2684354565,1610612741,2684354565,2684354565,2684354565,2684354565,2684354565,2684354565,2684354565,2684354565,3221225477,3221225477,3221225477,3221225477,3221225477,3221225477,3221225477,3221225478,3221225477,3221225477,3221225476,1073741832,24,0,0,
0,0,43,2147483656,4,5,5,5,1610612742,1610612741,1610612742,1610612741,1610612742,1610612741,1610612742,1610612741,1610612742,1610612741,1610612742,1610612741,1610612742,1610612741,1610612742,1610612741,1610612742,1610612741,1610612742,1610612741,1610612742,1610612741,1610612742,1610612741,1610612742,1610612741,1610612742,1610612741,1610612742,1610612741,1610612742,1610612741,1610612742,1610612741,1610612742,1610612741,1610612742,1610612741,1610612742,1610612741,1610612742,1610612741,1610612742,1610612741,1610612742,5,1610612742,5,1610612742,5,5,5,5,5,5,1610612742,5,1610612742,2684354565,2684354566,2684354565,2684354566,2684354565,2684354566,2684354565,2684354566,2684354565,2684354566,2684354565,2684354566,2684354565,2684354566,2684354565,2684354566,2684354565,2684354566,2684354565,2684354566,2684354565,2684354566,2684354565,2684354566,2684354565,2684354566,2684354565,1610612741,1610612742,2684354565,1610612742,2684354565,2684354565,2684354565,2684354565,2684354566,2684354565,2684354566,1610612741,1610612742,2684354565,2684354566,2684354565,2684354566,2684354565,2684354566,2684354565,2684354566,3221225477,2684354566,3221225477,2684354566,3221225477,2684354566,3221225477,3221225477,3221225477,3221225476,1073741832,24,0,0,
0,0,58,2147483656,4,5,5,5,5,5,5,5,5,5,1610612741,1610612741,1610612741,1610612741,1610612741,1610612741,1610612741,1610612741,1610612741,1610612741,1610612741,1610612741,1610612741,1610612741,1610612741,1610612741,1610612741,1610612741,1610612741,1610612741,1610612741,1610612741,1610612741,1610612741,1610612741,1610612741,1610612741,1610612741,1610612741,1610612741,1610612741,1610612741,1610612741,1610612741,1610612741,1610612741,1610612741,1610612741,2684354565,2684354565,2684354565,1610612741,2684354565,5,5,5,5,5,5,5,5,2684354565,2684354565,2684354565,2684354565,2684354565,2684354565,2684354565,2684354565,2684354565,2684354565,2684354565,2684354565,2684354565,2684354565,2684354565,2684354565,2684354565,2684354565,2684354565,2684354565,2684354565,2684354565,2684354565,2684354565,2684354565,2684354565,2684354565,1610612741,1610612741,2684354565,2684354565,2684354565,2684354565,2684354565,2684354565,2684354565,2684354565,2684354565,2684354565,1610612741,2684354565,2684354565,2684354565,2684354565,2684354565,2684354565,2684354565,2684354565,3221225477,3221225477,3221225477,3221225477,3221225477,3221225477,3221225477,20,3221225477,3221225477,3221225476,1073741832,24,0,0,
0,0,28,2147483656,4,5,5,5,5,5,5,5,5,5,1610612741,1610612741,1610612741,1610612741,1610612741,1610612741,1610612741,1610612741,1610612741,1610612741,1610612741,1610612741,1610612741,1610612741,1610612741,1610612741,1610612741,1610612741,1610612741,1610612741,1610612741,1610612741,1610612741,1610612741,1610612741,1610612741,1610612741,1610612741,1610612741,1610612741,1610612741,1610612741,1610612741,1610612741,1610612741,1610612741,1610612741,1610612741,5,2684354565,5,1610612741,2684354565,5,5,5,5,5,5,5,5,5,5,2684354565,5,2684354565,5,2684354565,5,2684354565,5,2684354565,5,2684354565,5,2684354565,5,2684354565,5,2684354565,5,2684354565,5,2684354565,5,2684354565,5,2684354565,1610612741,1610612741,2684354565,2684354565,2684354565,2684354565,2684354565,2684354565,2684354565,2684354565,2684354565,2684354565,1610612741,5,5,2684354565,5,2684354565,5,2684354565,5,3221225477,3221225477,3221225477,3221225477,3221225477,3221225477,3221225477,3221225477,3221225477,3221225477,3221225476,1073741832,24,0,0,
0,0,43,2147483656,5,1610612740,1610612740,1610612740,1610612740,1610612740,1610612740,1610612740,1610612740,1610612740,1610612740,1610612740,1610612740,1610612740,1610612740,1610612740,1610612740,1610612740,1610612740,1610612740,1610612740,1610612740,1610612740,1610612740,1610612740,1610612740,1610612740,1610612740,1610612740,1610612740,1610612740,1610612740,1610612740,1610612740,1610612740,1610612740,1610612740,1610612740,1610612740,1610612740,1610612740,1610612740,1610612740,1610612740,1610612740,1610612740,1610612740,1610612740,2684354567,2684354567,2684354567,1610612740,1610612740,1610612740,1610612740,1610612740,1610612740,1610612740,1610612740,1610612740,1610612740,2684354567,2684354567,2684354567,2684354567,2684354567,2684354567,2684354567,2684354567,2684354567,2684354567,2684354567,2684354567,2684354567,2684354567,2684354567,2684354567,2684354567,2684354567,2684354567,2684354567,2684354567,2684354567,2684354567,2684354567,2684354567,2684354567,2684354567,2684354567,2684354567,2684354567,2684354567,2684354567,2684354567,2684354567,2684354567,2684354567,2684354567,2684354567,2684354567,2684354567,2684354567,2684354567,2684354567,2684354567,2684354567,2684354567,2684354567,2684354567,1610612740,1610612740,1610612740,1610612740,1610612740,1610612740,1610612740,1610612740,1610612740,1610612740,3221225477,1073741832,24,0,0,
0,0,58,536870920,536870920,536870920,536870920,536870920,536870920,536870920,536870920,536870920,536870920,536870920,536870920,536870920,536870920,536870920,536870920,536870920,536870920,536870920,536870920,536870920,536870920,536870920,536870920,536870920,536870920,536870920,536870920,536870920,536870920,536870920,536870920,536870920,536870920,536870920,536870920,536870920,536870920,536870920,536870920,536870920,536870920,536870920,536870920,536870920,536870920,536870920,536870920,536870920,536870920,536870920,536870920,536870920,536870920,536870920,536870920,536870920,536870920,536870920,536870920,536870920,536870920,536870920,2684354568,2684354568,2684354568,2684354568,2684354568,2684354568,2684354568,2684354568,2684354568,2684354568,2684354568,2684354568,2684354568,2684354568,2684354568,2684354568,2684354568,2684354568,2684354568,2684354568,2684354568,2684354568,2684354568,2684354568,2684354568,2684354568,2684354568,2684354568,2684354568,2684354568,2684354568,2684354568,2684354568,2684354568,2684354568,2684354568,2684354568,2684354568,2684354568,2684354568,2684354568,2684354568,2684354568,2684354568,2684354568,2684354568,2684354568,536870920,536870920,536870920,536870920,536870920,536870920,536870920,536870920,536870920,536870920,536870920,536870920,39,0,0,
0,0,10,11,12,12,12,12,12,12,12,12,12,12,12,12,12,12,12,12,12,12,12,12,12,12,12,12,12,12,12,12,12,12,10,11,12,12,12,12,12,12,12,12,12,12,12,12,12,12,12,12,10,11,12,10,11,12,12,12,12,12,12,12,12,12,3221225544,3221225544,3221225544,3221225544,3221225544,3221225544,3221225544,3221225544,3221225544,3221225544,3221225544,3221225544,3221225544,3221225544,3221225544,3221225544,3221225544,3221225544,3221225544,3221225544,3221225544,3221225544,3221225544,3221225544,3221225544,3221225544,2684354584,2684354584,2684354584,2684354599,2684354584,2684354584,2684354584,2684354584,2684354584,2684354584,2684354584,2684354584,2684354584,1610612794,3221225544,3221225544,3221225544,3221225544,3221225544,3221225544,3221225544,12,12,12,12,12,12,12,12,12,10,11,12,54,0,0,
0,0,0,0,0,0,0,0,0,0,0,0,0,0,0,0,0,0,0,0,0,0,0,0,0,0,0,0,0,0,0,0,0,0,0,0,0,0,0,0,0,0,0,0,0,0,0,0,0,0,0,0,0,0,0,0,0,0,0,0,0,0,0,0,0,0,0,0,0,0,0,0,0,0,0,0,0,0,0,0,0,0,0,0,0,0,0,0,0,0,0,0,0,0,0,0,0,0,0,0,0,0,0,0,0,0,0,0,0,0,0,0,0,0,0,0,0,0,0,0,0,0,0,0,0,0,0,0,
0,0,0,0,0,0,0,0,0,0,0,0,0,0,0,0,0,0,0,0,0,0,0,0,0,0,0,0,0,0,0,0,0,0,0,0,0,0,0,0,0,0,0,0,0,0,0,0,0,0,0,0,0,0,0,0,0,0,0,0,0,0,0,0,0,0,0,0,0,0,0,0,0,0,0,0,0,0,0,0,0,0,0,0,0,0,0,0,0,0,0,0,0,0,0,0,0,0,0,0,0,0,0,0,0,0,0,0,0,0,0,0,0,0,0,0,0,0,0,0,0,0,0,0,0,0,0,0
</data>
 </layer>
 <layer id="6" name="BORDER" width="128" height="128">
  <data encoding="csv">
0,0,0,0,0,0,0,0,0,0,0,0,0,0,0,0,0,0,0,0,0,0,0,0,0,0,0,0,0,0,0,0,0,0,0,0,0,0,0,0,0,0,0,0,0,0,0,0,0,0,0,0,0,0,0,0,0,0,0,0,0,0,0,0,0,0,0,0,0,0,0,0,0,0,0,0,0,0,0,0,0,0,0,0,0,0,0,0,0,0,0,0,0,0,0,0,0,0,0,0,0,0,0,0,0,0,0,0,0,0,0,0,0,0,0,0,0,0,0,0,0,0,0,0,0,0,0,0,
0,61,61,61,61,61,61,61,61,61,61,61,61,61,61,61,61,61,61,61,61,61,61,61,61,61,61,61,61,61,61,61,61,61,61,61,61,61,61,61,61,61,61,61,61,61,61,61,61,61,61,61,61,61,61,61,61,61,61,61,61,61,61,61,61,61,61,61,61,61,61,61,61,61,61,61,61,61,61,61,61,61,61,61,61,61,61,61,61,61,61,61,61,61,61,61,61,61,61,61,61,61,61,61,61,61,61,61,61,61,61,61,61,61,61,61,61,61,61,61,61,61,61,61,61,61,61,0,
0,61,0,0,0,0,0,0,0,0,0,0,0,0,0,0,0,0,0,0,0,0,0,0,0,0,0,0,0,0,0,0,0,0,0,0,0,0,0,0,0,0,0,0,0,0,0,0,0,0,0,0,0,0,0,0,0,0,0,0,0,0,0,0,0,0,0,0,0,0,0,0,0,0,0,0,0,0,0,0,0,0,0,0,0,0,0,0,0,0,0,0,0,0,0,0,0,0,0,0,0,0,0,0,0,0,0,0,0,0,0,0,0,0,0,0,0,0,0,0,0,0,0,0,0,0,61,0,
0,61,0,0,0,0,0,0,0,0,0,0,0,0,0,0,0,0,0,0,0,0,0,0,0,0,0,0,0,0,0,0,0,0,0,0,0,0,0,0,0,0,0,0,0,0,0,0,0,0,0,0,0,0,0,0,0,0,0,0,0,0,0,0,0,0,0,0,0,0,0,0,0,0,0,0,0,0,0,0,0,0,0,0,0,0,0,0,0,0,0,0,0,0,0,0,0,0,0,0,0,0,0,0,0,0,0,0,0,0,0,0,0,0,0,0,0,0,0,0,0,0,0,0,0,0,61,0,
0,61,0,0,0,0,0,0,0,0,0,0,0,0,0,0,0,0,0,0,0,0,0,0,0,0,0,0,0,0,0,0,0,0,0,0,0,0,0,0,0,0,0,0,0,0,0,0,0,0,0,0,0,0,0,0,0,0,0,0,0,0,0,0,0,0,0,0,0,0,0,0,0,0,0,0,0,0,0,0,0,0,0,0,0,0,0,0,0,0,0,0,0,0,0,0,0,0,0,0,0,0,0,0,0,0,0,0,0,0,0,0,0,0,0,0,0,0,0,0,0,0,0,0,0,0,61,0,
0,61,0,0,0,0,0,0,0,0,0,0,0,0,0,0,0,0,0,0,0,0,0,0,0,0,0,0,0,0,0,0,0,0,0,0,0,0,0,0,0,0,0,0,0,0,0,0,0,0,0,0,0,0,0,0,0,0,0,0,0,0,0,0,0,0,0,0,0,0,0,0,0,0,0,0,0,0,0,0,0,0,0,0,0,0,0,0,0,0,0,0,0,0,0,0,0,0,0,0,0,0,0,0,0,0,0,0,0,0,0,0,0,0,0,0,0,0,0,0,0,0,0,0,0,0,61,0,
0,61,0,0,0,0,0,0,0,0,0,0,0,0,0,0,0,0,0,0,0,0,0,0,0,0,0,0,0,0,0,0,0,0,0,0,0,0,0,0,0,0,0,0,0,0,0,0,0,0,0,0,0,0,0,0,0,0,0,0,0,0,0,0,0,0,0,0,0,0,0,0,0,0,0,0,0,0,0,0,0,0,0,0,0,0,0,0,0,0,0,0,0,0,0,0,0,0,0,0,0,0,0,0,0,0,0,0,0,0,0,0,0,0,0,0,0,0,0,0,0,0,0,0,0,0,61,0,
0,61,0,0,0,0,0,0,0,0,0,0,0,0,0,0,0,0,0,0,0,0,0,0,0,0,0,0,0,0,0,0,0,0,0,0,0,0,0,0,0,0,0,0,0,0,0,0,0,0,0,0,0,0,0,0,0,0,0,0,0,0,0,0,0,0,0,0,0,0,0,0,0,0,0,0,0,0,0,0,0,0,0,0,0,0,0,0,0,0,0,0,0,0,0,0,0,0,0,0,0,0,0,0,0,0,0,0,0,0,0,0,0,0,0,0,0,0,0,0,0,0,0,0,0,0,61,0,
0,61,0,0,0,0,0,0,0,0,0,0,0,0,0,0,0,0,0,0,0,0,0,0,0,0,0,0,0,0,0,0,0,0,0,0,0,0,0,0,0,0,0,0,0,0,0,0,0,0,0,0,0,0,0,0,0,0,0,0,0,0,0,0,0,0,0,0,0,0,0,0,0,0,0,0,0,0,0,0,0,0,0,0,0,0,0,0,0,0,0,0,0,0,0,0,0,0,0,0,0,0,0,0,0,0,0,0,0,0,0,0,0,0,0,0,0,0,0,0,0,0,0,0,0,0,61,0,
0,61,0,0,0,0,0,0,0,0,0,0,0,0,0,0,0,0,0,0,0,0,0,0,0,0,0,0,0,0,0,0,0,0,0,0,0,0,0,0,0,0,0,0,0,0,0,0,0,0,0,0,0,0,0,0,0,0,0,0,0,0,0,0,0,0,0,0,0,0,0,0,0,0,0,0,0,0,0,0,0,0,0,0,0,0,0,0,0,0,0,0,0,0,0,0,0,0,0,0,0,0,0,0,0,0,0,0,0,0,0,0,0,0,0,0,0,0,0,0,0,0,0,0,0,0,61,0,
0,61,0,0,0,0,0,0,0,0,0,0,0,0,0,0,0,0,0,0,0,0,0,0,0,0,0,0,0,0,0,0,0,0,0,0,0,0,0,0,0,0,0,0,0,0,0,0,0,0,0,0,0,0,0,0,0,0,0,0,0,0,0,0,0,0,0,0,0,0,0,0,0,0,0,0,0,0,0,0,0,0,0,0,0,0,0,0,0,0,0,0,0,0,0,0,0,0,0,0,0,0,0,0,0,0,0,0,0,0,0,0,0,0,0,0,0,0,0,0,0,0,0,0,0,0,61,0,
0,61,0,0,0,0,0,0,0,0,0,0,0,0,0,0,0,0,0,0,0,0,0,0,0,0,0,0,0,0,0,0,0,0,0,0,0,0,0,0,0,0,0,0,0,0,0,0,0,0,0,0,0,0,0,0,0,0,0,0,0,0,0,0,0,0,0,0,0,0,0,0,0,0,0,0,0,0,0,0,0,0,0,0,0,0,0,0,0,0,0,0,0,0,0,0,0,0,0,0,0,0,0,0,0,0,0,0,0,0,0,0,0,0,0,0,0,0,0,0,0,0,0,0,0,0,61,0,
0,61,0,0,0,0,0,0,0,0,0,0,0,0,0,0,0,0,0,0,0,0,0,0,0,0,0,0,0,0,0,0,0,0,0,0,0,0,0,0,0,0,0,0,0,0,0,0,0,0,0,0,0,0,0,0,0,0,0,0,0,0,0,0,0,0,0,0,0,0,0,0,0,0,0,0,0,0,0,0,0,0,0,0,0,0,0,0,0,0,0,0,0,0,0,0,0,0,0,0,0,0,0,0,0,0,0,0,0,0,0,0,0,0,0,0,0,0,0,0,0,0,0,0,0,0,61,0,
0,61,0,0,0,0,0,0,0,0,0,0,0,0,0,0,0,0,0,0,0,0,0,0,0,0,0,0,0,0,0,0,0,0,0,0,0,0,0,0,0,0,0,0,0,0,0,0,0,0,0,0,0,0,0,0,0,0,0,0,0,0,0,0,0,0,0,0,0,0,0,0,0,0,0,0,0,0,0,0,0,0,0,0,0,0,0,0,0,0,0,0,0,0,0,0,0,0,0,0,0,0,0,0,0,0,0,0,0,0,0,0,0,0,0,0,0,0,0,0,0,0,0,0,0,0,61,0,
0,61,0,0,0,0,0,0,0,0,0,0,0,0,0,0,0,0,0,0,0,0,0,0,0,0,0,0,0,0,0,0,0,0,0,0,0,0,0,0,0,0,0,0,0,0,0,0,0,0,0,0,0,0,0,0,0,0,0,0,0,0,0,0,0,0,0,0,0,0,0,0,0,0,0,0,0,0,0,0,0,0,0,0,0,0,0,0,0,0,0,0,0,0,0,0,0,0,0,0,0,0,0,0,0,0,0,0,0,0,0,0,0,0,0,0,0,0,0,0,0,0,0,0,0,0,61,0,
0,61,0,0,0,0,0,0,0,0,0,0,0,0,0,0,0,0,0,0,0,0,0,0,0,0,0,0,0,0,0,0,0,0,0,0,0,0,0,0,0,0,0,0,0,0,0,0,0,0,0,0,0,0,0,0,0,0,0,0,0,0,0,0,0,0,0,0,0,0,0,0,0,0,0,0,0,0,0,0,0,0,0,0,0,0,0,0,0,0,0,0,0,0,0,0,0,0,0,0,0,0,0,0,0,0,0,0,0,0,0,0,0,0,0,0,0,0,0,0,0,0,0,0,0,0,61,0,
0,61,0,0,0,0,0,0,0,0,0,0,0,0,0,0,0,0,0,0,0,0,0,0,0,0,0,0,0,0,0,0,0,0,0,0,0,0,0,0,0,0,0,0,0,0,0,0,0,0,0,0,0,0,0,0,0,0,0,0,0,0,0,0,0,0,0,0,0,0,0,0,0,0,0,0,0,0,0,0,0,0,0,0,0,0,0,0,0,0,0,0,0,0,0,0,0,0,0,0,0,0,0,0,0,0,0,0,0,0,0,0,0,0,0,0,0,0,0,0,0,0,0,0,0,0,61,0,
0,61,0,0,0,0,0,0,0,0,0,0,0,0,0,0,0,0,0,0,0,0,0,0,0,0,0,0,0,0,0,0,0,0,0,0,0,0,0,0,0,0,0,0,0,0,0,0,0,0,0,0,0,0,0,0,0,0,0,0,0,0,0,0,0,0,0,0,0,0,0,0,0,0,0,0,0,0,0,0,0,0,0,0,0,0,0,0,0,0,0,0,0,0,0,0,0,0,0,0,0,0,0,0,0,0,0,0,0,0,0,0,0,0,0,0,0,0,0,0,0,0,0,0,0,0,61,0,
0,61,0,0,0,0,0,0,0,0,0,0,0,0,0,0,0,0,0,0,0,0,0,0,0,0,0,0,0,0,0,0,0,0,0,0,0,0,0,0,0,0,0,0,0,0,0,0,0,0,0,0,0,0,0,0,0,0,0,0,0,0,0,0,0,0,0,0,0,0,0,0,0,0,0,0,0,0,0,0,0,0,0,0,0,0,0,0,0,0,0,0,0,0,0,0,0,0,0,0,0,0,0,0,0,0,0,0,0,0,0,0,0,0,0,0,0,0,0,0,0,0,0,0,0,0,61,0,
0,61,0,0,0,0,0,0,0,0,0,0,0,0,0,0,0,0,0,0,0,0,0,0,0,0,0,0,0,0,0,0,0,0,0,0,0,0,0,0,0,0,0,0,0,0,0,0,0,0,0,0,0,0,0,0,0,0,0,0,0,0,0,0,0,0,0,0,0,0,0,0,0,0,0,0,0,0,0,0,0,0,0,0,0,0,0,0,0,0,0,0,0,0,0,0,0,0,0,0,0,0,0,0,0,0,0,0,0,0,0,0,0,0,0,0,0,0,0,0,0,0,0,0,0,0,61,0,
0,61,0,0,0,0,0,0,0,0,0,0,0,0,0,0,0,0,0,0,0,0,0,0,0,0,0,0,0,0,0,0,0,0,0,0,0,0,0,0,0,0,0,0,0,0,0,0,0,0,0,0,0,0,0,0,0,0,0,0,0,0,0,0,0,0,0,0,0,0,0,0,0,0,0,0,0,0,0,0,0,0,0,0,0,0,0,0,0,0,0,0,0,0,0,0,0,0,0,0,0,0,0,0,0,0,0,0,0,0,0,0,0,0,0,0,0,0,0,0,0,0,0,0,0,0,61,0,
0,61,0,0,0,0,0,0,0,0,0,0,0,0,0,0,0,0,0,0,0,0,0,0,0,0,0,0,0,0,0,0,0,0,0,0,0,0,0,0,0,0,0,0,0,0,0,0,0,0,0,0,0,0,0,0,0,0,0,0,0,0,0,0,0,0,0,0,0,0,0,0,0,0,0,0,0,0,0,0,0,0,0,0,0,0,0,0,0,0,0,0,0,0,0,0,0,0,0,0,0,0,0,0,0,0,0,0,0,0,0,0,0,0,0,0,0,0,0,0,0,0,0,0,0,0,61,0,
0,61,0,0,0,0,0,0,0,0,0,0,0,0,0,0,0,0,0,0,0,0,0,0,0,0,0,0,0,0,0,0,0,0,0,0,0,0,0,0,0,0,0,0,0,0,0,0,0,0,0,0,0,0,0,0,0,0,0,0,0,0,0,0,0,0,0,0,0,0,0,0,0,0,0,0,0,0,0,0,0,0,0,0,0,0,0,0,0,0,0,0,0,0,0,0,0,0,0,0,0,0,0,0,0,0,0,0,0,0,0,0,0,0,0,0,0,0,0,0,0,0,0,0,0,0,61,0,
0,61,0,0,0,0,0,0,0,0,0,0,0,0,0,0,0,0,0,0,0,0,0,0,0,0,0,0,0,0,0,0,0,0,0,0,0,0,0,0,0,0,0,0,0,0,0,0,0,0,0,0,0,0,0,0,0,0,0,0,0,0,0,0,0,0,0,0,0,0,0,0,0,0,0,0,0,0,0,0,0,0,0,0,0,0,0,0,0,0,0,0,0,0,0,0,0,0,0,0,0,0,0,0,0,0,0,0,0,0,0,0,0,0,0,0,0,0,0,0,0,0,0,0,0,0,61,0,
0,61,0,0,0,0,0,0,0,0,0,0,0,0,0,0,0,0,0,0,0,0,0,0,0,0,0,0,0,0,0,0,0,0,0,0,0,0,0,0,0,0,0,0,0,0,0,0,0,0,0,0,0,0,0,0,0,0,0,0,0,0,0,0,0,0,0,0,0,0,0,0,0,0,0,0,0,0,0,0,0,0,0,0,0,0,0,0,0,0,0,0,0,0,0,0,0,0,0,0,0,0,0,0,0,0,0,0,0,0,0,0,0,0,0,0,0,0,0,0,0,0,0,0,0,0,61,0,
0,61,0,0,0,0,0,0,0,0,0,0,0,0,0,0,0,0,0,0,0,0,0,0,0,0,0,0,0,0,0,0,0,0,0,0,0,0,0,0,0,0,0,0,0,0,0,0,0,0,0,0,0,0,0,0,0,0,0,0,0,0,0,0,0,0,0,0,0,0,0,0,0,0,0,0,0,0,0,0,0,0,0,0,0,0,0,0,0,0,0,0,0,0,0,0,0,0,0,0,0,0,0,0,0,0,0,0,0,0,0,0,0,0,0,0,0,0,0,0,0,0,0,0,0,0,61,0,
0,61,0,0,0,0,0,0,0,0,0,0,0,0,0,0,0,0,0,0,0,0,0,0,0,0,0,0,0,0,0,0,0,0,0,0,0,0,0,0,0,0,0,0,0,0,0,0,0,0,0,0,0,0,0,0,0,0,0,0,0,0,0,0,0,0,0,0,0,0,0,0,0,0,0,0,0,0,0,0,0,0,0,0,0,0,0,0,0,0,0,0,0,0,0,0,0,0,0,0,0,0,0,0,0,0,0,0,0,0,0,0,0,0,0,0,0,0,0,0,0,0,0,0,0,0,61,0,
0,61,0,0,0,0,0,0,0,0,0,0,0,0,0,0,0,0,0,0,0,0,0,0,0,0,0,0,0,0,0,0,0,0,0,0,0,0,0,0,0,0,0,0,0,0,0,0,0,0,0,0,0,0,0,0,0,0,0,0,0,0,0,0,0,0,0,0,0,0,0,0,0,0,0,0,0,0,0,0,0,0,0,0,0,0,0,0,0,0,0,0,0,0,0,0,0,0,0,0,0,0,0,0,0,0,0,0,0,0,0,0,0,0,0,0,0,0,0,0,0,0,0,0,0,0,61,0,
0,61,0,0,0,0,0,0,0,0,0,0,0,0,0,0,0,0,0,0,0,0,0,0,0,0,0,0,0,0,0,0,0,0,0,0,0,0,0,0,0,0,0,0,0,0,0,0,0,0,0,0,0,0,0,0,0,0,0,0,0,0,0,0,0,0,0,0,0,0,0,0,0,0,0,0,0,0,0,0,0,0,0,0,0,0,0,0,0,0,0,0,0,0,0,0,0,0,0,0,0,0,0,0,0,0,0,0,0,0,0,0,0,0,0,0,0,0,0,0,0,0,0,0,0,0,61,0,
0,61,0,0,0,0,0,0,0,0,0,0,0,0,0,0,0,0,0,0,0,0,0,0,0,0,0,0,0,0,0,0,0,0,0,0,0,0,0,0,0,0,0,0,0,0,0,0,0,0,0,0,0,0,0,0,0,0,0,0,0,0,0,0,0,0,0,0,0,0,0,0,0,0,0,0,0,0,0,0,0,0,0,0,0,0,0,0,0,0,0,0,0,0,0,0,0,0,0,0,0,0,0,0,0,0,0,0,0,0,0,0,0,0,0,0,0,0,0,0,0,0,0,0,0,0,61,0,
0,61,0,0,0,0,0,0,0,0,0,0,0,0,0,0,0,0,0,0,0,0,0,0,0,0,0,0,0,0,0,0,0,0,0,0,0,0,0,0,0,0,0,0,0,0,0,0,0,0,0,0,0,0,0,0,0,0,0,0,0,0,0,0,0,0,0,0,0,0,0,0,0,0,0,0,0,0,0,0,0,0,0,0,0,0,0,0,0,0,0,0,0,0,0,0,0,0,0,0,0,0,0,0,0,0,0,0,0,0,0,0,0,0,0,0,0,0,0,0,0,0,0,0,0,0,61,0,
0,61,0,0,0,0,0,0,0,0,0,0,0,0,0,0,0,0,0,0,0,0,0,0,0,0,0,0,0,0,0,0,0,0,0,0,0,0,0,0,0,0,0,0,0,0,0,0,0,0,0,0,0,0,0,0,0,0,0,0,0,0,0,0,0,0,0,0,0,0,0,0,0,0,0,0,0,0,0,0,0,0,0,0,0,0,0,0,0,0,0,0,0,0,0,0,0,0,0,0,0,0,0,0,0,0,0,0,0,0,0,0,0,0,0,0,0,0,0,0,0,0,0,0,0,0,61,0,
0,61,0,0,0,0,0,0,0,0,0,0,0,0,0,0,0,0,0,0,0,0,0,0,0,0,0,0,0,0,0,0,0,0,0,0,0,0,0,0,0,0,0,0,0,0,0,0,0,0,0,0,0,0,0,0,0,0,0,0,0,0,0,0,0,0,0,0,0,0,0,0,0,0,0,0,0,0,0,0,0,0,0,0,0,0,0,0,0,0,0,0,0,0,0,0,0,0,0,0,0,0,0,0,0,0,0,0,0,0,0,0,0,0,0,0,0,0,0,0,0,0,0,0,0,0,61,0,
0,61,0,0,0,0,0,0,0,0,0,0,0,0,0,0,0,0,0,0,0,0,0,0,0,0,0,0,0,0,0,0,0,0,0,0,0,0,0,0,0,0,0,0,0,0,0,0,0,0,0,0,0,0,0,0,0,0,0,0,0,0,0,0,0,0,0,0,0,0,0,0,0,0,0,0,0,0,0,0,0,0,0,0,0,0,0,0,0,0,0,0,0,0,0,0,0,0,0,0,0,0,0,0,0,0,0,0,0,0,0,0,0,0,0,0,0,0,0,0,0,0,0,0,0,0,61,0,
0,61,0,0,0,0,0,0,0,0,0,0,0,0,0,0,0,0,0,0,0,0,0,0,0,0,0,0,0,0,0,0,0,0,0,0,0,0,0,0,0,0,0,0,0,0,0,0,0,0,0,0,0,0,0,0,0,0,0,0,0,0,0,0,0,0,0,0,0,0,0,0,0,0,0,0,0,0,0,0,0,0,0,0,0,0,0,0,0,0,0,0,0,0,0,0,0,0,0,0,0,0,0,0,0,0,0,0,0,0,0,0,0,0,0,0,0,0,0,0,0,0,0,0,0,0,61,0,
0,61,0,0,0,0,0,0,0,0,0,0,0,0,0,0,0,0,0,0,0,0,0,0,0,0,0,0,0,0,0,0,0,0,0,0,0,0,0,0,0,0,0,0,0,0,0,0,0,0,0,0,0,0,0,0,0,0,0,0,0,0,0,0,0,0,0,0,0,0,0,0,0,0,0,0,0,0,0,0,0,0,0,0,0,0,0,0,0,0,0,0,0,0,0,0,0,0,0,0,0,0,0,0,0,0,0,0,0,0,0,0,0,0,0,0,0,0,0,0,0,0,0,0,0,0,61,0,
0,61,0,0,0,0,0,0,0,0,0,0,0,0,0,0,0,0,0,0,0,0,0,0,0,0,0,0,0,0,0,0,0,0,0,0,0,0,0,0,0,0,0,0,0,0,0,0,0,0,0,0,0,0,0,0,0,0,0,0,0,0,0,0,0,0,0,0,0,0,0,0,0,0,0,0,0,0,0,0,0,0,0,0,0,0,0,0,0,0,0,0,0,0,0,0,0,0,0,0,0,0,0,0,0,0,0,0,0,0,0,0,0,0,0,0,0,0,0,0,0,0,0,0,0,0,61,0,
0,61,0,0,0,0,0,0,0,0,0,0,0,0,0,0,0,0,0,0,0,0,0,0,0,0,0,0,0,0,0,0,0,0,0,0,0,0,0,0,0,0,0,0,0,0,0,0,0,0,0,0,0,0,0,0,0,0,0,0,0,0,0,0,0,0,0,0,0,0,0,0,0,0,0,0,0,0,0,0,0,0,0,0,0,0,0,0,0,0,0,0,0,0,0,0,0,0,0,0,0,0,0,0,0,0,0,0,0,0,0,0,0,0,0,0,0,0,0,0,0,0,0,0,0,0,61,0,
0,61,0,0,0,0,0,0,0,0,0,0,0,0,0,0,0,0,0,0,0,0,0,0,0,0,0,0,0,0,0,0,0,0,0,0,0,0,0,0,0,0,0,0,0,0,0,0,0,0,0,0,0,0,0,0,0,0,0,0,0,0,0,0,0,0,0,0,0,0,0,0,0,0,0,0,0,0,0,0,0,0,0,0,0,0,0,0,0,0,0,0,0,0,0,0,0,0,0,0,0,0,0,0,0,0,0,0,0,0,0,0,0,0,0,0,0,0,0,0,0,0,0,0,0,0,61,0,
0,61,0,0,0,0,0,0,0,0,0,0,0,0,0,0,0,0,0,0,0,0,0,0,0,0,0,0,0,0,0,0,0,0,0,0,0,0,0,0,0,0,0,0,0,0,0,0,0,0,0,0,0,0,0,0,0,0,0,0,0,0,0,0,0,0,0,0,0,0,0,0,0,0,0,0,0,0,0,0,0,0,0,0,0,0,0,0,0,0,0,0,0,0,0,0,0,0,0,0,0,0,0,0,0,0,0,0,0,0,0,0,0,0,0,0,0,0,0,0,0,0,0,0,0,0,61,0,
0,61,0,0,0,0,0,0,0,0,0,0,0,0,0,0,0,0,0,0,0,0,0,0,0,0,0,0,0,0,0,0,0,0,0,0,0,0,0,0,0,0,0,0,0,0,0,0,0,0,0,0,0,0,0,0,0,0,0,0,0,0,0,0,0,0,0,0,0,0,0,0,0,0,0,0,0,0,0,0,0,0,0,0,0,0,0,0,0,0,0,0,0,0,0,0,0,0,0,0,0,0,0,0,0,0,0,0,0,0,0,0,0,0,0,0,0,0,0,0,0,0,0,0,0,0,61,0,
0,61,0,0,0,0,0,0,0,0,0,0,0,0,0,0,0,0,0,0,0,0,0,0,0,0,0,0,0,0,0,0,0,0,0,0,0,0,0,0,0,0,0,0,0,0,0,0,0,0,0,0,0,0,0,0,0,0,0,0,0,0,0,0,0,0,0,0,0,0,0,0,0,0,0,0,0,0,0,0,0,0,0,0,0,0,0,0,0,0,0,0,0,0,0,0,0,0,0,0,0,0,0,0,0,0,0,0,0,0,0,0,0,0,0,0,0,0,0,0,0,0,0,0,0,0,61,0,
0,61,0,0,0,0,0,0,0,0,0,0,0,0,0,0,0,0,0,0,0,0,0,0,0,0,0,0,0,0,0,0,0,0,0,0,0,0,0,0,0,0,0,0,0,0,0,0,0,0,0,0,0,0,0,0,0,0,0,0,0,0,0,0,0,0,0,0,0,0,0,0,0,0,0,0,0,0,0,0,0,0,0,0,0,0,0,0,0,0,0,0,0,0,0,0,0,0,0,0,0,0,0,0,0,0,0,0,0,0,0,0,0,0,0,0,0,0,0,0,0,0,0,0,0,0,61,0,
0,61,0,0,0,0,0,0,0,0,0,0,0,0,0,0,0,0,0,0,0,0,0,0,0,0,0,0,0,0,0,0,0,0,0,0,0,0,0,0,0,0,0,0,0,0,0,0,0,0,0,0,0,0,0,0,0,0,0,0,0,0,0,0,0,0,0,0,0,0,0,0,0,0,0,0,0,0,0,0,0,0,0,0,0,0,0,0,0,0,0,0,0,0,0,0,0,0,0,0,0,0,0,0,0,0,0,0,0,0,0,0,0,0,0,0,0,0,0,0,0,0,0,0,0,0,61,0,
0,61,0,0,0,0,0,0,0,0,0,0,0,0,0,0,0,0,0,0,0,0,0,0,0,0,0,0,0,0,0,0,0,0,0,0,0,0,0,0,0,0,0,0,0,0,0,0,0,0,0,0,0,0,0,0,0,0,0,0,0,0,0,0,0,0,0,0,0,0,0,0,0,0,0,0,0,0,0,0,0,0,0,0,0,0,0,0,0,0,0,0,0,0,0,0,0,0,0,0,0,0,0,0,0,0,0,0,0,0,0,0,0,0,0,0,0,0,0,0,0,0,0,0,0,0,61,0,
0,61,0,0,0,0,0,0,0,0,0,0,0,0,0,0,0,0,0,0,0,0,0,0,0,0,0,0,0,0,0,0,0,0,0,0,0,0,0,0,0,0,0,0,0,0,0,0,0,0,0,0,0,0,0,0,0,0,0,0,0,0,0,0,0,0,0,0,0,0,0,0,0,0,0,0,0,0,0,0,0,0,0,0,0,0,0,0,0,0,0,0,0,0,0,0,0,0,0,0,0,0,0,0,0,0,0,0,0,0,0,0,0,0,0,0,0,0,0,0,0,0,0,0,0,0,61,0,
0,61,0,0,0,0,0,0,0,0,0,0,0,0,0,0,0,0,0,0,0,0,0,0,0,0,0,0,0,0,0,0,0,0,0,0,0,0,0,0,0,0,0,0,0,0,0,0,0,0,0,0,0,0,0,0,0,0,0,0,0,0,0,0,0,0,0,0,0,0,0,0,0,0,0,0,0,0,0,0,0,0,0,0,0,0,0,0,0,0,0,0,0,0,0,0,0,0,0,0,0,0,0,0,0,0,0,0,0,0,0,0,0,0,0,0,0,0,0,0,0,0,0,0,0,0,61,0,
0,61,0,0,0,0,0,0,0,0,0,0,0,0,0,0,0,0,0,0,0,0,0,0,0,0,0,0,0,0,0,0,0,0,0,0,0,0,0,0,0,0,0,0,0,0,0,0,0,0,0,0,0,0,0,0,0,0,0,0,0,0,0,0,0,0,0,0,0,0,0,0,0,0,0,0,0,0,0,0,0,0,0,0,0,0,0,0,0,0,0,0,0,0,0,0,0,0,0,0,0,0,0,0,0,0,0,0,0,0,0,0,0,0,0,0,0,0,0,0,0,0,0,0,0,0,61,0,
0,61,0,0,0,0,0,0,0,0,0,0,0,0,0,0,0,0,0,0,0,0,0,0,0,0,0,0,0,0,0,0,0,0,0,0,0,0,0,0,0,0,0,0,0,0,0,0,0,0,0,0,0,0,0,0,0,0,0,0,0,0,0,0,0,0,0,0,0,0,0,0,0,0,0,0,0,0,0,0,0,0,0,0,0,0,0,0,0,0,0,0,0,0,0,0,0,0,0,0,0,0,0,0,0,0,0,0,0,0,0,0,0,0,0,0,0,0,0,0,0,0,0,0,0,0,61,0,
0,61,0,0,0,0,0,0,0,0,0,0,0,0,0,0,0,0,0,0,0,0,0,0,0,0,0,0,0,0,0,0,0,0,0,0,0,0,0,0,0,0,0,0,0,0,0,0,0,0,0,0,0,0,0,0,0,0,0,0,0,0,0,0,0,0,0,0,0,0,0,0,0,0,0,0,0,0,0,0,0,0,0,0,0,0,0,0,0,0,0,0,0,0,0,0,0,0,0,0,0,0,0,0,0,0,0,0,0,0,0,0,0,0,0,0,0,0,0,0,0,0,0,0,0,0,61,0,
0,61,0,0,0,0,0,0,0,0,0,0,0,0,0,0,0,0,0,0,0,0,0,0,0,0,0,0,0,0,0,0,0,0,0,0,0,0,0,0,0,0,0,0,0,0,0,0,0,0,0,0,0,0,0,0,0,0,0,0,0,0,0,0,0,0,0,0,0,0,0,0,0,0,0,0,0,0,0,0,0,0,0,0,0,0,0,0,0,0,0,0,0,0,0,0,0,0,0,0,0,0,0,0,0,0,0,0,0,0,0,0,0,0,0,0,0,0,0,0,0,0,0,0,0,0,61,0,
0,61,0,0,0,0,0,0,0,0,0,0,0,0,0,0,0,0,0,0,0,0,0,0,0,0,0,0,0,0,0,0,0,0,0,0,0,0,0,0,0,0,0,0,0,0,0,0,0,0,0,0,0,0,0,0,0,0,0,0,0,0,0,0,0,0,0,0,0,0,0,0,0,0,0,0,0,0,0,0,0,0,0,0,0,0,0,0,0,0,0,0,0,0,0,0,0,0,0,0,0,0,0,0,0,0,0,0,0,0,0,0,0,0,0,0,0,0,0,0,0,0,0,0,0,0,61,0,
0,61,0,0,0,0,0,0,0,0,0,0,0,0,0,0,0,0,0,0,0,0,0,0,0,0,0,0,0,0,0,0,0,0,0,0,0,0,0,0,0,0,0,0,0,0,0,0,0,0,0,0,0,0,0,0,0,0,0,0,0,0,0,0,0,0,0,0,0,0,0,0,0,0,0,0,0,0,0,0,0,0,0,0,0,0,0,0,0,0,0,0,0,0,0,0,0,0,0,0,0,0,0,0,0,0,0,0,0,0,0,0,0,0,0,0,0,0,0,0,0,0,0,0,0,0,61,0,
0,61,0,0,0,0,0,0,0,0,0,0,0,0,0,0,0,0,0,0,0,0,0,0,0,0,0,0,0,0,0,0,0,0,0,0,0,0,0,0,0,0,0,0,0,0,0,0,0,0,0,0,0,0,0,0,0,0,0,0,0,0,0,0,0,0,0,0,0,0,0,0,0,0,0,0,0,0,0,0,0,0,0,0,0,0,0,0,0,0,0,0,0,0,0,0,0,0,0,0,0,0,0,0,0,0,0,0,0,0,0,0,0,0,0,0,0,0,0,0,0,0,0,0,0,0,61,0,
0,61,0,0,0,0,0,0,0,0,0,0,0,0,0,0,0,0,0,0,0,0,0,0,0,0,0,0,0,0,0,0,0,0,0,0,0,0,0,0,0,0,0,0,0,0,0,0,0,0,0,0,0,0,0,0,0,0,0,0,0,0,0,0,0,0,0,0,0,0,0,0,0,0,0,0,0,0,0,0,0,0,0,0,0,0,0,0,0,0,0,0,0,0,0,0,0,0,0,0,0,0,0,0,0,0,0,0,0,0,0,0,0,0,0,0,0,0,0,0,0,0,0,0,0,0,61,0,
0,61,0,0,0,0,0,0,0,0,0,0,0,0,0,0,0,0,0,0,0,0,0,0,0,0,0,0,0,0,0,0,0,0,0,0,0,0,0,0,0,0,0,0,0,0,0,0,0,0,0,0,0,0,0,0,0,0,0,0,0,0,0,0,0,0,0,0,0,0,0,0,0,0,0,0,0,0,0,0,0,0,0,0,0,0,0,0,0,0,0,0,0,0,0,0,0,0,0,0,0,0,0,0,0,0,0,0,0,0,0,0,0,0,0,0,0,0,0,0,0,0,0,0,0,0,61,0,
0,61,0,0,0,0,0,0,0,0,0,0,0,0,0,0,0,0,0,0,0,0,0,0,0,0,0,0,0,0,0,0,0,0,0,0,0,0,0,0,0,0,0,0,0,0,0,0,0,0,0,0,0,0,0,0,0,0,0,0,0,0,0,0,0,0,0,0,0,0,0,0,0,0,0,0,0,0,0,0,0,0,0,0,0,0,0,0,0,0,0,0,0,0,0,0,0,0,0,0,0,0,0,0,0,0,0,0,0,0,0,0,0,0,0,0,0,0,0,0,0,0,0,0,0,0,61,0,
0,61,0,0,0,0,0,0,0,0,0,0,0,0,0,0,0,0,0,0,0,0,0,0,0,0,0,0,0,0,0,0,0,0,0,0,0,0,0,0,0,0,0,0,0,0,0,0,0,0,0,0,0,0,0,0,0,0,0,0,0,0,0,0,0,0,0,0,0,0,0,0,0,0,0,0,0,0,0,0,0,0,0,0,0,0,0,0,0,0,0,0,0,0,0,0,0,0,0,0,0,0,0,0,0,0,0,0,0,0,0,0,0,0,0,0,0,0,0,0,0,0,0,0,0,0,61,0,
0,61,0,0,0,0,0,0,0,0,0,0,0,0,0,0,0,0,0,0,0,0,0,0,0,0,0,0,0,0,0,0,0,0,0,0,0,0,0,0,0,0,0,0,0,0,0,0,0,0,0,0,0,0,0,0,0,0,0,0,0,0,0,0,0,0,0,0,0,0,0,0,0,0,0,0,0,0,0,0,0,0,0,0,0,0,0,0,0,0,0,0,0,0,0,0,0,0,0,0,0,0,0,0,0,0,0,0,0,0,0,0,0,0,0,0,0,0,0,0,0,0,0,0,0,0,61,0,
0,61,0,0,0,0,0,0,0,0,0,0,0,0,0,0,0,0,0,0,0,0,0,0,0,0,0,0,0,0,0,0,0,0,0,0,0,0,0,0,0,0,0,0,0,0,0,0,0,0,0,0,0,0,0,0,0,0,0,0,0,0,0,0,0,0,0,0,0,0,0,0,0,0,0,0,0,0,0,0,0,0,0,0,0,0,0,0,0,0,0,0,0,0,0,0,0,0,0,0,0,0,0,0,0,0,0,0,0,0,0,0,0,0,0,0,0,0,0,0,0,0,0,0,0,0,61,0,
0,61,0,0,0,0,0,0,0,0,0,0,0,0,0,0,0,0,0,0,0,0,0,0,0,0,0,0,0,0,0,0,0,0,0,0,0,0,0,0,0,0,0,0,0,0,0,0,0,0,0,0,0,0,0,0,0,0,0,0,0,0,0,0,0,0,0,0,0,0,0,0,0,0,0,0,0,0,0,0,0,0,0,0,0,0,0,0,0,0,0,0,0,0,0,0,0,0,0,0,0,0,0,0,0,0,0,0,0,0,0,0,0,0,0,0,0,0,0,0,0,0,0,0,0,0,61,0,
0,61,0,0,0,0,0,0,0,0,0,0,0,0,0,0,0,0,0,0,0,0,0,0,0,0,0,0,0,0,0,0,0,0,0,0,0,0,0,0,0,0,0,0,0,0,0,0,0,0,0,0,0,0,0,0,0,0,0,0,0,0,0,0,0,0,0,0,0,0,0,0,0,0,0,0,0,0,0,0,0,0,0,0,0,0,0,0,0,0,0,0,0,0,0,0,0,0,0,0,0,0,0,0,0,0,0,0,0,0,0,0,0,0,0,0,0,0,0,0,0,0,0,0,0,0,61,0,
0,61,0,0,0,0,0,0,0,0,0,0,0,0,0,0,0,0,0,0,0,0,0,0,0,0,0,0,0,0,0,0,0,0,0,0,0,0,0,0,0,0,0,0,0,0,0,0,0,0,0,0,0,0,0,0,0,0,0,0,0,0,0,0,0,0,0,0,0,0,0,0,0,0,0,0,0,0,0,0,0,0,0,0,0,0,0,0,0,0,0,0,0,0,0,0,0,0,0,0,0,0,0,0,0,0,0,0,0,0,0,0,0,0,0,0,0,0,0,0,0,0,0,0,0,0,61,0,
0,61,0,0,0,0,0,0,0,0,0,0,0,0,0,0,0,0,0,0,0,0,0,0,0,0,0,0,0,0,0,0,0,0,0,0,0,0,0,0,0,0,0,0,0,0,0,0,0,0,0,0,0,0,0,0,0,0,0,0,0,0,0,0,0,0,0,0,0,0,0,0,0,0,0,0,0,0,0,0,0,0,0,0,0,0,0,0,0,0,0,0,0,0,0,0,0,0,0,0,0,0,0,0,0,0,0,0,0,0,0,0,0,0,0,0,0,0,0,0,0,0,0,0,0,0,61,0,
0,61,0,0,0,0,0,0,0,0,0,0,0,0,0,0,0,0,0,0,0,0,0,0,0,0,0,0,0,0,0,0,0,0,0,0,0,0,0,0,0,0,0,0,0,0,0,0,0,0,0,0,0,0,0,0,0,0,0,0,0,0,0,0,0,0,0,0,0,0,0,0,0,0,0,0,0,0,0,0,0,0,0,0,0,0,0,0,0,0,0,0,0,0,0,0,0,0,0,0,0,0,0,0,0,0,0,0,0,0,0,0,0,0,0,0,0,0,0,0,0,0,0,0,0,0,61,0,
0,61,0,0,0,0,0,0,0,0,0,0,0,0,0,0,0,0,0,0,0,0,0,0,0,0,0,0,0,0,0,0,0,0,0,0,0,0,0,0,0,0,0,0,0,0,0,0,0,0,0,0,0,0,0,0,0,0,0,0,0,0,0,0,0,0,0,0,0,0,0,0,0,0,0,0,0,0,0,0,0,0,0,0,0,0,0,0,0,0,0,0,0,0,0,0,0,0,0,0,0,0,0,0,0,0,0,0,0,0,0,0,0,0,0,0,0,0,0,0,0,0,0,0,0,0,61,0,
0,61,0,0,0,0,0,0,0,0,0,0,0,0,0,0,0,0,0,0,0,0,0,0,0,0,0,0,0,0,0,0,0,0,0,0,0,0,0,0,0,0,0,0,0,0,0,0,0,0,0,0,0,0,0,0,0,0,0,0,0,0,0,0,0,0,0,0,0,0,0,0,0,0,0,0,0,0,0,0,0,0,0,0,0,0,0,0,0,0,0,0,0,0,0,0,0,0,0,0,0,0,0,0,0,0,0,0,0,0,0,0,0,0,0,0,0,0,0,0,0,0,0,0,0,0,61,0,
0,61,0,0,0,0,0,0,0,0,0,0,0,0,0,0,0,0,0,0,0,0,0,0,0,0,0,0,0,0,0,0,0,0,0,0,0,0,0,0,0,0,0,0,0,0,0,0,0,0,0,0,0,0,0,0,0,0,0,0,0,0,0,0,0,0,0,0,0,0,0,0,0,0,0,0,0,0,0,0,0,0,0,0,0,0,0,0,0,0,0,0,0,0,0,0,0,0,0,0,0,0,0,0,0,0,0,0,0,0,0,0,0,0,0,0,0,0,0,0,0,0,0,0,0,0,61,0,
0,61,0,0,0,0,0,0,0,0,0,0,0,0,0,0,0,0,0,0,0,0,0,0,0,0,0,0,0,0,0,0,0,0,0,0,0,0,0,0,0,0,0,0,0,0,0,0,0,0,0,0,0,0,0,0,0,0,0,0,0,0,0,0,0,0,0,0,0,0,0,0,0,0,0,0,0,0,0,0,0,0,0,0,0,0,0,0,0,0,0,0,0,0,0,0,0,0,0,0,0,0,0,0,0,0,0,0,0,0,0,0,0,0,0,0,0,0,0,0,0,0,0,0,0,0,61,0,
0,61,0,0,0,0,0,0,0,0,0,0,0,0,0,0,0,0,0,0,0,0,0,0,0,0,0,0,0,0,0,0,0,0,0,0,0,0,0,0,0,0,0,0,0,0,0,0,0,0,0,0,0,0,0,0,0,0,0,0,0,0,0,0,0,0,0,0,0,0,0,0,0,0,0,0,0,0,0,0,0,0,0,0,0,0,0,0,0,0,0,0,0,0,0,0,0,0,0,0,0,0,0,0,0,0,0,0,0,0,0,0,0,0,0,0,0,0,0,0,0,0,0,0,0,0,61,0,
0,61,0,0,0,0,0,0,0,0,0,0,0,0,0,0,0,0,0,0,0,0,0,0,0,0,0,0,0,0,0,0,0,0,0,0,0,0,0,0,0,0,0,0,0,0,0,0,0,0,0,0,0,0,0,0,0,0,0,0,0,0,0,0,0,0,0,0,0,0,0,0,0,0,0,0,0,0,0,0,0,0,0,0,0,0,0,0,0,0,0,0,0,0,0,0,0,0,0,0,0,0,0,0,0,0,0,0,0,0,0,0,0,0,0,0,0,0,0,0,0,0,0,0,0,0,61,0,
0,61,0,0,0,0,0,0,0,0,0,0,0,0,0,0,0,0,0,0,0,0,0,0,0,0,0,0,0,0,0,0,0,0,0,0,0,0,0,0,0,0,0,0,0,0,0,0,0,0,0,0,0,0,0,0,0,0,0,0,0,0,0,0,0,0,0,0,0,0,0,0,0,0,0,0,0,0,0,0,0,0,0,0,0,0,0,0,0,0,0,0,0,0,0,0,0,0,0,0,0,0,0,0,0,0,0,0,0,0,0,0,0,0,0,0,0,0,0,0,0,0,0,0,0,0,61,0,
0,61,0,0,0,0,0,0,0,0,0,0,0,0,0,0,0,0,0,0,0,0,0,0,0,0,0,0,0,0,0,0,0,0,0,0,0,0,0,0,0,0,0,0,0,0,0,0,0,0,0,0,0,0,0,0,0,0,0,0,0,0,0,0,0,0,0,0,0,0,0,0,0,0,0,0,0,0,0,0,0,0,0,0,0,0,0,0,0,0,0,0,0,0,0,0,0,0,0,0,0,0,0,0,0,0,0,0,0,0,0,0,0,0,0,0,0,0,0,0,0,0,0,0,0,0,61,0,
0,61,0,0,0,0,0,0,0,0,0,0,0,0,0,0,0,0,0,0,0,0,0,0,0,0,0,0,0,0,0,0,0,0,0,0,0,0,0,0,0,0,0,0,0,0,0,0,0,0,0,0,0,0,0,0,0,0,0,0,0,0,0,0,0,0,0,0,0,0,0,0,0,0,0,0,0,0,0,0,0,0,0,0,0,0,0,0,0,0,0,0,0,0,0,0,0,0,0,0,0,0,0,0,0,0,0,0,0,0,0,0,0,0,0,0,0,0,0,0,0,0,0,0,0,0,61,0,
0,61,0,0,0,0,0,0,0,0,0,0,0,0,0,0,0,0,0,0,0,0,0,0,0,0,0,0,0,0,0,0,0,0,0,0,0,0,0,0,0,0,0,0,0,0,0,0,0,0,0,0,0,0,0,0,0,0,0,0,0,0,0,0,0,0,0,0,0,0,0,0,0,0,0,0,0,0,0,0,0,0,0,0,0,0,0,0,0,0,0,0,0,0,0,0,0,0,0,0,0,0,0,0,0,0,0,0,0,0,0,0,0,0,0,0,0,0,0,0,0,0,0,0,0,0,61,0,
0,61,0,0,0,0,0,0,0,0,0,0,0,0,0,0,0,0,0,0,0,0,0,0,0,0,0,0,0,0,0,0,0,0,0,0,0,0,0,0,0,0,0,0,0,0,0,0,0,0,0,0,0,0,0,0,0,0,0,0,0,0,0,0,0,0,0,0,0,0,0,0,0,0,0,0,0,0,0,0,0,0,0,0,0,0,0,0,0,0,0,0,0,0,0,0,0,0,0,0,0,0,0,0,0,0,0,0,0,0,0,0,0,0,0,0,0,0,0,0,0,0,0,0,0,0,61,0,
0,61,0,0,0,0,0,0,0,0,0,0,0,0,0,0,0,0,0,0,0,0,0,0,0,0,0,0,0,0,0,0,0,0,0,0,0,0,0,0,0,0,0,0,0,0,0,0,0,0,0,0,0,0,0,0,0,0,0,0,0,0,0,0,0,0,0,0,0,0,0,0,0,0,0,0,0,0,0,0,0,0,0,0,0,0,0,0,0,0,0,0,0,0,0,0,0,0,0,0,0,0,0,0,0,0,0,0,0,0,0,0,0,0,0,0,0,0,0,0,0,0,0,0,0,0,61,0,
0,61,0,0,0,0,0,0,0,0,0,0,0,0,0,0,0,0,0,0,0,0,0,0,0,0,0,0,0,0,0,0,0,0,0,0,0,0,0,0,0,0,0,0,0,0,0,0,0,0,0,0,0,0,0,0,0,0,0,0,0,0,0,0,0,0,0,0,0,0,0,0,0,0,0,0,0,0,0,0,0,0,0,0,0,0,0,0,0,0,0,0,0,0,0,0,0,0,0,0,0,0,0,0,0,0,0,0,0,0,0,0,0,0,0,0,0,0,0,0,0,0,0,0,0,0,61,0,
0,61,0,0,0,0,0,0,0,0,0,0,0,0,0,0,0,0,0,0,0,0,0,0,0,0,0,0,0,0,0,0,0,0,0,0,0,0,0,0,0,0,0,0,0,0,0,0,0,0,0,0,0,0,0,0,0,0,0,0,0,0,0,0,0,0,0,0,0,0,0,0,0,0,0,0,0,0,0,0,0,0,0,0,0,0,0,0,0,0,0,0,0,0,0,0,0,0,0,0,0,0,0,0,0,0,0,0,0,0,0,0,0,0,0,0,0,0,0,0,0,0,0,0,0,0,61,0,
0,61,0,0,0,0,0,0,0,0,0,0,0,0,0,0,0,0,0,0,0,0,0,0,0,0,0,0,0,0,0,0,0,0,0,0,0,0,0,0,0,0,0,0,0,0,0,0,0,0,0,0,0,0,0,0,0,0,0,0,0,0,0,0,0,0,0,0,0,0,0,0,0,0,0,0,0,0,0,0,0,0,0,0,0,0,0,0,0,0,0,0,0,0,0,0,0,0,0,0,0,0,0,0,0,0,0,0,0,0,0,0,0,0,0,0,0,0,0,0,0,0,0,0,0,0,61,0,
0,61,0,0,0,0,0,0,0,0,0,0,0,0,0,0,0,0,0,0,0,0,0,0,0,0,0,0,0,0,0,0,0,0,0,0,0,0,0,0,0,0,0,0,0,0,0,0,0,0,0,0,0,0,0,0,0,0,0,0,0,0,0,0,0,0,0,0,0,0,0,0,0,0,0,0,0,0,0,0,0,0,0,0,0,0,0,0,0,0,0,0,0,0,0,0,0,0,0,0,0,0,0,0,0,0,0,0,0,0,0,0,0,0,0,0,0,0,0,0,0,0,0,0,0,0,61,0,
0,61,0,0,0,0,0,0,0,0,0,0,0,0,0,0,0,0,0,0,0,0,0,0,0,0,0,0,0,0,0,0,0,0,0,0,0,0,0,0,0,0,0,0,0,0,0,0,0,0,0,0,0,0,0,0,0,0,0,0,0,0,0,0,0,0,0,0,0,0,0,0,0,0,0,0,0,0,0,0,0,0,0,0,0,0,0,0,0,0,0,0,0,0,0,0,0,0,0,0,0,0,0,0,0,0,0,0,0,0,0,0,0,0,0,0,0,0,0,0,0,0,0,0,0,0,61,0,
0,61,0,0,0,0,0,0,0,0,0,0,0,0,0,0,0,0,0,0,0,0,0,0,0,0,0,0,0,0,0,0,0,0,0,0,0,0,0,0,0,0,0,0,0,0,0,0,0,0,0,0,0,0,0,0,0,0,0,0,0,0,0,0,0,0,0,0,0,0,0,0,0,0,0,0,0,0,0,0,0,0,0,0,0,0,0,0,0,0,0,0,0,0,0,0,0,0,0,0,0,0,0,0,0,0,0,0,0,0,0,0,0,0,0,0,0,0,0,0,0,0,0,0,0,0,61,0,
0,61,0,0,0,0,0,0,0,0,0,0,0,0,0,0,0,0,0,0,0,0,0,0,0,0,0,0,0,0,0,0,0,0,0,0,0,0,0,0,0,0,0,0,0,0,0,0,0,0,0,0,0,0,0,0,0,0,0,0,0,0,0,0,0,0,0,0,0,0,0,0,0,0,0,0,0,0,0,0,0,0,0,0,0,0,0,0,0,0,0,0,0,0,0,0,0,0,0,0,0,0,0,0,0,0,0,0,0,0,0,0,0,0,0,0,0,0,0,0,0,0,0,0,0,0,61,0,
0,61,0,0,0,0,0,0,0,0,0,0,0,0,0,0,0,0,0,0,0,0,0,0,0,0,0,0,0,0,0,0,0,0,0,0,0,0,0,0,0,0,0,0,0,0,0,0,0,0,0,0,0,0,0,0,0,0,0,0,0,0,0,0,0,0,0,0,0,0,0,0,0,0,0,0,0,0,0,0,0,0,0,0,0,0,0,0,0,0,0,0,0,0,0,0,0,0,0,0,0,0,0,0,0,0,0,0,0,0,0,0,0,0,0,0,0,0,0,0,0,0,0,0,0,0,61,0,
0,61,0,0,0,0,0,0,0,0,0,0,0,0,0,0,0,0,0,0,0,0,0,0,0,0,0,0,0,0,0,0,0,0,0,0,0,0,0,0,0,0,0,0,0,0,0,0,0,0,0,0,0,0,0,0,0,0,0,0,0,0,0,0,0,0,0,0,0,0,0,0,0,0,0,0,0,0,0,0,0,0,0,0,0,0,0,0,0,0,0,0,0,0,0,0,0,0,0,0,0,0,0,0,0,0,0,0,0,0,0,0,0,0,0,0,0,0,0,0,0,0,0,0,0,0,61,0,
0,61,0,0,0,0,0,0,0,0,0,0,0,0,0,0,0,0,0,0,0,0,0,0,0,0,0,0,0,0,0,0,0,0,0,0,0,0,0,0,0,0,0,0,0,0,0,0,0,0,0,0,0,0,0,0,0,0,0,0,0,0,0,0,0,0,0,0,0,0,0,0,0,0,0,0,0,0,0,0,0,0,0,0,0,0,0,0,0,0,0,0,0,0,0,0,0,0,0,0,0,0,0,0,0,0,0,0,0,0,0,0,0,0,0,0,0,0,0,0,0,0,0,0,0,0,61,0,
0,61,0,0,0,0,0,0,0,0,0,0,0,0,0,0,0,0,0,0,0,0,0,0,0,0,0,0,0,0,0,0,0,0,0,0,0,0,0,0,0,0,0,0,0,0,0,0,0,0,0,0,0,0,0,0,0,0,0,0,0,0,0,0,0,0,0,0,0,0,0,0,0,0,0,0,0,0,0,0,0,0,0,0,0,0,0,0,0,0,0,0,0,0,0,0,0,0,0,0,0,0,0,0,0,0,0,0,0,0,0,0,0,0,0,0,0,0,0,0,0,0,0,0,0,0,61,0,
0,61,0,0,0,0,0,0,0,0,0,0,0,0,0,0,0,0,0,0,0,0,0,0,0,0,0,0,0,0,0,0,0,0,0,0,0,0,0,0,0,0,0,0,0,0,0,0,0,0,0,0,0,0,0,0,0,0,0,0,0,0,0,0,0,0,0,0,0,0,0,0,0,0,0,0,0,0,0,0,0,0,0,0,0,0,0,0,0,0,0,0,0,0,0,0,0,0,0,0,0,0,0,0,0,0,0,0,0,0,0,0,0,0,0,0,0,0,0,0,0,0,0,0,0,0,61,0,
0,61,0,0,0,0,0,0,0,0,0,0,0,0,0,0,0,0,0,0,0,0,0,0,0,0,0,0,0,0,0,0,0,0,0,0,0,0,0,0,0,0,0,0,0,0,0,0,0,0,0,0,0,0,0,0,0,0,0,0,0,0,0,0,0,0,0,0,0,0,0,0,0,0,0,0,0,0,0,0,0,0,0,0,0,0,0,0,0,0,0,0,0,0,0,0,0,0,0,0,0,0,0,0,0,0,0,0,0,0,0,0,0,0,0,0,0,0,0,0,0,0,0,0,0,0,61,0,
0,61,0,0,0,0,0,0,0,0,0,0,0,0,0,0,0,0,0,0,0,0,0,0,0,0,0,0,0,0,0,0,0,0,0,0,0,0,0,0,0,0,0,0,0,0,0,0,0,0,0,0,0,0,0,0,0,0,0,0,0,0,0,0,0,0,0,0,0,0,0,0,0,0,0,0,0,0,0,0,0,0,0,0,0,0,0,0,0,0,0,0,0,0,0,0,0,0,0,0,0,0,0,0,0,0,0,0,0,0,0,0,0,0,0,0,0,0,0,0,0,0,0,0,0,0,61,0,
0,61,0,0,0,0,0,0,0,0,0,0,0,0,0,0,0,0,0,0,0,0,0,0,0,0,0,0,0,0,0,0,0,0,0,0,0,0,0,0,0,0,0,0,0,0,0,0,0,0,0,0,0,0,0,0,0,0,0,0,0,0,0,0,0,0,0,0,0,0,0,0,0,0,0,0,0,0,0,0,0,0,0,0,0,0,0,0,0,0,0,0,0,0,0,0,0,0,0,0,0,0,0,0,0,0,0,0,0,0,0,0,0,0,0,0,0,0,0,0,0,0,0,0,0,0,61,0,
0,61,0,0,0,0,0,0,0,0,0,0,0,0,0,0,0,0,0,0,0,0,0,0,0,0,0,0,0,0,0,0,0,0,0,0,0,0,0,0,0,0,0,0,0,0,0,0,0,0,0,0,0,0,0,0,0,0,0,0,0,0,0,0,0,0,0,0,0,0,0,0,0,0,0,0,0,0,0,0,0,0,0,0,0,0,0,0,0,0,0,0,0,0,0,0,0,0,0,0,0,0,0,0,0,0,0,0,0,0,0,0,0,0,0,0,0,0,0,0,0,0,0,0,0,0,61,0,
0,61,0,0,0,0,0,0,0,0,0,0,0,0,0,0,0,0,0,0,0,0,0,0,0,0,0,0,0,0,0,0,0,0,0,0,0,0,0,0,0,0,0,0,0,0,0,0,0,0,0,0,0,0,0,0,0,0,0,0,0,0,0,0,0,0,0,0,0,0,0,0,0,0,0,0,0,0,0,0,0,0,0,0,0,0,0,0,0,0,0,0,0,0,0,0,0,0,0,0,0,0,0,0,0,0,0,0,0,0,0,0,0,0,0,0,0,0,0,0,0,0,0,0,0,0,61,0,
0,61,0,0,0,0,0,0,0,0,0,0,0,0,0,0,0,0,0,0,0,0,0,0,0,0,0,0,0,0,0,0,0,0,0,0,0,0,0,0,0,0,0,0,0,0,0,0,0,0,0,0,0,0,0,0,0,0,0,0,0,0,0,0,0,0,0,0,0,0,0,0,0,0,0,0,0,0,0,0,0,0,0,0,0,0,0,0,0,0,0,0,0,0,0,0,0,0,0,0,0,0,0,0,0,0,0,0,0,0,0,0,0,0,0,0,0,0,0,0,0,0,0,0,0,0,61,0,
0,61,0,0,0,0,0,0,0,0,0,0,0,0,0,0,0,0,0,0,0,0,0,0,0,0,0,0,0,0,0,0,0,0,0,0,0,0,0,0,0,0,0,0,0,0,0,0,0,0,0,0,0,0,0,0,0,0,0,0,0,0,0,0,0,0,0,0,0,0,0,0,0,0,0,0,0,0,0,0,0,0,0,0,0,0,0,0,0,0,0,0,0,0,0,0,0,0,0,0,0,0,0,0,0,0,0,0,0,0,0,0,0,0,0,0,0,0,0,0,0,0,0,0,0,0,61,0,
0,61,0,0,0,0,0,0,0,0,0,0,0,0,0,0,0,0,0,0,0,0,0,0,0,0,0,0,0,0,0,0,0,0,0,0,0,0,0,0,0,0,0,0,0,0,0,0,0,0,0,0,0,0,0,0,0,0,0,0,0,0,0,0,0,0,0,0,0,0,0,0,0,0,0,0,0,0,0,0,0,0,0,0,0,0,0,0,0,0,0,0,0,0,0,0,0,0,0,0,0,0,0,0,0,0,0,0,0,0,0,0,0,0,0,0,0,0,0,0,0,0,0,0,0,0,61,0,
0,61,0,0,0,0,0,0,0,0,0,0,0,0,0,0,0,0,0,0,0,0,0,0,0,0,0,0,0,0,0,0,0,0,0,0,0,0,0,0,0,0,0,0,0,0,0,0,0,0,0,0,0,0,0,0,0,0,0,0,0,0,0,0,0,0,0,0,0,0,0,0,0,0,0,0,0,0,0,0,0,0,0,0,0,0,0,0,0,0,0,0,0,0,0,0,0,0,0,0,0,0,0,0,0,0,0,0,0,0,0,0,0,0,0,0,0,0,0,0,0,0,0,0,0,0,61,0,
0,61,0,0,0,0,0,0,0,0,0,0,0,0,0,0,0,0,0,0,0,0,0,0,0,0,0,0,0,0,0,0,0,0,0,0,0,0,0,0,0,0,0,0,0,0,0,0,0,0,0,0,0,0,0,0,0,0,0,0,0,0,0,0,0,0,0,0,0,0,0,0,0,0,0,0,0,0,0,0,0,0,0,0,0,0,0,0,0,0,0,0,0,0,0,0,0,0,0,0,0,0,0,0,0,0,0,0,0,0,0,0,0,0,0,0,0,0,0,0,0,0,0,0,0,0,61,0,
0,61,0,0,0,0,0,0,0,0,0,0,0,0,0,0,0,0,0,0,0,0,0,0,0,0,0,0,0,0,0,0,0,0,0,0,0,0,0,0,0,0,0,0,0,0,0,0,0,0,0,0,0,0,0,0,0,0,0,0,0,0,0,0,0,0,0,0,0,0,0,0,0,0,0,0,0,0,0,0,0,0,0,0,0,0,0,0,0,0,0,0,0,0,0,0,0,0,0,0,0,0,0,0,0,0,0,0,0,0,0,0,0,0,0,0,0,0,0,0,0,0,0,0,0,0,61,0,
0,61,0,0,0,0,0,0,0,0,0,0,0,0,0,0,0,0,0,0,0,0,0,0,0,0,0,0,0,0,0,0,0,0,0,0,0,0,0,0,0,0,0,0,0,0,0,0,0,0,0,0,0,0,0,0,0,0,0,0,0,0,0,0,0,0,0,0,0,0,0,0,0,0,0,0,0,0,0,0,0,0,0,0,0,0,0,0,0,0,0,0,0,0,0,0,0,0,0,0,0,0,0,0,0,0,0,0,0,0,0,0,0,0,0,0,0,0,0,0,0,0,0,0,0,0,61,0,
0,61,0,0,0,0,0,0,0,0,0,0,0,0,0,0,0,0,0,0,0,0,0,0,0,0,0,0,0,0,0,0,0,0,0,0,0,0,0,0,0,0,0,0,0,0,0,0,0,0,0,0,0,0,0,0,0,0,0,0,0,0,0,0,0,0,0,0,0,0,0,0,0,0,0,0,0,0,0,0,0,0,0,0,0,0,0,0,0,0,0,0,0,0,0,0,0,0,0,0,0,0,0,0,0,0,0,0,0,0,0,0,0,0,0,0,0,0,0,0,0,0,0,0,0,0,61,0,
0,61,0,0,0,0,0,0,0,0,0,0,0,0,0,0,0,0,0,0,0,0,0,0,0,0,0,0,0,0,0,0,0,0,0,0,0,0,0,0,0,0,0,0,0,0,0,0,0,0,0,0,0,0,0,0,0,0,0,0,0,0,0,0,0,0,0,0,0,0,0,0,0,0,0,0,0,0,0,0,0,0,0,0,0,0,0,0,0,0,0,0,0,0,0,0,0,0,0,0,0,0,0,0,0,0,0,0,0,0,0,0,0,0,0,0,0,0,0,0,0,0,0,0,0,0,61,0,
0,61,0,0,0,0,0,0,0,0,0,0,0,0,0,0,0,0,0,0,0,0,0,0,0,0,0,0,0,0,0,0,0,0,0,0,0,0,0,0,0,0,0,0,0,0,0,0,0,0,0,0,0,0,0,0,0,0,0,0,0,0,0,0,0,0,0,0,0,0,0,0,0,0,0,0,0,0,0,0,0,0,0,0,0,0,0,0,0,0,0,0,0,0,0,0,0,0,0,0,0,0,0,0,0,0,0,0,0,0,0,0,0,0,0,0,0,0,0,0,0,0,0,0,0,0,61,0,
0,61,0,0,0,0,0,0,0,0,0,0,0,0,0,0,0,0,0,0,0,0,0,0,0,0,0,0,0,0,0,0,0,0,0,0,0,0,0,0,0,0,0,0,0,0,0,0,0,0,0,0,0,0,0,0,0,0,0,0,0,0,0,0,0,0,0,0,0,0,0,0,0,0,0,0,0,0,0,0,0,0,0,0,0,0,0,0,0,0,0,0,0,0,0,0,0,0,0,0,0,0,0,0,0,0,0,0,0,0,0,0,0,0,0,0,0,0,0,0,0,0,0,0,0,0,61,0,
0,61,0,0,0,0,0,0,0,0,0,0,0,0,0,0,0,0,0,0,0,0,0,0,0,0,0,0,0,0,0,0,0,0,0,0,0,0,0,0,0,0,0,0,0,0,0,0,0,0,0,0,0,0,0,0,0,0,0,0,0,0,0,0,0,0,0,0,0,0,0,0,0,0,0,0,0,0,0,0,0,0,0,0,0,0,0,0,0,0,0,0,0,0,0,0,0,0,0,0,0,0,0,0,0,0,0,0,0,0,0,0,0,0,0,0,0,0,0,0,0,0,0,0,0,0,61,0,
0,61,0,0,0,0,0,0,0,0,0,0,0,0,0,0,0,0,0,0,0,0,0,0,0,0,0,0,0,0,0,0,0,0,0,0,0,0,0,0,0,0,0,0,0,0,0,0,0,0,0,0,0,0,0,0,0,0,0,0,0,0,0,0,0,0,0,0,0,0,0,0,0,0,0,0,0,0,0,0,0,0,0,0,0,0,0,0,0,0,0,0,0,0,0,0,0,0,0,0,0,0,0,0,0,0,0,0,0,0,0,0,0,0,0,0,0,0,0,0,0,0,0,0,0,0,61,0,
0,61,0,0,0,0,0,0,0,0,0,0,0,0,0,0,0,0,0,0,0,0,0,0,0,0,0,0,0,0,0,0,0,0,0,0,0,0,0,0,0,0,0,0,0,0,0,0,0,0,0,0,0,0,0,0,0,0,0,0,0,0,0,0,0,0,0,0,0,0,0,0,0,0,0,0,0,0,0,0,0,0,0,0,0,0,0,0,0,0,0,0,0,0,0,0,0,0,0,0,0,0,0,0,0,0,0,0,0,0,0,0,0,0,0,0,0,0,0,0,0,0,0,0,0,0,61,0,
0,61,0,0,0,0,0,0,0,0,0,0,0,0,0,0,0,0,0,0,0,0,0,0,0,0,0,0,0,0,0,0,0,0,0,0,0,0,0,0,0,0,0,0,0,0,0,0,0,0,0,0,0,0,0,0,0,0,0,0,0,0,0,0,0,0,0,0,0,0,0,0,0,0,0,0,0,0,0,0,0,0,0,0,0,0,0,0,0,0,0,0,0,0,0,0,0,0,0,0,0,0,0,0,0,0,0,0,0,0,0,0,0,0,0,0,0,0,0,0,0,0,0,0,0,0,61,0,
0,61,0,0,0,0,0,0,0,0,0,0,0,0,0,0,0,0,0,0,0,0,0,0,0,0,0,0,0,0,0,0,0,0,0,0,0,0,0,0,0,0,0,0,0,0,0,0,0,0,0,0,0,0,0,0,0,0,0,0,0,0,0,0,0,0,0,0,0,0,0,0,0,0,0,0,0,0,0,0,0,0,0,0,0,0,0,0,0,0,0,0,0,0,0,0,0,0,0,0,0,0,0,0,0,0,0,0,0,0,0,0,0,0,0,0,0,0,0,0,0,0,0,0,0,0,61,0,
0,61,0,0,0,0,0,0,0,0,0,0,0,0,0,0,0,0,0,0,0,0,0,0,0,0,0,0,0,0,0,0,0,0,0,0,0,0,0,0,0,0,0,0,0,0,0,0,0,0,0,0,0,0,0,0,0,0,0,0,0,0,0,0,0,0,0,0,0,0,0,0,0,0,0,0,0,0,0,0,0,0,0,0,0,0,0,0,0,0,0,0,0,0,0,0,0,0,0,0,0,0,0,0,0,0,0,0,0,0,0,0,0,0,0,0,0,0,0,0,0,0,0,0,0,0,61,0,
0,61,0,0,0,0,0,0,0,0,0,0,0,0,0,0,0,0,0,0,0,0,0,0,0,0,0,0,0,0,0,0,0,0,0,0,0,0,0,0,0,0,0,0,0,0,0,0,0,0,0,0,0,0,0,0,0,0,0,0,0,0,0,0,0,0,0,0,0,0,0,0,0,0,0,0,0,0,0,0,0,0,0,0,0,0,0,0,0,0,0,0,0,0,0,0,0,0,0,0,0,0,0,0,0,0,0,0,0,0,0,0,0,0,0,0,0,0,0,0,0,0,0,0,0,0,61,0,
0,61,0,0,0,0,0,0,0,0,0,0,0,0,0,0,0,0,0,0,0,0,0,0,0,0,0,0,0,0,0,0,0,0,0,0,0,0,0,0,0,0,0,0,0,0,0,0,0,0,0,0,0,0,0,0,0,0,0,0,0,0,0,0,0,0,0,0,0,0,0,0,0,0,0,0,0,0,0,0,0,0,0,0,0,0,0,0,0,0,0,0,0,0,0,0,0,0,0,0,0,0,0,0,0,0,0,0,0,0,0,0,0,0,0,0,0,0,0,0,0,0,0,0,0,0,61,0,
0,61,0,0,0,0,0,0,0,0,0,0,0,0,0,0,0,0,0,0,0,0,0,0,0,0,0,0,0,0,0,0,0,0,0,0,0,0,0,0,0,0,0,0,0,0,0,0,0,0,0,0,0,0,0,0,0,0,0,0,0,0,0,0,0,0,0,0,0,0,0,0,0,0,0,0,0,0,0,0,0,0,0,0,0,0,0,0,0,0,0,0,0,0,0,0,0,0,0,0,0,0,0,0,0,0,0,0,0,0,0,0,0,0,0,0,0,0,0,0,0,0,0,0,0,0,61,0,
0,61,0,0,0,0,0,0,0,0,0,0,0,0,0,0,0,0,0,0,0,0,0,0,0,0,0,0,0,0,0,0,0,0,0,0,0,0,0,0,0,0,0,0,0,0,0,0,0,0,0,0,0,0,0,0,0,0,0,0,0,0,0,0,0,0,0,0,0,0,0,0,0,0,0,0,0,0,0,0,0,0,0,0,0,0,0,0,0,0,0,0,0,0,0,0,0,0,0,0,0,0,0,0,0,0,0,0,0,0,0,0,0,0,0,0,0,0,0,0,0,0,0,0,0,0,61,0,
0,61,0,0,0,0,0,0,0,0,0,0,0,0,0,0,0,0,0,0,0,0,0,0,0,0,0,0,0,0,0,0,0,0,0,0,0,0,0,0,0,0,0,0,0,0,0,0,0,0,0,0,0,0,0,0,0,0,0,0,0,0,0,0,0,0,0,0,0,0,0,0,0,0,0,0,0,0,0,0,0,0,0,0,0,0,0,0,0,0,0,0,0,0,0,0,0,0,0,0,0,0,0,0,0,0,0,0,0,0,0,0,0,0,0,0,0,0,0,0,0,0,0,0,0,0,61,0,
0,61,0,0,0,0,0,0,0,0,0,0,0,0,0,0,0,0,0,0,0,0,0,0,0,0,0,0,0,0,0,0,0,0,0,0,0,0,0,0,0,0,0,0,0,0,0,0,0,0,0,0,0,0,0,0,0,0,0,0,0,0,0,0,0,0,0,0,0,0,0,0,0,0,0,0,0,0,0,0,0,0,0,0,0,0,0,0,0,0,0,0,0,0,0,0,0,0,0,0,0,0,0,0,0,0,0,0,0,0,0,0,0,0,0,0,0,0,0,0,0,0,0,0,0,0,61,0,
0,61,0,0,0,0,0,0,0,0,0,0,0,0,0,0,0,0,0,0,0,0,0,0,0,0,0,0,0,0,0,0,0,0,0,0,0,0,0,0,0,0,0,0,0,0,0,0,0,0,0,0,0,0,0,0,0,0,0,0,0,0,0,0,0,0,0,0,0,0,0,0,0,0,0,0,0,0,0,0,0,0,0,0,0,0,0,0,0,0,0,0,0,0,0,0,0,0,0,0,0,0,0,0,0,0,0,0,0,0,0,0,0,0,0,0,0,0,0,0,0,0,0,0,0,0,61,0,
0,61,0,0,0,0,0,0,0,0,0,0,0,0,0,0,0,0,0,0,0,0,0,0,0,0,0,0,0,0,0,0,0,0,0,0,0,0,0,0,0,0,0,0,0,0,0,0,0,0,0,0,0,0,0,0,0,0,0,0,0,0,0,0,0,0,0,0,0,0,0,0,0,0,0,0,0,0,0,0,0,0,0,0,0,0,0,0,0,0,0,0,0,0,0,0,0,0,0,0,0,0,0,0,0,0,0,0,0,0,0,0,0,0,0,0,0,0,0,0,0,0,0,0,0,0,61,0,
0,61,0,0,0,0,0,0,0,0,0,0,0,0,0,0,0,0,0,0,0,0,0,0,0,0,0,0,0,0,0,0,0,0,0,0,0,0,0,0,0,0,0,0,0,0,0,0,0,0,0,0,0,0,0,0,0,0,0,0,0,0,0,0,0,0,0,0,0,0,0,0,0,0,0,0,0,0,0,0,0,0,0,0,0,0,0,0,0,0,0,0,0,0,0,0,0,0,0,0,0,0,0,0,0,0,0,0,0,0,0,0,0,0,0,0,0,0,0,0,0,0,0,0,0,0,61,0,
0,61,0,0,0,0,0,0,0,0,0,0,0,0,0,0,0,0,0,0,0,0,0,0,0,0,0,0,0,0,0,0,0,0,0,0,0,0,0,0,0,0,0,0,0,0,0,0,0,0,0,0,0,0,0,0,0,0,0,0,0,0,0,0,0,0,0,0,0,0,0,0,0,0,0,0,0,0,0,0,0,0,0,0,0,0,0,0,0,0,0,0,0,0,0,0,0,0,0,0,0,0,0,0,0,0,0,0,0,0,0,0,0,0,0,0,0,0,0,0,0,0,0,0,0,0,61,0,
0,61,0,0,0,0,0,0,0,0,0,0,0,0,0,0,0,0,0,0,0,0,0,0,0,0,0,0,0,0,0,0,0,0,0,0,0,0,0,0,0,0,0,0,0,0,0,0,0,0,0,0,0,0,0,0,0,0,0,0,0,0,0,0,0,0,0,0,0,0,0,0,0,0,0,0,0,0,0,0,0,0,0,0,0,0,0,0,0,0,0,0,0,0,0,0,0,0,0,0,0,0,0,0,0,0,0,0,0,0,0,0,0,0,0,0,0,0,0,0,0,0,0,0,0,0,61,0,
0,61,0,0,0,0,0,0,0,0,0,0,0,0,0,0,0,0,0,0,0,0,0,0,0,0,0,0,0,0,0,0,0,0,0,0,0,0,0,0,0,0,0,0,0,0,0,0,0,0,0,0,0,0,0,0,0,0,0,0,0,0,0,0,0,0,0,0,0,0,0,0,0,0,0,0,0,0,0,0,0,0,0,0,0,0,0,0,0,0,0,0,0,0,0,0,0,0,0,0,0,0,0,0,0,0,0,0,0,0,0,0,0,0,0,0,0,0,0,0,0,0,0,0,0,0,61,0,
0,61,0,0,0,0,0,0,0,0,0,0,0,0,0,0,0,0,0,0,0,0,0,0,0,0,0,0,0,0,0,0,0,0,0,0,0,0,0,0,0,0,0,0,0,0,0,0,0,0,0,0,0,0,0,0,0,0,0,0,0,0,0,0,0,0,0,0,0,0,0,0,0,0,0,0,0,0,0,0,0,0,0,0,0,0,0,0,0,0,0,0,0,0,0,0,0,0,0,0,0,0,0,0,0,0,0,0,0,0,0,0,0,0,0,0,0,0,0,0,0,0,0,0,0,0,61,0,
0,61,0,0,0,0,0,0,0,0,0,0,0,0,0,0,0,0,0,0,0,0,0,0,0,0,0,0,0,0,0,0,0,0,0,0,0,0,0,0,0,0,0,0,0,0,0,0,0,0,0,0,0,0,0,0,0,0,0,0,0,0,0,0,0,0,0,0,0,0,0,0,0,0,0,0,0,0,0,0,0,0,0,0,0,0,0,0,0,0,0,0,0,0,0,0,0,0,0,0,0,0,0,0,0,0,0,0,0,0,0,0,0,0,0,0,0,0,0,0,0,0,0,0,0,0,61,0,
0,61,0,0,0,0,0,0,0,0,0,0,0,0,0,0,0,0,0,0,0,0,0,0,0,0,0,0,0,0,0,0,0,0,0,0,0,0,0,0,0,0,0,0,0,0,0,0,0,0,0,0,0,0,0,0,0,0,0,0,0,0,0,0,0,0,0,0,0,0,0,0,0,0,0,0,0,0,0,0,0,0,0,0,0,0,0,0,0,0,0,0,0,0,0,0,0,0,0,0,0,0,0,0,0,0,0,0,0,0,0,0,0,0,0,0,0,0,0,0,0,0,0,0,0,0,61,0,
0,61,61,61,61,61,61,61,61,61,61,61,61,61,61,61,61,61,61,61,61,61,61,61,61,61,61,61,61,61,61,61,61,61,61,61,61,61,61,61,61,61,61,61,61,61,61,61,61,61,61,61,61,61,61,61,61,61,61,61,61,61,61,61,61,61,61,61,61,61,61,61,61,61,61,61,61,61,61,61,61,61,61,61,61,61,61,61,61,61,61,61,61,61,61,61,61,61,61,61,61,61,61,61,61,61,61,61,61,61,61,61,61,61,61,61,61,61,61,61,61,61,61,61,61,61,61,0,
0,0,0,0,0,0,0,0,0,0,0,0,0,0,0,0,0,0,0,0,0,0,0,0,0,0,0,0,0,0,0,0,0,0,0,0,0,0,0,0,0,0,0,0,0,0,0,0,0,0,0,0,0,0,0,0,0,0,0,0,0,0,0,0,0,0,0,0,0,0,0,0,0,0,0,0,0,0,0,0,0,0,0,0,0,0,0,0,0,0,0,0,0,0,0,0,0,0,0,0,0,0,0,0,0,0,0,0,0,0,0,0,0,0,0,0,0,0,0,0,0,0,0,0,0,0,0,0
</data>
 </layer>
 <layer id="1" name="GRASS BORDER" width="128" height="128">
  <data encoding="csv">
41,41,41,41,41,41,41,41,41,41,41,41,41,41,41,41,41,41,41,41,41,41,41,41,41,41,41,41,41,41,41,41,41,41,41,41,41,41,41,41,41,41,41,41,41,41,41,41,41,41,41,41,41,41,41,41,41,41,41,41,41,41,41,41,41,41,41,41,41,41,41,41,41,41,41,41,41,41,41,41,41,41,41,41,41,41,41,41,41,41,41,41,41,41,41,41,41,41,41,41,41,41,41,41,41,41,41,41,41,41,41,41,41,41,41,41,41,41,41,41,41,41,41,41,41,41,41,41,
41,41,41,41,41,41,41,41,41,41,41,41,41,41,41,41,41,41,41,41,41,41,41,41,41,41,41,41,41,41,41,41,41,41,41,41,41,41,41,41,41,41,41,41,41,41,41,41,41,41,41,41,41,41,41,41,41,41,41,41,41,41,41,41,41,41,41,41,41,41,41,41,41,41,41,41,41,41,41,41,41,41,41,41,41,41,41,41,41,41,41,41,41,41,41,41,41,41,41,41,41,41,41,41,41,41,41,41,41,41,41,41,41,41,41,41,41,41,41,41,41,41,41,41,41,41,41,41,
41,41,0,0,0,0,0,0,0,0,0,0,0,0,0,0,0,0,0,0,0,0,0,0,0,0,0,0,0,0,0,0,0,0,0,0,0,0,0,0,0,0,0,0,0,0,0,0,0,0,0,0,0,0,0,0,0,0,0,0,0,0,0,0,0,0,0,0,0,0,0,0,0,0,0,0,0,0,0,0,0,0,0,0,0,0,0,0,0,0,0,0,0,0,0,0,0,0,0,0,0,0,0,0,0,0,0,0,0,0,0,0,0,0,0,0,0,0,0,0,0,0,0,0,0,0,41,41,
41,41,0,0,0,0,0,0,0,0,0,0,0,0,0,0,0,0,0,0,0,0,0,0,0,0,0,0,0,0,0,0,0,0,0,0,0,0,0,0,0,0,0,0,0,0,0,0,0,0,0,0,0,0,0,0,0,0,0,0,0,0,0,0,0,0,0,0,0,0,0,0,0,0,0,0,0,0,0,0,0,0,0,0,0,0,0,0,0,0,0,0,0,0,0,0,0,0,0,0,0,0,0,0,0,0,0,0,0,0,0,0,0,0,0,0,0,0,0,0,0,0,0,0,0,0,41,41,
41,41,0,0,0,0,0,0,0,0,0,0,0,0,0,0,0,0,0,0,0,0,0,0,0,0,0,0,0,0,0,0,0,0,0,0,0,0,0,0,0,0,0,0,0,0,0,0,0,0,0,0,0,0,0,0,0,0,0,0,0,0,0,0,0,0,0,0,0,0,0,0,0,0,0,0,0,0,0,0,0,0,0,0,0,0,0,0,0,0,0,0,0,0,0,0,0,0,0,0,0,0,0,0,0,0,0,0,0,0,0,0,0,0,0,0,0,0,0,0,0,0,0,0,0,0,41,41,
41,41,0,0,0,0,0,0,0,0,0,0,0,0,0,0,0,0,0,0,0,0,0,0,0,0,0,0,0,0,0,0,0,0,0,0,0,0,0,0,0,0,0,0,0,0,0,0,0,0,0,0,0,0,0,0,0,0,0,0,0,0,0,0,0,0,0,0,0,0,0,0,0,0,0,0,0,0,0,0,0,0,0,0,0,0,0,0,0,0,0,0,0,0,0,0,0,0,0,0,0,0,0,0,0,0,0,0,0,0,0,0,0,0,0,0,0,0,0,0,0,0,0,0,0,0,41,41,
41,41,0,0,0,0,0,0,0,0,0,0,0,0,0,0,0,0,0,0,0,0,0,0,0,0,0,0,0,0,0,0,0,0,0,0,0,0,0,0,0,0,0,0,0,0,0,0,0,0,0,0,0,0,0,0,0,0,0,0,0,0,0,0,0,0,0,0,0,0,0,0,0,0,0,0,0,0,0,0,0,0,0,0,0,0,0,0,0,0,0,0,0,0,0,0,0,0,0,0,0,0,0,0,0,0,0,0,0,0,0,0,0,0,0,0,0,0,0,0,0,0,0,0,0,0,41,41,
41,41,0,0,0,0,0,0,0,0,0,0,0,0,0,0,0,0,0,0,0,0,0,0,0,0,0,0,0,0,0,0,0,0,0,0,0,0,0,0,0,0,0,0,0,0,0,0,0,0,0,0,0,0,0,0,0,0,0,0,0,0,0,0,0,0,0,0,0,0,0,0,0,0,0,0,0,0,0,0,0,0,0,0,0,0,0,0,0,0,0,0,0,0,0,0,0,0,0,0,0,0,0,0,0,0,0,0,0,0,0,0,0,0,0,0,0,0,0,0,0,0,0,0,0,0,41,41,
41,41,0,0,0,0,0,0,0,0,0,0,0,0,0,0,0,0,0,0,0,0,0,0,0,0,0,0,0,0,0,0,0,0,0,0,0,0,0,0,0,0,0,0,0,0,0,0,0,0,0,0,0,0,0,0,0,0,0,0,0,0,0,0,0,0,0,0,0,0,0,0,0,0,0,0,0,0,0,0,0,0,0,0,0,0,0,0,0,0,0,0,0,0,0,0,0,0,0,0,0,0,0,0,0,0,0,0,0,0,0,0,0,0,0,0,0,0,0,0,0,0,0,0,0,0,41,41,
41,41,0,0,0,0,0,0,0,0,0,0,0,0,0,0,0,0,0,0,0,0,0,0,0,0,0,0,0,0,0,0,0,0,0,0,0,0,0,0,0,0,0,0,0,0,0,0,0,0,0,0,0,0,0,0,0,0,0,0,0,0,0,0,0,0,0,0,0,0,0,0,0,0,0,0,0,0,0,0,0,0,0,0,0,0,0,0,0,0,0,0,0,0,0,0,0,0,0,0,0,0,0,0,0,0,0,0,0,0,0,0,0,0,0,0,0,0,0,0,0,0,0,0,0,0,41,41,
41,41,0,0,0,0,0,0,0,0,0,0,0,0,0,0,0,0,0,0,0,0,0,0,0,0,0,0,0,0,0,0,0,0,0,0,0,0,0,0,0,0,0,0,0,0,0,0,0,0,0,0,0,0,0,0,0,0,0,0,0,0,0,0,0,0,0,0,0,0,0,0,0,0,0,0,0,0,0,0,0,0,0,0,0,0,0,0,0,0,0,0,0,0,0,0,0,0,0,0,0,0,0,0,0,0,0,0,0,0,0,0,0,0,0,0,0,0,0,0,0,0,0,0,0,0,41,41,
41,41,0,0,0,0,0,0,0,0,0,0,0,0,0,0,0,0,0,0,0,0,0,0,0,0,0,0,0,0,0,0,0,0,0,0,0,0,0,0,0,0,0,0,0,0,0,0,0,0,0,0,0,0,0,0,0,0,0,0,0,0,0,0,0,0,0,0,0,0,0,0,0,0,0,0,0,0,0,0,0,0,0,0,0,0,0,0,0,0,0,0,0,0,0,0,0,0,0,0,0,0,0,0,0,0,0,0,0,0,0,0,0,0,0,0,0,0,0,0,0,0,0,0,0,0,41,41,
41,41,0,0,0,0,0,0,0,0,0,0,0,0,0,0,0,0,0,0,0,0,0,0,0,0,0,0,0,0,0,0,0,0,0,0,0,0,0,0,0,0,0,0,0,0,0,0,0,0,0,0,0,0,0,0,0,0,0,0,0,0,0,0,0,0,0,0,0,0,0,0,0,0,0,0,0,0,0,0,0,0,0,0,0,0,0,0,0,0,0,0,0,0,0,0,0,0,0,0,0,0,0,0,0,0,0,0,0,0,0,0,0,0,0,0,0,0,0,0,0,0,0,0,0,0,41,41,
41,41,0,0,0,0,0,0,0,0,0,0,0,0,0,0,0,0,0,0,0,0,0,0,0,0,0,0,0,0,0,0,0,0,0,0,0,0,0,0,0,0,0,0,0,0,0,0,0,0,0,0,0,0,0,0,0,0,0,0,0,0,0,0,0,0,0,0,0,0,0,0,0,0,0,0,0,0,0,0,0,0,0,0,0,0,0,0,0,0,0,0,0,0,0,0,0,0,0,0,0,0,0,0,0,0,0,0,0,0,0,0,0,0,0,0,0,0,0,0,0,0,0,0,0,0,41,41,
41,41,0,0,0,0,0,0,0,0,0,0,0,0,0,0,0,0,0,0,0,0,0,0,0,0,0,0,0,0,0,0,0,0,0,0,0,0,0,0,0,0,0,0,0,0,0,0,0,0,0,0,0,0,0,0,0,0,0,0,0,0,0,0,0,0,0,0,0,0,0,0,0,0,0,0,0,0,0,0,0,0,0,0,0,0,0,0,0,0,0,0,0,0,0,0,0,0,0,0,0,0,0,0,0,0,0,0,0,0,0,0,0,0,0,0,0,0,0,0,0,0,0,0,0,0,41,41,
41,41,0,0,0,0,0,0,0,0,0,0,0,0,0,0,0,0,0,0,0,0,0,0,0,0,0,0,0,0,0,0,0,0,0,0,0,0,0,0,0,0,0,0,0,0,0,0,0,0,0,0,0,0,0,0,0,0,0,0,0,0,0,0,0,0,0,0,0,0,0,0,0,0,0,0,0,0,0,0,0,0,0,0,0,0,0,0,0,0,0,0,0,0,0,0,0,0,0,0,0,0,0,0,0,0,0,0,0,0,0,0,0,0,0,0,0,0,0,0,0,0,0,0,0,0,41,41,
41,41,0,0,0,0,0,0,0,0,0,0,0,0,0,0,0,0,0,0,0,0,0,0,0,0,0,0,0,0,0,0,0,0,0,0,0,0,0,0,0,0,0,0,0,0,0,0,0,0,0,0,0,0,0,0,0,0,0,0,0,0,0,0,0,0,0,0,0,0,0,0,0,0,0,0,0,0,0,0,0,0,0,0,0,0,0,0,0,0,0,0,0,0,0,0,0,0,0,0,0,0,0,0,0,0,0,0,0,0,0,0,0,0,0,0,0,0,0,0,0,0,0,0,0,0,41,41,
41,41,0,0,0,0,0,0,0,0,0,0,0,0,0,0,0,0,0,0,0,0,0,0,0,0,0,0,0,0,0,0,0,0,0,0,0,0,0,0,0,0,0,0,0,0,0,0,0,0,0,0,0,0,0,0,0,0,0,0,0,0,0,0,0,0,0,0,0,0,0,0,0,0,0,0,0,0,0,0,0,0,0,0,0,0,0,0,0,0,0,0,0,0,0,0,0,0,0,0,0,0,0,0,0,0,0,0,0,0,0,0,0,0,0,0,0,0,0,0,0,0,0,0,0,0,41,41,
41,41,0,0,0,0,0,0,0,0,0,0,0,0,0,0,0,0,0,0,0,0,0,0,0,0,0,0,0,0,0,0,0,0,0,0,0,0,0,0,0,0,0,0,0,0,0,0,0,0,0,0,0,0,0,0,0,0,0,0,0,0,0,0,0,0,0,0,0,0,0,0,0,0,0,0,0,0,0,0,0,0,0,0,0,0,0,0,0,0,0,0,0,0,0,0,0,0,0,0,0,0,0,0,0,0,0,0,0,0,0,0,0,0,0,0,0,0,0,0,0,0,0,0,0,0,41,41,
41,41,0,0,0,0,0,0,0,0,0,0,0,0,0,0,0,0,0,0,0,0,0,0,0,0,0,0,0,0,0,0,0,0,0,0,0,0,0,0,0,0,0,0,0,0,0,0,0,0,0,0,0,0,0,0,0,0,0,0,0,0,0,0,0,0,0,0,0,0,0,0,0,0,0,0,0,0,0,0,0,0,0,0,0,0,0,0,0,0,0,0,0,0,0,0,0,0,0,0,0,0,0,0,0,0,0,0,0,0,0,0,0,0,0,0,0,0,0,0,0,0,0,0,0,0,41,41,
41,41,0,0,0,0,0,0,0,0,0,0,0,0,0,0,0,0,0,0,0,0,0,0,0,0,0,0,0,0,0,0,0,0,0,0,0,0,0,0,0,0,0,0,0,0,0,0,0,0,0,0,0,0,0,0,0,0,0,0,0,0,0,0,0,0,0,0,0,0,0,0,0,0,0,0,0,0,0,0,0,0,0,0,0,0,0,0,0,0,0,0,0,0,0,0,0,0,0,0,0,0,0,0,0,0,0,0,0,0,0,0,0,0,0,0,0,0,0,0,0,0,0,0,0,0,41,41,
41,41,0,0,0,0,0,0,0,0,0,0,0,0,0,0,0,0,0,0,0,0,0,0,0,0,0,0,0,0,0,0,0,0,0,0,0,0,0,0,0,0,0,0,0,0,0,0,0,0,0,0,0,0,0,0,0,0,0,0,0,0,0,0,0,0,0,0,0,0,0,0,0,0,0,0,0,0,0,0,0,0,0,0,0,0,0,0,0,0,0,0,0,0,0,0,0,0,0,0,0,0,0,0,0,0,0,0,0,0,0,0,0,0,0,0,0,0,0,0,0,0,0,0,0,0,41,41,
41,41,0,0,0,0,0,0,0,0,0,0,0,0,0,0,0,0,0,0,0,0,0,0,0,0,0,0,0,0,0,0,0,0,0,0,0,0,0,0,0,0,0,0,0,0,0,0,0,0,0,0,0,0,0,0,0,0,0,0,0,0,0,0,0,0,0,0,0,0,0,0,0,0,0,0,0,0,0,0,0,0,0,0,0,0,0,0,0,0,0,0,0,0,0,0,0,0,0,0,0,0,0,0,0,0,0,0,0,0,0,0,0,0,0,0,0,0,0,0,0,0,0,0,0,0,41,41,
41,41,0,0,0,0,0,0,0,0,0,0,0,0,0,0,0,0,0,0,0,0,0,0,0,0,0,0,0,0,0,0,0,0,0,0,0,0,0,0,0,0,0,0,0,0,0,0,0,0,0,0,0,0,0,0,0,0,0,0,0,0,0,0,0,0,0,0,0,0,0,0,0,0,0,0,0,0,0,0,0,0,0,0,0,0,0,0,0,0,0,0,0,0,0,0,0,0,0,0,0,0,0,0,0,0,0,0,0,0,0,0,0,0,0,0,0,0,0,0,0,0,0,0,0,0,41,41,
41,41,0,0,0,0,0,0,0,0,0,0,0,0,0,0,0,0,0,0,0,0,0,0,0,0,0,0,0,0,0,0,0,0,0,0,0,0,0,0,0,0,0,0,0,0,0,0,0,0,0,0,0,0,0,0,0,0,0,0,0,0,0,0,0,0,0,0,0,0,0,0,0,0,0,0,0,0,0,0,0,0,0,0,0,0,0,0,0,0,0,0,0,0,0,0,0,0,0,0,0,0,0,0,0,0,0,0,0,0,0,0,0,0,0,0,0,0,0,0,0,0,0,0,0,0,41,41,
41,41,0,0,0,0,0,0,0,0,0,0,0,0,0,0,0,0,0,0,0,0,0,0,0,0,0,0,0,0,0,0,0,0,0,0,0,0,0,0,0,0,0,0,0,0,0,0,0,0,0,0,0,0,0,0,0,0,0,0,0,0,0,0,0,0,0,0,0,0,0,0,0,0,0,0,0,0,0,0,0,0,0,0,0,0,0,0,0,0,0,0,0,0,0,0,0,0,0,0,0,0,0,0,0,0,0,0,0,0,0,0,0,0,0,0,0,0,0,0,0,0,0,0,0,0,41,41,
41,41,0,0,0,0,0,0,0,0,0,0,0,0,0,0,0,0,0,0,0,0,0,0,0,0,0,0,0,0,0,0,0,0,0,0,0,0,0,0,0,0,0,0,0,0,0,0,0,0,0,0,0,0,0,0,0,0,0,0,0,0,0,0,0,0,0,0,0,0,0,0,0,0,0,0,0,0,0,0,0,0,0,0,0,0,0,0,0,0,0,0,0,0,0,0,0,0,0,0,0,0,0,0,0,0,0,0,0,0,0,0,0,0,0,0,0,0,0,0,0,0,0,0,0,0,41,41,
41,41,0,0,0,0,0,0,0,0,0,0,0,0,0,0,0,0,0,0,0,0,0,0,0,0,0,0,0,0,0,0,0,0,0,0,0,0,0,0,0,0,0,0,0,0,0,0,0,0,0,0,0,0,0,0,0,0,0,0,0,0,0,0,0,0,0,0,0,0,0,0,0,0,0,0,0,0,0,0,0,0,0,0,0,0,0,0,0,0,0,0,0,0,0,0,0,0,0,0,0,0,0,0,0,0,0,0,0,0,0,0,0,0,0,0,0,0,0,0,0,0,0,0,0,0,41,41,
41,41,0,0,0,0,0,0,0,0,0,0,0,0,0,0,0,0,0,0,0,0,0,0,0,0,0,0,0,0,0,0,0,0,0,0,0,0,0,0,0,0,0,0,0,0,0,0,0,0,0,0,0,0,0,0,0,0,0,0,0,0,0,0,0,0,0,0,0,0,0,0,0,0,0,0,0,0,0,0,0,0,0,0,0,0,0,0,0,0,0,0,0,0,0,0,0,0,0,0,0,0,0,0,0,0,0,0,0,0,0,0,0,0,0,0,0,0,0,0,0,0,0,0,0,0,41,41,
41,41,0,0,0,0,0,0,0,0,0,0,0,0,0,0,0,0,0,0,0,0,0,0,0,0,0,0,0,0,0,0,0,0,0,0,0,0,0,0,0,0,0,0,0,0,0,0,0,0,0,0,0,0,0,0,0,0,0,0,0,0,0,0,0,0,0,0,0,0,0,0,0,0,0,0,0,0,0,0,0,0,0,0,0,0,0,0,0,0,0,0,0,0,0,0,0,0,0,0,0,0,0,0,0,0,0,0,0,0,0,0,0,0,0,0,0,0,0,0,0,0,0,0,0,0,41,41,
41,41,0,0,0,0,0,0,0,0,0,0,0,0,0,0,0,0,0,0,0,0,0,0,0,0,0,0,0,0,0,0,0,0,0,0,0,0,0,0,0,0,0,0,0,0,0,0,0,0,0,0,0,0,0,0,0,0,0,0,0,0,0,0,0,0,0,0,0,0,0,0,0,0,0,0,0,0,0,0,0,0,0,0,0,0,0,0,0,0,0,0,0,0,0,0,0,0,0,0,0,0,0,0,0,0,0,0,0,0,0,0,0,0,0,0,0,0,0,0,0,0,0,0,0,0,41,41,
41,41,0,0,0,0,0,0,0,0,0,0,0,0,0,0,0,0,0,0,0,0,0,0,0,0,0,0,0,0,0,0,0,0,0,0,0,0,0,0,0,0,0,0,0,0,0,0,0,0,0,0,0,0,0,0,0,0,0,0,0,0,0,0,0,0,0,0,0,0,0,0,0,0,0,0,0,0,0,0,0,0,0,0,0,0,0,0,0,0,0,0,0,0,0,0,0,0,0,0,0,0,0,0,0,0,0,0,0,0,0,0,0,0,0,0,0,0,0,0,0,0,0,0,0,0,41,41,
41,41,0,0,0,0,0,0,0,0,0,0,0,0,0,0,0,0,0,0,0,0,0,0,0,0,0,0,0,0,0,0,0,0,0,0,0,0,0,0,0,0,0,0,0,0,0,0,0,0,0,0,0,0,0,0,0,0,0,0,0,0,0,0,0,0,0,0,0,0,0,0,0,0,0,0,0,0,0,0,0,0,0,0,0,0,0,0,0,0,0,0,0,0,0,0,0,0,0,0,0,0,0,0,0,0,0,0,0,0,0,0,0,0,0,0,0,0,0,0,0,0,0,0,0,0,41,41,
41,41,0,0,0,0,0,0,0,0,0,0,0,0,0,0,0,0,0,0,0,0,0,0,0,0,0,0,0,0,0,0,0,0,0,0,0,0,0,0,0,0,0,0,0,0,0,0,0,0,0,0,0,0,0,0,0,0,0,0,0,0,0,0,0,0,0,0,0,0,0,0,0,0,0,0,0,0,0,0,0,0,0,0,0,0,0,0,0,0,0,0,0,0,0,0,0,0,0,0,0,0,0,0,0,0,0,0,0,0,0,0,0,0,0,0,0,0,0,0,0,0,0,0,0,0,41,41,
41,41,0,0,0,0,0,0,0,0,0,0,0,0,0,0,0,0,0,0,0,0,0,0,0,0,0,0,0,0,0,0,0,0,0,0,0,0,0,0,0,0,0,0,0,0,0,0,0,0,0,0,0,0,0,0,0,0,0,0,0,0,0,0,0,0,0,0,0,0,0,0,0,0,0,0,0,0,0,0,0,0,0,0,0,0,0,0,0,0,0,0,0,0,0,0,0,0,0,0,0,0,0,0,0,0,0,0,0,0,0,0,0,0,0,0,0,0,0,0,0,0,0,0,0,0,41,41,
41,41,0,0,0,0,0,0,0,0,0,0,0,0,0,0,0,0,0,0,0,0,0,0,0,0,0,0,0,0,0,0,0,0,0,0,0,0,0,0,0,0,0,0,0,0,0,0,0,0,0,0,0,0,0,0,0,0,0,0,0,0,0,0,0,0,0,0,0,0,0,0,0,0,0,0,0,0,0,0,0,0,0,0,0,0,0,0,0,0,0,0,0,0,0,0,0,0,0,0,0,0,0,0,0,0,0,0,0,0,0,0,0,0,0,0,0,0,0,0,0,0,0,0,0,0,41,41,
41,41,0,0,0,0,0,0,0,0,0,0,0,0,0,0,0,0,0,0,0,0,0,0,0,0,0,0,0,0,0,0,0,0,0,0,0,0,0,0,0,0,0,0,0,0,0,0,0,0,0,0,0,0,0,0,0,0,0,0,0,0,0,0,0,0,0,0,0,0,0,0,0,0,0,0,0,0,0,0,0,0,0,0,0,0,0,0,0,0,0,0,0,0,0,0,0,0,0,0,0,0,0,0,0,0,0,0,0,0,0,0,0,0,0,0,0,0,0,0,0,0,0,0,0,0,41,41,
41,41,0,0,0,0,0,0,0,0,0,0,0,0,0,0,0,0,0,0,0,0,0,0,0,0,0,0,0,0,0,0,0,0,0,0,0,0,0,0,0,0,0,0,0,0,0,0,0,0,0,0,0,0,0,0,0,0,0,0,0,0,0,0,0,0,0,0,0,0,0,0,0,0,0,0,0,0,0,0,0,0,0,0,0,0,0,0,0,0,0,0,0,0,0,0,0,0,0,0,0,0,0,0,0,0,0,0,0,0,0,0,0,0,0,0,0,0,0,0,0,0,0,0,0,0,41,41,
41,41,0,0,0,0,0,0,0,0,0,0,0,0,0,0,0,0,0,0,0,0,0,0,0,0,0,0,0,0,0,0,0,0,0,0,0,0,0,0,0,0,0,0,0,0,0,0,0,0,0,0,0,0,0,0,0,0,0,0,0,0,0,0,0,0,0,0,0,0,0,0,0,0,0,0,0,0,0,0,0,0,0,0,0,0,0,0,0,0,0,0,0,0,0,0,0,0,0,0,0,0,0,0,0,0,0,0,0,0,0,0,0,0,0,0,0,0,0,0,0,0,0,0,0,0,41,41,
41,41,0,0,0,0,0,0,0,0,0,0,0,0,0,0,0,0,0,0,0,0,0,0,0,0,0,0,0,0,0,0,0,0,0,0,0,0,0,0,0,0,0,0,0,0,0,0,0,0,0,0,0,0,0,0,0,0,0,0,0,0,0,0,0,0,0,0,0,0,0,0,0,0,0,0,0,0,0,0,0,0,0,0,0,0,0,0,0,0,0,0,0,0,0,0,0,0,0,0,0,0,0,0,0,0,0,0,0,0,0,0,0,0,0,0,0,0,0,0,0,0,0,0,0,0,41,41,
41,41,0,0,0,0,0,0,0,0,0,0,0,0,0,0,0,0,0,0,0,0,0,0,0,0,0,0,0,0,0,0,0,0,0,0,0,0,0,0,0,0,0,0,0,0,0,0,0,0,0,0,0,0,0,0,0,0,0,0,0,0,0,0,0,0,0,0,0,0,0,0,0,0,0,0,0,0,0,0,0,0,0,0,0,0,0,0,0,0,0,0,0,0,0,0,0,0,0,0,0,0,0,0,0,0,0,0,0,0,0,0,0,0,0,0,0,0,0,0,0,0,0,0,0,0,41,41,
41,41,0,0,0,0,0,0,0,0,0,0,0,0,0,0,0,0,0,0,0,0,0,0,0,0,0,0,0,0,0,0,0,0,0,0,0,0,0,0,0,0,0,0,0,0,0,0,0,0,0,0,0,0,0,0,0,0,0,0,0,0,0,0,0,0,0,0,0,0,0,0,0,0,0,0,0,0,0,0,0,0,0,0,0,0,0,0,0,0,0,0,0,0,0,0,0,0,0,0,0,0,0,0,0,0,0,0,0,0,0,0,0,0,0,0,0,0,0,0,0,0,0,0,0,0,41,41,
41,41,0,0,0,0,0,0,0,0,0,0,0,0,0,0,0,0,0,0,0,0,0,0,0,0,0,0,0,0,0,0,0,0,0,0,0,0,0,0,0,0,0,0,0,0,0,0,0,0,0,0,0,0,0,0,0,0,0,0,0,0,0,0,0,0,0,0,0,0,0,0,0,0,0,0,0,0,0,0,0,0,0,0,0,0,0,0,0,0,0,0,0,0,0,0,0,0,0,0,0,0,0,0,0,0,0,0,0,0,0,0,0,0,0,0,0,0,0,0,0,0,0,0,0,0,41,41,
41,41,0,0,0,0,0,0,0,0,0,0,0,0,0,0,0,0,0,0,0,0,0,0,0,0,0,0,0,0,0,0,0,0,0,0,0,0,0,0,0,0,0,0,0,0,0,0,0,0,0,0,0,0,0,0,0,0,0,0,0,0,0,0,0,0,0,0,0,0,0,0,0,0,0,0,0,0,0,0,0,0,0,0,0,0,0,0,0,0,0,0,0,0,0,0,0,0,0,0,0,0,0,0,0,0,0,0,0,0,0,0,0,0,0,0,0,0,0,0,0,0,0,0,0,0,41,41,
41,41,0,0,0,0,0,0,0,0,0,0,0,0,0,0,0,0,0,0,0,0,0,0,0,0,0,0,0,0,0,0,0,0,0,0,0,0,0,0,0,0,0,0,0,0,0,0,0,0,0,0,0,0,0,0,0,0,0,0,0,0,0,0,0,0,0,0,0,0,0,0,0,0,0,0,0,0,0,0,0,0,0,0,0,0,0,0,0,0,0,0,0,0,0,0,0,0,0,0,0,0,0,0,0,0,0,0,0,0,0,0,0,0,0,0,0,0,0,0,0,0,0,0,0,0,41,41,
41,41,0,0,0,0,0,0,0,0,0,0,0,0,0,0,0,0,0,0,0,0,0,0,0,0,0,0,0,0,0,0,0,0,0,0,0,0,0,0,0,0,0,0,0,0,0,0,0,0,0,0,0,0,0,0,0,0,0,0,0,0,0,0,0,0,0,0,0,0,0,0,0,0,0,0,0,0,0,0,0,0,0,0,0,0,0,0,0,0,0,0,0,0,0,0,0,0,0,0,0,0,0,0,0,0,0,0,0,0,0,0,0,0,0,0,0,0,0,0,0,0,0,0,0,0,41,41,
41,41,0,0,0,0,0,0,0,0,0,0,0,0,0,0,0,0,0,0,0,0,0,0,0,0,0,0,0,0,0,0,0,0,0,0,0,0,0,0,0,0,0,0,0,0,0,0,0,0,0,0,0,0,0,0,0,0,0,0,0,0,0,0,0,0,0,0,0,0,0,0,0,0,0,0,0,0,0,0,0,0,0,0,0,0,0,0,0,0,0,0,0,0,0,0,0,0,0,0,0,0,0,0,0,0,0,0,0,0,0,0,0,0,0,0,0,0,0,0,0,0,0,0,0,0,41,41,
41,41,0,0,0,0,0,0,0,0,0,0,0,0,0,0,0,0,0,0,0,0,0,0,0,0,0,0,0,0,0,0,0,0,0,0,0,0,0,0,0,0,0,0,0,0,0,0,0,0,0,0,0,0,0,0,0,0,0,0,0,0,0,0,0,0,0,0,0,0,0,0,0,0,0,0,0,0,0,0,0,0,0,0,0,0,0,0,0,0,0,0,0,0,0,0,0,0,0,0,0,0,0,0,0,0,0,0,0,0,0,0,0,0,0,0,0,0,0,0,0,0,0,0,0,0,41,41,
41,41,0,0,0,0,0,0,0,0,0,0,0,0,0,0,0,0,0,0,0,0,0,0,0,0,0,0,0,0,0,0,0,0,0,0,0,0,0,0,0,0,0,0,0,0,0,0,0,0,0,0,0,0,0,0,0,0,0,0,0,0,0,0,0,0,0,0,0,0,0,0,0,0,0,0,0,0,0,0,0,0,0,0,0,0,0,0,0,0,0,0,0,0,0,0,0,0,0,0,0,0,0,0,0,0,0,0,0,0,0,0,0,0,0,0,0,0,0,0,0,0,0,0,0,0,41,41,
41,41,0,0,0,0,0,0,0,0,0,0,0,0,0,0,0,0,0,0,0,0,0,0,0,0,0,0,0,0,0,0,0,0,0,0,0,0,0,0,0,0,0,0,0,0,0,0,0,0,0,0,0,0,0,0,0,0,0,0,0,0,0,0,0,0,0,0,0,0,0,0,0,0,0,0,0,0,0,0,0,0,0,0,0,0,0,0,0,0,0,0,0,0,0,0,0,0,0,0,0,0,0,0,0,0,0,0,0,0,0,0,0,0,0,0,0,0,0,0,0,0,0,0,0,0,41,41,
41,41,0,0,0,0,0,0,0,0,0,0,0,0,0,0,0,0,0,0,0,0,0,0,0,0,0,0,0,0,0,0,0,0,0,0,0,0,0,0,0,0,0,0,0,0,0,0,0,0,0,0,0,0,0,0,0,0,0,0,0,0,0,0,0,0,0,0,0,0,0,0,0,0,0,0,0,0,0,0,0,0,0,0,0,0,0,0,0,0,0,0,0,0,0,0,0,0,0,0,0,0,0,0,0,0,0,0,0,0,0,0,0,0,0,0,0,0,0,0,0,0,0,0,0,0,41,41,
41,41,0,0,0,0,0,0,0,0,0,0,0,0,0,0,0,0,0,0,0,0,0,0,0,0,0,0,0,0,0,0,0,0,0,0,0,0,0,0,0,0,0,0,0,0,0,0,0,0,0,0,0,0,0,0,0,0,0,0,0,0,0,0,0,0,0,0,0,0,0,0,0,0,0,0,0,0,0,0,0,0,0,0,0,0,0,0,0,0,0,0,0,0,0,0,0,0,0,0,0,0,0,0,0,0,0,0,0,0,0,0,0,0,0,0,0,0,0,0,0,0,0,0,0,0,41,41,
41,41,0,0,0,0,0,0,0,0,0,0,0,0,0,0,0,0,0,0,0,0,0,0,0,0,0,0,0,0,0,0,0,0,0,0,0,0,0,0,0,0,0,0,0,0,0,0,0,0,0,0,0,0,0,0,0,0,0,0,0,0,0,0,0,0,0,0,0,0,0,0,0,0,0,0,0,0,0,0,0,0,0,0,0,0,0,0,0,0,0,0,0,0,0,0,0,0,0,0,0,0,0,0,0,0,0,0,0,0,0,0,0,0,0,0,0,0,0,0,0,0,0,0,0,0,41,41,
41,41,0,0,0,0,0,0,0,0,0,0,0,0,0,0,0,0,0,0,0,0,0,0,0,0,0,0,0,0,0,0,0,0,0,0,0,0,0,0,0,0,0,0,0,0,0,0,0,0,0,0,0,0,0,0,0,0,0,0,0,0,0,0,0,0,0,0,0,0,0,0,0,0,0,0,0,0,0,0,0,0,0,0,0,0,0,0,0,0,0,0,0,0,0,0,0,0,0,0,0,0,0,0,0,0,0,0,0,0,0,0,0,0,0,0,0,0,0,0,0,0,0,0,0,0,41,41,
41,41,0,0,0,0,0,0,0,0,0,0,0,0,0,0,0,0,0,0,0,0,0,0,0,0,0,0,0,0,0,0,0,0,0,0,0,0,0,0,0,0,0,0,0,0,0,0,0,0,0,0,0,0,0,0,0,0,0,0,0,0,0,0,0,0,0,0,0,0,0,0,0,0,0,0,0,0,0,0,0,0,0,0,0,0,0,0,0,0,0,0,0,0,0,0,0,0,0,0,0,0,0,0,0,0,0,0,0,0,0,0,0,0,0,0,0,0,0,0,0,0,0,0,0,0,41,41,
41,41,0,0,0,0,0,0,0,0,0,0,0,0,0,0,0,0,0,0,0,0,0,0,0,0,0,0,0,0,0,0,0,0,0,0,0,0,0,0,0,0,0,0,0,0,0,0,0,0,0,0,0,0,0,0,0,0,0,0,0,0,0,0,0,0,0,0,0,0,0,0,0,0,0,0,0,0,0,0,0,0,0,0,0,0,0,0,0,0,0,0,0,0,0,0,0,0,0,0,0,0,0,0,0,0,0,0,0,0,0,0,0,0,0,0,0,0,0,0,0,0,0,0,0,0,41,41,
41,41,0,0,0,0,0,0,0,0,0,0,0,0,0,0,0,0,0,0,0,0,0,0,0,0,0,0,0,0,0,0,0,0,0,0,0,0,0,0,0,0,0,0,0,0,0,0,0,0,0,0,0,0,0,0,0,0,0,0,0,0,0,0,0,0,0,0,0,0,0,0,0,0,0,0,0,0,0,0,0,0,0,0,0,0,0,0,0,0,0,0,0,0,0,0,0,0,0,0,0,0,0,0,0,0,0,0,0,0,0,0,0,0,0,0,0,0,0,0,0,0,0,0,0,0,41,41,
41,41,0,0,0,0,0,0,0,0,0,0,0,0,0,0,0,0,0,0,0,0,0,0,0,0,0,0,0,0,0,0,0,0,0,0,0,0,0,0,0,0,0,0,0,0,0,0,0,0,0,0,0,0,0,0,0,0,0,0,0,0,0,0,0,0,0,0,0,0,0,0,0,0,0,0,0,0,0,0,0,0,0,0,0,0,0,0,0,0,0,0,0,0,0,0,0,0,0,0,0,0,0,0,0,0,0,0,0,0,0,0,0,0,0,0,0,0,0,0,0,0,0,0,0,0,41,41,
41,41,0,0,0,0,0,0,0,0,0,0,0,0,0,0,0,0,0,0,0,0,0,0,0,0,0,0,0,0,0,0,0,0,0,0,0,0,0,0,0,0,0,0,0,0,0,0,0,0,0,0,0,0,0,0,0,0,0,0,0,0,0,0,0,0,0,0,0,0,0,0,0,0,0,0,0,0,0,0,0,0,0,0,0,0,0,0,0,0,0,0,0,0,0,0,0,0,0,0,0,0,0,0,0,0,0,0,0,0,0,0,0,0,0,0,0,0,0,0,0,0,0,0,0,0,41,41,
41,41,0,0,0,0,0,0,0,0,0,0,0,0,0,0,0,0,0,0,0,0,0,0,0,0,0,0,0,0,0,0,0,0,0,0,0,0,0,0,0,0,0,0,0,0,0,0,0,0,0,0,0,0,0,0,0,0,0,0,0,0,0,0,0,0,0,0,0,0,0,0,0,0,0,0,0,0,0,0,0,0,0,0,0,0,0,0,0,0,0,0,0,0,0,0,0,0,0,0,0,0,0,0,0,0,0,0,0,0,0,0,0,0,0,0,0,0,0,0,0,0,0,0,0,0,41,41,
41,41,0,0,0,0,0,0,0,0,0,0,0,0,0,0,0,0,0,0,0,0,0,0,0,0,0,0,0,0,0,0,0,0,0,0,0,0,0,0,0,0,0,0,0,0,0,0,0,0,0,0,0,0,0,0,0,0,0,0,0,0,0,0,0,0,0,0,0,0,0,0,0,0,0,0,0,0,0,0,0,0,0,0,0,0,0,0,0,0,0,0,0,0,0,0,0,0,0,0,0,0,0,0,0,0,0,0,0,0,0,0,0,0,0,0,0,0,0,0,0,0,0,0,0,0,41,41,
41,41,0,0,0,0,0,0,0,0,0,0,0,0,0,0,0,0,0,0,0,0,0,0,0,0,0,0,0,0,0,0,0,0,0,0,0,0,0,0,0,0,0,0,0,0,0,0,0,0,0,0,0,0,0,0,0,0,0,0,0,0,0,0,0,0,0,0,0,0,0,0,0,0,0,0,0,0,0,0,0,0,0,0,0,0,0,0,0,0,0,0,0,0,0,0,0,0,0,0,0,0,0,0,0,0,0,0,0,0,0,0,0,0,0,0,0,0,0,0,0,0,0,0,0,0,41,41,
41,41,0,0,0,0,0,0,0,0,0,0,0,0,0,0,0,0,0,0,0,0,0,0,0,0,0,0,0,0,0,0,0,0,0,0,0,0,0,0,0,0,0,0,0,0,0,0,0,0,0,0,0,0,0,0,0,0,0,0,0,0,0,0,0,0,0,0,0,0,0,0,0,0,0,0,0,0,0,0,0,0,0,0,0,0,0,0,0,0,0,0,0,0,0,0,0,0,0,0,0,0,0,0,0,0,0,0,0,0,0,0,0,0,0,0,0,0,0,0,0,0,0,0,0,0,41,41,
41,41,0,0,0,0,0,0,0,0,0,0,0,0,0,0,0,0,0,0,0,0,0,0,0,0,0,0,0,0,0,0,0,0,0,0,0,0,0,0,0,0,0,0,0,0,0,0,0,0,0,0,0,0,0,0,0,0,0,0,0,0,0,0,0,0,0,0,0,0,0,0,0,0,0,0,0,0,0,0,0,0,0,0,0,0,0,0,0,0,0,0,0,0,0,0,0,0,0,0,0,0,0,0,0,0,0,0,0,0,0,0,0,0,0,0,0,0,0,0,0,0,0,0,0,0,41,41,
41,41,0,0,0,0,0,0,0,0,0,0,0,0,0,0,0,0,0,0,0,0,0,0,0,0,0,0,0,0,0,0,0,0,0,0,0,0,0,0,0,0,0,0,0,0,0,0,0,0,0,0,0,0,0,0,0,0,0,0,0,0,0,0,0,0,0,0,0,0,0,0,0,0,0,0,0,0,0,0,0,0,0,0,0,0,0,0,0,0,0,0,0,0,0,0,0,0,0,0,0,0,0,0,0,0,0,0,0,0,0,0,0,0,0,0,0,0,0,0,0,0,0,0,0,0,41,41,
41,41,0,0,0,0,0,0,0,0,0,0,0,0,0,0,0,0,0,0,0,0,0,0,0,0,0,0,0,0,0,0,0,0,0,0,0,0,0,0,0,0,0,0,0,0,0,0,0,0,0,0,0,0,0,0,0,0,0,0,0,0,0,0,0,0,0,0,0,0,0,0,0,0,0,0,0,0,0,0,0,0,0,0,0,0,0,0,0,0,0,0,0,0,0,0,0,0,0,0,0,0,0,0,0,0,0,0,0,0,0,0,0,0,0,0,0,0,0,0,0,0,0,0,0,0,41,41,
41,41,0,0,0,0,0,0,0,0,0,0,0,0,0,0,0,0,0,0,0,0,0,0,0,0,0,0,0,0,0,0,0,0,0,0,0,0,0,0,0,0,0,0,0,0,0,0,0,0,0,0,0,0,0,0,0,0,0,0,0,0,0,0,0,0,0,0,0,0,0,0,0,0,0,0,0,0,0,0,0,0,0,0,0,0,0,0,0,0,0,0,0,0,0,0,0,0,0,0,0,0,0,0,0,0,0,0,0,0,0,0,0,0,0,0,0,0,0,0,0,0,0,0,0,0,41,41,
41,41,0,0,0,0,0,0,0,0,0,0,0,0,0,0,0,0,0,0,0,0,0,0,0,0,0,0,0,0,0,0,0,0,0,0,0,0,0,0,0,0,0,0,0,0,0,0,0,0,0,0,0,0,0,0,0,0,0,0,0,0,0,0,0,0,0,0,0,0,0,0,0,0,0,0,0,0,0,0,0,0,0,0,0,0,0,0,0,0,0,0,0,0,0,0,0,0,0,0,0,0,0,0,0,0,0,0,0,0,0,0,0,0,0,0,0,0,0,0,0,0,0,0,0,0,41,41,
41,41,0,0,0,0,0,0,0,0,0,0,0,0,0,0,0,0,0,0,0,0,0,0,0,0,0,0,0,0,0,0,0,0,0,0,0,0,0,0,0,0,0,0,0,0,0,0,0,0,0,0,0,0,0,0,0,0,0,0,0,0,0,0,0,0,0,0,0,0,0,0,0,0,0,0,0,0,0,0,0,0,0,0,0,0,0,0,0,0,0,0,0,0,0,0,0,0,0,0,0,0,0,0,0,0,0,0,0,0,0,0,0,0,0,0,0,0,0,0,0,0,0,0,0,0,41,41,
41,41,0,0,0,0,0,0,0,0,0,0,0,0,0,0,0,0,0,0,0,0,0,0,0,0,0,0,0,0,0,0,0,0,0,0,0,0,0,0,0,0,0,0,0,0,0,0,0,0,0,0,0,0,0,0,0,0,0,0,0,0,0,0,0,0,0,0,0,0,0,0,0,0,0,0,0,0,0,0,0,0,0,0,0,0,0,0,0,0,0,0,0,0,0,0,0,0,0,0,0,0,0,0,0,0,0,0,0,0,0,0,0,0,0,0,0,0,0,0,0,0,0,0,0,0,41,41,
41,41,0,0,0,0,0,0,0,0,0,0,0,0,0,0,0,0,0,0,0,0,0,0,0,0,0,0,0,0,0,0,0,0,0,0,0,0,0,0,0,0,0,0,0,0,0,0,0,0,0,0,0,0,0,0,0,0,0,0,0,0,0,0,0,0,0,0,0,0,0,0,0,0,0,0,0,0,0,0,0,0,0,0,0,0,0,0,0,0,0,0,0,0,0,0,0,0,0,0,0,0,0,0,0,0,0,0,0,0,0,0,0,0,0,0,0,0,0,0,0,0,0,0,0,0,41,41,
41,41,0,0,0,0,0,0,0,0,0,0,0,0,0,0,0,0,0,0,0,0,0,0,0,0,0,0,0,0,0,0,0,0,0,0,0,0,0,0,0,0,0,0,0,0,0,0,0,0,0,0,0,0,0,0,0,0,0,0,0,0,0,0,0,0,0,0,0,0,0,0,0,0,0,0,0,0,0,0,0,0,0,0,0,0,0,0,0,0,0,0,0,0,0,0,0,0,0,0,0,0,0,0,0,0,0,0,0,0,0,0,0,0,0,0,0,0,0,0,0,0,0,0,0,0,41,41,
41,41,0,0,0,0,0,0,0,0,0,0,0,0,0,0,0,0,0,0,0,0,0,0,0,0,0,0,0,0,0,0,0,0,0,0,0,0,0,0,0,0,0,0,0,0,0,0,0,0,0,0,0,0,0,0,0,0,0,0,0,0,0,0,0,0,0,0,0,0,0,0,0,0,0,0,0,0,0,0,0,0,0,0,0,0,0,0,0,0,0,0,0,0,0,0,0,0,0,0,0,0,0,0,0,0,0,0,0,0,0,0,0,0,0,0,0,0,0,0,0,0,0,0,0,0,41,41,
41,41,0,0,0,0,0,0,0,0,0,0,0,0,0,0,0,0,0,0,0,0,0,0,0,0,0,0,0,0,0,0,0,0,0,0,0,0,0,0,0,0,0,0,0,0,0,0,0,0,0,0,0,0,0,0,0,0,0,0,0,0,0,0,0,0,0,0,0,0,0,0,0,0,0,0,0,0,0,0,0,0,0,0,0,0,0,0,0,0,0,0,0,0,0,0,0,0,0,0,0,0,0,0,0,0,0,0,0,0,0,0,0,0,0,0,0,0,0,0,0,0,0,0,0,0,41,41,
41,41,0,0,0,0,0,0,0,0,0,0,0,0,0,0,0,0,0,0,0,0,0,0,0,0,0,0,0,0,0,0,0,0,0,0,0,0,0,0,0,0,0,0,0,0,0,0,0,0,0,0,0,0,0,0,0,0,0,0,0,0,0,0,0,0,0,0,0,0,0,0,0,0,0,0,0,0,0,0,0,0,0,0,0,0,0,0,0,0,0,0,0,0,0,0,0,0,0,0,0,0,0,0,0,0,0,0,0,0,0,0,0,0,0,0,0,0,0,0,0,0,0,0,0,0,41,41,
41,41,0,0,0,0,0,0,0,0,0,0,0,0,0,0,0,0,0,0,0,0,0,0,0,0,0,0,0,0,0,0,0,0,0,0,0,0,0,0,0,0,0,0,0,0,0,0,0,0,0,0,0,0,0,0,0,0,0,0,0,0,0,0,0,0,0,0,0,0,0,0,0,0,0,0,0,0,0,0,0,0,0,0,0,0,0,0,0,0,0,0,0,0,0,0,0,0,0,0,0,0,0,0,0,0,0,0,0,0,0,0,0,0,0,0,0,0,0,0,0,0,0,0,0,0,41,41,
41,41,0,0,0,0,0,0,0,0,0,0,0,0,0,0,0,0,0,0,0,0,0,0,0,0,0,0,0,0,0,0,0,0,0,0,0,0,0,0,0,0,0,0,0,0,0,0,0,0,0,0,0,0,0,0,0,0,0,0,0,0,0,0,0,0,0,0,0,0,0,0,0,0,0,0,0,0,0,0,0,0,0,0,0,0,0,0,0,0,0,0,0,0,0,0,0,0,0,0,0,0,0,0,0,0,0,0,0,0,0,0,0,0,0,0,0,0,0,0,0,0,0,0,0,0,41,41,
41,41,0,0,0,0,0,0,0,0,0,0,0,0,0,0,0,0,0,0,0,0,0,0,0,0,0,0,0,0,0,0,0,0,0,0,0,0,0,0,0,0,0,0,0,0,0,0,0,0,0,0,0,0,0,0,0,0,0,0,0,0,0,0,0,0,0,0,0,0,0,0,0,0,0,0,0,0,0,0,0,0,0,0,0,0,0,0,0,0,0,0,0,0,0,0,0,0,0,0,0,0,0,0,0,0,0,0,0,0,0,0,0,0,0,0,0,0,0,0,0,0,0,0,0,0,41,41,
41,41,0,0,0,0,0,0,0,0,0,0,0,0,0,0,0,0,0,0,0,0,0,0,0,0,0,0,0,0,0,0,0,0,0,0,0,0,0,0,0,0,0,0,0,0,0,0,0,0,0,0,0,0,0,0,0,0,0,0,0,0,0,0,0,0,0,0,0,0,0,0,0,0,0,0,0,0,0,0,0,0,0,0,0,0,0,0,0,0,0,0,0,0,0,0,0,0,0,0,0,0,0,0,0,0,0,0,0,0,0,0,0,0,0,0,0,0,0,0,0,0,0,0,0,0,41,41,
41,41,0,0,0,0,0,0,0,0,0,0,0,0,0,0,0,0,0,0,0,0,0,0,0,0,0,0,0,0,0,0,0,0,0,0,0,0,0,0,0,0,0,0,0,0,0,0,0,0,0,0,0,0,0,0,0,0,0,0,0,0,0,0,0,0,0,0,0,0,0,0,0,0,0,0,0,0,0,0,0,0,0,0,0,0,0,0,0,0,0,0,0,0,0,0,0,0,0,0,0,0,0,0,0,0,0,0,0,0,0,0,0,0,0,0,0,0,0,0,0,0,0,0,0,0,41,41,
41,41,0,0,0,0,0,0,0,0,0,0,0,0,0,0,0,0,0,0,0,0,0,0,0,0,0,0,0,0,0,0,0,0,0,0,0,0,0,0,0,0,0,0,0,0,0,0,0,0,0,0,0,0,0,0,0,0,0,0,0,0,0,0,0,0,0,0,0,0,0,0,0,0,0,0,0,0,0,0,0,0,0,0,0,0,0,0,0,0,0,0,0,0,0,0,0,0,0,0,0,0,0,0,0,0,0,0,0,0,0,0,0,0,0,0,0,0,0,0,0,0,0,0,0,0,41,41,
41,41,0,0,0,0,0,0,0,0,0,0,0,0,0,0,0,0,0,0,0,0,0,0,0,0,0,0,0,0,0,0,0,0,0,0,0,0,0,0,0,0,0,0,0,0,0,0,0,0,0,0,0,0,0,0,0,0,0,0,0,0,0,0,0,0,0,0,0,0,0,0,0,0,0,0,0,0,0,0,0,0,0,0,0,0,0,0,0,0,0,0,0,0,0,0,0,0,0,0,0,0,0,0,0,0,0,0,0,0,0,0,0,0,0,0,0,0,0,0,0,0,0,0,0,0,41,41,
41,41,0,0,0,0,0,0,0,0,0,0,0,0,0,0,0,0,0,0,0,0,0,0,0,0,0,0,0,0,0,0,0,0,0,0,0,0,0,0,0,0,0,0,0,0,0,0,0,0,0,0,0,0,0,0,0,0,0,0,0,0,0,0,0,0,0,0,0,0,0,0,0,0,0,0,0,0,0,0,0,0,0,0,0,0,0,0,0,0,0,0,0,0,0,0,0,0,0,0,0,0,0,0,0,0,0,0,0,0,0,0,0,0,0,0,0,0,0,0,0,0,0,0,0,0,41,41,
41,41,0,0,0,0,0,0,0,0,0,0,0,0,0,0,0,0,0,0,0,0,0,0,0,0,0,0,0,0,0,0,0,0,0,0,0,0,0,0,0,0,0,0,0,0,0,0,0,0,0,0,0,0,0,0,0,0,0,0,0,0,0,0,0,0,0,0,0,0,0,0,0,0,0,0,0,0,0,0,0,0,0,0,0,0,0,0,0,0,0,0,0,0,0,0,0,0,0,0,0,0,0,0,0,0,0,0,0,0,0,0,0,0,0,0,0,0,0,0,0,0,0,0,0,0,41,41,
41,41,0,0,0,0,0,0,0,0,0,0,0,0,0,0,0,0,0,0,0,0,0,0,0,0,0,0,0,0,0,0,0,0,0,0,0,0,0,0,0,0,0,0,0,0,0,0,0,0,0,0,0,0,0,0,0,0,0,0,0,0,0,0,0,0,0,0,0,0,0,0,0,0,0,0,0,0,0,0,0,0,0,0,0,0,0,0,0,0,0,0,0,0,0,0,0,0,0,0,0,0,0,0,0,0,0,0,0,0,0,0,0,0,0,0,0,0,0,0,0,0,0,0,0,0,41,41,
41,41,0,0,0,0,0,0,0,0,0,0,0,0,0,0,0,0,0,0,0,0,0,0,0,0,0,0,0,0,0,0,0,0,0,0,0,0,0,0,0,0,0,0,0,0,0,0,0,0,0,0,0,0,0,0,0,0,0,0,0,0,0,0,0,0,0,0,0,0,0,0,0,0,0,0,0,0,0,0,0,0,0,0,0,0,0,0,0,0,0,0,0,0,0,0,0,0,0,0,0,0,0,0,0,0,0,0,0,0,0,0,0,0,0,0,0,0,0,0,0,0,0,0,0,0,41,41,
41,41,0,0,0,0,0,0,0,0,0,0,0,0,0,0,0,0,0,0,0,0,0,0,0,0,0,0,0,0,0,0,0,0,0,0,0,0,0,0,0,0,0,0,0,0,0,0,0,0,0,0,0,0,0,0,0,0,0,0,0,0,0,0,0,0,0,0,0,0,0,0,0,0,0,0,0,0,0,0,0,0,0,0,0,0,0,0,0,0,0,0,0,0,0,0,0,0,0,0,0,0,0,0,0,0,0,0,0,0,0,0,0,0,0,0,0,0,0,0,0,0,0,0,0,0,41,41,
41,41,0,0,0,0,0,0,0,0,0,0,0,0,0,0,0,0,0,0,0,0,0,0,0,0,0,0,0,0,0,0,0,0,0,0,0,0,0,0,0,0,0,0,0,0,0,0,0,0,0,0,0,0,0,0,0,0,0,0,0,0,0,0,0,0,0,0,0,0,0,0,0,0,0,0,0,0,0,0,0,0,0,0,0,0,0,0,0,0,0,0,0,0,0,0,0,0,0,0,0,0,0,0,0,0,0,0,0,0,0,0,0,0,0,0,0,0,0,0,0,0,0,0,0,0,41,41,
41,41,0,0,0,0,0,0,0,0,0,0,0,0,0,0,0,0,0,0,0,0,0,0,0,0,0,0,0,0,0,0,0,0,0,0,0,0,0,0,0,0,0,0,0,0,0,0,0,0,0,0,0,0,0,0,0,0,0,0,0,0,0,0,0,0,0,0,0,0,0,0,0,0,0,0,0,0,0,0,0,0,0,0,0,0,0,0,0,0,0,0,0,0,0,0,0,0,0,0,0,0,0,0,0,0,0,0,0,0,0,0,0,0,0,0,0,0,0,0,0,0,0,0,0,0,41,41,
41,41,0,0,0,0,0,0,0,0,0,0,0,0,0,0,0,0,0,0,0,0,0,0,0,0,0,0,0,0,0,0,0,0,0,0,0,0,0,0,0,0,0,0,0,0,0,0,0,0,0,0,0,0,0,0,0,0,0,0,0,0,0,0,0,0,0,0,0,0,0,0,0,0,0,0,0,0,0,0,0,0,0,0,0,0,0,0,0,0,0,0,0,0,0,0,0,0,0,0,0,0,0,0,0,0,0,0,0,0,0,0,0,0,0,0,0,0,0,0,0,0,0,0,0,0,41,41,
41,41,0,0,0,0,0,0,0,0,0,0,0,0,0,0,0,0,0,0,0,0,0,0,0,0,0,0,0,0,0,0,0,0,0,0,0,0,0,0,0,0,0,0,0,0,0,0,0,0,0,0,0,0,0,0,0,0,0,0,0,0,0,0,0,0,0,0,0,0,0,0,0,0,0,0,0,0,0,0,0,0,0,0,0,0,0,0,0,0,0,0,0,0,0,0,0,0,0,0,0,0,0,0,0,0,0,0,0,0,0,0,0,0,0,0,0,0,0,0,0,0,0,0,0,0,41,41,
41,41,0,0,0,0,0,0,0,0,0,0,0,0,0,0,0,0,0,0,0,0,0,0,0,0,0,0,0,0,0,0,0,0,0,0,0,0,0,0,0,0,0,0,0,0,0,0,0,0,0,0,0,0,0,0,0,0,0,0,0,0,0,0,0,0,0,0,0,0,0,0,0,0,0,0,0,0,0,0,0,0,0,0,0,0,0,0,0,0,0,0,0,0,0,0,0,0,0,0,0,0,0,0,0,0,0,0,0,0,0,0,0,0,0,0,0,0,0,0,0,0,0,0,0,0,41,41,
41,41,0,0,0,0,0,0,0,0,0,0,0,0,0,0,0,0,0,0,0,0,0,0,0,0,0,0,0,0,0,0,0,0,0,0,0,0,0,0,0,0,0,0,0,0,0,0,0,0,0,0,0,0,0,0,0,0,0,0,0,0,0,0,0,0,0,0,0,0,0,0,0,0,0,0,0,0,0,0,0,0,0,0,0,0,0,0,0,0,0,0,0,0,0,0,0,0,0,0,0,0,0,0,0,0,0,0,0,0,0,0,0,0,0,0,0,0,0,0,0,0,0,0,0,0,41,41,
41,41,0,0,0,0,0,0,0,0,0,0,0,0,0,0,0,0,0,0,0,0,0,0,0,0,0,0,0,0,0,0,0,0,0,0,0,0,0,0,0,0,0,0,0,0,0,0,0,0,0,0,0,0,0,0,0,0,0,0,0,0,0,0,0,0,0,0,0,0,0,0,0,0,0,0,0,0,0,0,0,0,0,0,0,0,0,0,0,0,0,0,0,0,0,0,0,0,0,0,0,0,0,0,0,0,0,0,0,0,0,0,0,0,0,0,0,0,0,0,0,0,0,0,0,0,41,41,
41,41,0,0,0,0,0,0,0,0,0,0,0,0,0,0,0,0,0,0,0,0,0,0,0,0,0,0,0,0,0,0,0,0,0,0,0,0,0,0,0,0,0,0,0,0,0,0,0,0,0,0,0,0,0,0,0,0,0,0,0,0,0,0,0,0,0,0,0,0,0,0,0,0,0,0,0,0,0,0,0,0,0,0,0,0,0,0,0,0,0,0,0,0,0,0,0,0,0,0,0,0,0,0,0,0,0,0,0,0,0,0,0,0,0,0,0,0,0,0,0,0,0,0,0,0,41,41,
41,41,0,0,0,0,0,0,0,0,0,0,0,0,0,0,0,0,0,0,0,0,0,0,0,0,0,0,0,0,0,0,0,0,0,0,0,0,0,0,0,0,0,0,0,0,0,0,0,0,0,0,0,0,0,0,0,0,0,0,0,0,0,0,0,0,0,0,0,0,0,0,0,0,0,0,0,0,0,0,0,0,0,0,0,0,0,0,0,0,0,0,0,0,0,0,0,0,0,0,0,0,0,0,0,0,0,0,0,0,0,0,0,0,0,0,0,0,0,0,0,0,0,0,0,0,41,41,
41,41,0,0,0,0,0,0,0,0,0,0,0,0,0,0,0,0,0,0,0,0,0,0,0,0,0,0,0,0,0,0,0,0,0,0,0,0,0,0,0,0,0,0,0,0,0,0,0,0,0,0,0,0,0,0,0,0,0,0,0,0,0,0,0,0,0,0,0,0,0,0,0,0,0,0,0,0,0,0,0,0,0,0,0,0,0,0,0,0,0,0,0,0,0,0,0,0,0,0,0,0,0,0,0,0,0,0,0,0,0,0,0,0,0,0,0,0,0,0,0,0,0,0,0,0,41,41,
41,41,0,0,0,0,0,0,0,0,0,0,0,0,0,0,0,0,0,0,0,0,0,0,0,0,0,0,0,0,0,0,0,0,0,0,0,0,0,0,0,0,0,0,0,0,0,0,0,0,0,0,0,0,0,0,0,0,0,0,0,0,0,0,0,0,0,0,0,0,0,0,0,0,0,0,0,0,0,0,0,0,0,0,0,0,0,0,0,0,0,0,0,0,0,0,0,0,0,0,0,0,0,0,0,0,0,0,0,0,0,0,0,0,0,0,0,0,0,0,0,0,0,0,0,0,41,41,
41,41,0,0,0,0,0,0,0,0,0,0,0,0,0,0,0,0,0,0,0,0,0,0,0,0,0,0,0,0,0,0,0,0,0,0,0,0,0,0,0,0,0,0,0,0,0,0,0,0,0,0,0,0,0,0,0,0,0,0,0,0,0,0,0,0,0,0,0,0,0,0,0,0,0,0,0,0,0,0,0,0,0,0,0,0,0,0,0,0,0,0,0,0,0,0,0,0,0,0,0,0,0,0,0,0,0,0,0,0,0,0,0,0,0,0,0,0,0,0,0,0,0,0,0,0,41,41,
41,41,0,0,0,0,0,0,0,0,0,0,0,0,0,0,0,0,0,0,0,0,0,0,0,0,0,0,0,0,0,0,0,0,0,0,0,0,0,0,0,0,0,0,0,0,0,0,0,0,0,0,0,0,0,0,0,0,0,0,0,0,0,0,0,0,0,0,0,0,0,0,0,0,0,0,0,0,0,0,0,0,0,0,0,0,0,0,0,0,0,0,0,0,0,0,0,0,0,0,0,0,0,0,0,0,0,0,0,0,0,0,0,0,0,0,0,0,0,0,0,0,0,0,0,0,41,41,
41,41,0,0,0,0,0,0,0,0,0,0,0,0,0,0,0,0,0,0,0,0,0,0,0,0,0,0,0,0,0,0,0,0,0,0,0,0,0,0,0,0,0,0,0,0,0,0,0,0,0,0,0,0,0,0,0,0,0,0,0,0,0,0,0,0,0,0,0,0,0,0,0,0,0,0,0,0,0,0,0,0,0,0,0,0,0,0,0,0,0,0,0,0,0,0,0,0,0,0,0,0,0,0,0,0,0,0,0,0,0,0,0,0,0,0,0,0,0,0,0,0,0,0,0,0,41,41,
41,41,0,0,0,0,0,0,0,0,0,0,0,0,0,0,0,0,0,0,0,0,0,0,0,0,0,0,0,0,0,0,0,0,0,0,0,0,0,0,0,0,0,0,0,0,0,0,0,0,0,0,0,0,0,0,0,0,0,0,0,0,0,0,0,0,0,0,0,0,0,0,0,0,0,0,0,0,0,0,0,0,0,0,0,0,0,0,0,0,0,0,0,0,0,0,0,0,0,0,0,0,0,0,0,0,0,0,0,0,0,0,0,0,0,0,0,0,0,0,0,0,0,0,0,0,41,41,
41,41,0,0,0,0,0,0,0,0,0,0,0,0,0,0,0,0,0,0,0,0,0,0,0,0,0,0,0,0,0,0,0,0,0,0,0,0,0,0,0,0,0,0,0,0,0,0,0,0,0,0,0,0,0,0,0,0,0,0,0,0,0,0,0,0,0,0,0,0,0,0,0,0,0,0,0,0,0,0,0,0,0,0,0,0,0,0,0,0,0,0,0,0,0,0,0,0,0,0,0,0,0,0,0,0,0,0,0,0,0,0,0,0,0,0,0,0,0,0,0,0,0,0,0,0,41,41,
41,41,0,0,0,0,0,0,0,0,0,0,0,0,0,0,0,0,0,0,0,0,0,0,0,0,0,0,0,0,0,0,0,0,0,0,0,0,0,0,0,0,0,0,0,0,0,0,0,0,0,0,0,0,0,0,0,0,0,0,0,0,0,0,0,0,0,0,0,0,0,0,0,0,0,0,0,0,0,0,0,0,0,0,0,0,0,0,0,0,0,0,0,0,0,0,0,0,0,0,0,0,0,0,0,0,0,0,0,0,0,0,0,0,0,0,0,0,0,0,0,0,0,0,0,0,41,41,
41,41,0,0,0,0,0,0,0,0,0,0,0,0,0,0,0,0,0,0,0,0,0,0,0,0,0,0,0,0,0,0,0,0,0,0,0,0,0,0,0,0,0,0,0,0,0,0,0,0,0,0,0,0,0,0,0,0,0,0,0,0,0,0,0,0,0,0,0,0,0,0,0,0,0,0,0,0,0,0,0,0,0,0,0,0,0,0,0,0,0,0,0,0,0,0,0,0,0,0,0,0,0,0,0,0,0,0,0,0,0,0,0,0,0,0,0,0,0,0,0,0,0,0,0,0,41,41,
41,41,0,0,0,0,0,0,0,0,0,0,0,0,0,0,0,0,0,0,0,0,0,0,0,0,0,0,0,0,0,0,0,0,0,0,0,0,0,0,0,0,0,0,0,0,0,0,0,0,0,0,0,0,0,0,0,0,0,0,0,0,0,0,0,0,0,0,0,0,0,0,0,0,0,0,0,0,0,0,0,0,0,0,0,0,0,0,0,0,0,0,0,0,0,0,0,0,0,0,0,0,0,0,0,0,0,0,0,0,0,0,0,0,0,0,0,0,0,0,0,0,0,0,0,0,41,41,
41,41,0,0,0,0,0,0,0,0,0,0,0,0,0,0,0,0,0,0,0,0,0,0,0,0,0,0,0,0,0,0,0,0,0,0,0,0,0,0,0,0,0,0,0,0,0,0,0,0,0,0,0,0,0,0,0,0,0,0,0,0,0,0,0,0,0,0,0,0,0,0,0,0,0,0,0,0,0,0,0,0,0,0,0,0,0,0,0,0,0,0,0,0,0,0,0,0,0,0,0,0,0,0,0,0,0,0,0,0,0,0,0,0,0,0,0,0,0,0,0,0,0,0,0,0,41,41,
41,41,0,0,0,0,0,0,0,0,0,0,0,0,0,0,0,0,0,0,0,0,0,0,0,0,0,0,0,0,0,0,0,0,0,0,0,0,0,0,0,0,0,0,0,0,0,0,0,0,0,0,0,0,0,0,0,0,0,0,0,0,0,0,0,0,0,0,0,0,0,0,0,0,0,0,0,0,0,0,0,0,0,0,0,0,0,0,0,0,0,0,0,0,0,0,0,0,0,0,0,0,0,0,0,0,0,0,0,0,0,0,0,0,0,0,0,0,0,0,0,0,0,0,0,0,41,41,
41,41,0,0,0,0,0,0,0,0,0,0,0,0,0,0,0,0,0,0,0,0,0,0,0,0,0,0,0,0,0,0,0,0,0,0,0,0,0,0,0,0,0,0,0,0,0,0,0,0,0,0,0,0,0,0,0,0,0,0,0,0,0,0,0,0,0,0,0,0,0,0,0,0,0,0,0,0,0,0,0,0,0,0,0,0,0,0,0,0,0,0,0,0,0,0,0,0,0,0,0,0,0,0,0,0,0,0,0,0,0,0,0,0,0,0,0,0,0,0,0,0,0,0,0,0,41,41,
41,41,0,0,0,0,0,0,0,0,0,0,0,0,0,0,0,0,0,0,0,0,0,0,0,0,0,0,0,0,0,0,0,0,0,0,0,0,0,0,0,0,0,0,0,0,0,0,0,0,0,0,0,0,0,0,0,0,0,0,0,0,0,0,0,0,0,0,0,0,0,0,0,0,0,0,0,0,0,0,0,0,0,0,0,0,0,0,0,0,0,0,0,0,0,0,0,0,0,0,0,0,0,0,0,0,0,0,0,0,0,0,0,0,0,0,0,0,0,0,0,0,0,0,0,0,41,41,
41,41,0,0,0,0,0,0,0,0,0,0,0,0,0,0,0,0,0,0,0,0,0,0,0,0,0,0,0,0,0,0,0,0,0,0,0,0,0,0,0,0,0,0,0,0,0,0,0,0,0,0,0,0,0,0,0,0,0,0,0,0,0,0,0,0,0,0,0,0,0,0,0,0,0,0,0,0,0,0,0,0,0,0,0,0,0,0,0,0,0,0,0,0,0,0,0,0,0,0,0,0,0,0,0,0,0,0,0,0,0,0,0,0,0,0,0,0,0,0,0,0,0,0,0,0,41,41,
41,41,0,0,0,0,0,0,0,0,0,0,0,0,0,0,0,0,0,0,0,0,0,0,0,0,0,0,0,0,0,0,0,0,0,0,0,0,0,0,0,0,0,0,0,0,0,0,0,0,0,0,0,0,0,0,0,0,0,0,0,0,0,0,0,0,0,0,0,0,0,0,0,0,0,0,0,0,0,0,0,0,0,0,0,0,0,0,0,0,0,0,0,0,0,0,0,0,0,0,0,0,0,0,0,0,0,0,0,0,0,0,0,0,0,0,0,0,0,0,0,0,0,0,0,0,41,41,
41,41,0,0,0,0,0,0,0,0,0,0,0,0,0,0,0,0,0,0,0,0,0,0,0,0,0,0,0,0,0,0,0,0,0,0,0,0,0,0,0,0,0,0,0,0,0,0,0,0,0,0,0,0,0,0,0,0,0,0,0,0,0,0,0,0,0,0,0,0,0,0,0,0,0,0,0,0,0,0,0,0,0,0,0,0,0,0,0,0,0,0,0,0,0,0,0,0,0,0,0,0,0,0,0,0,0,0,0,0,0,0,0,0,0,0,0,0,0,0,0,0,0,0,0,0,41,41,
41,41,0,0,0,0,0,0,0,0,0,0,0,0,0,0,0,0,0,0,0,0,0,0,0,0,0,0,0,0,0,0,0,0,0,0,0,0,0,0,0,0,0,0,0,0,0,0,0,0,0,0,0,0,0,0,0,0,0,0,0,0,0,0,0,0,0,0,0,0,0,0,0,0,0,0,0,0,0,0,0,0,0,0,0,0,0,0,0,0,0,0,0,0,0,0,0,0,0,0,0,0,0,0,0,0,0,0,0,0,0,0,0,0,0,0,0,0,0,0,0,0,0,0,0,0,41,41,
41,41,0,0,0,0,0,0,0,0,0,0,0,0,0,0,0,0,0,0,0,0,0,0,0,0,0,0,0,0,0,0,0,0,0,0,0,0,0,0,0,0,0,0,0,0,0,0,0,0,0,0,0,0,0,0,0,0,0,0,0,0,0,0,0,0,0,0,0,0,0,0,0,0,0,0,0,0,0,0,0,0,0,0,0,0,0,0,0,0,0,0,0,0,0,0,0,0,0,0,0,0,0,0,0,0,0,0,0,0,0,0,0,0,0,0,0,0,0,0,0,0,0,0,0,0,41,41,
41,41,0,0,0,0,0,0,0,0,0,0,0,0,0,0,0,0,0,0,0,0,0,0,0,0,0,0,0,0,0,0,0,0,0,0,0,0,0,0,0,0,0,0,0,0,0,0,0,0,0,0,0,0,0,0,0,0,0,0,0,0,0,0,0,0,0,0,0,0,0,0,0,0,0,0,0,0,0,0,0,0,0,0,0,0,0,0,0,0,0,0,0,0,0,0,0,0,0,0,0,0,0,0,0,0,0,0,0,0,0,0,0,0,0,0,0,0,0,0,0,0,0,0,0,0,41,41,
41,41,0,0,0,0,0,0,0,0,0,0,0,0,0,0,0,0,0,0,0,0,0,0,0,0,0,0,0,0,0,0,0,0,0,0,0,0,0,0,0,0,0,0,0,0,0,0,0,0,0,0,0,0,0,0,0,0,0,0,0,0,0,0,0,0,0,0,0,0,0,0,0,0,0,0,0,0,0,0,0,0,0,0,0,0,0,0,0,0,0,0,0,0,0,0,0,0,0,0,0,0,0,0,0,0,0,0,0,0,0,0,0,0,0,0,0,0,0,0,0,0,0,0,0,0,41,41,
41,41,0,0,0,0,0,0,0,0,0,0,0,0,0,0,0,0,0,0,0,0,0,0,0,0,0,0,0,0,0,0,0,0,0,0,0,0,0,0,0,0,0,0,0,0,0,0,0,0,0,0,0,0,0,0,0,0,0,0,0,0,0,0,0,0,0,0,0,0,0,0,0,0,0,0,0,0,0,0,0,0,0,0,0,0,0,0,0,0,0,0,0,0,0,0,0,0,0,0,0,0,0,0,0,0,0,0,0,0,0,0,0,0,0,0,0,0,0,0,0,0,0,0,0,0,41,41,
41,41,0,0,0,0,0,0,0,0,0,0,0,0,0,0,0,0,0,0,0,0,0,0,0,0,0,0,0,0,0,0,0,0,0,0,0,0,0,0,0,0,0,0,0,0,0,0,0,0,0,0,0,0,0,0,0,0,0,0,0,0,0,0,0,0,0,0,0,0,0,0,0,0,0,0,0,0,0,0,0,0,0,0,0,0,0,0,0,0,0,0,0,0,0,0,0,0,0,0,0,0,0,0,0,0,0,0,0,0,0,0,0,0,0,0,0,0,0,0,0,0,0,0,0,0,41,41,
41,41,0,0,0,0,0,0,0,0,0,0,0,0,0,0,0,0,0,0,0,0,0,0,0,0,0,0,0,0,0,0,0,0,0,0,0,0,0,0,0,0,0,0,0,0,0,0,0,0,0,0,0,0,0,0,0,0,0,0,0,0,0,0,0,0,0,0,0,0,0,0,0,0,0,0,0,0,0,0,0,0,0,0,0,0,0,0,0,0,0,0,0,0,0,0,0,0,0,0,0,0,0,0,0,0,0,0,0,0,0,0,0,0,0,0,0,0,0,0,0,0,0,0,0,0,41,41,
41,41,0,0,0,0,0,0,0,0,0,0,0,0,0,0,0,0,0,0,0,0,0,0,0,0,0,0,0,0,0,0,0,0,0,0,0,0,0,0,0,0,0,0,0,0,0,0,0,0,0,0,0,0,0,0,0,0,0,0,0,0,0,0,0,0,0,0,0,0,0,0,0,0,0,0,0,0,0,0,0,0,0,0,0,0,0,0,0,0,0,0,0,0,0,0,0,0,0,0,0,0,0,0,0,0,0,0,0,0,0,0,0,0,0,0,0,0,0,0,0,0,0,0,0,0,41,41,
41,41,0,0,0,0,0,0,0,0,0,0,0,0,0,0,0,0,0,0,0,0,0,0,0,0,0,0,0,0,0,0,0,0,0,0,0,0,0,0,0,0,0,0,0,0,0,0,0,0,0,0,0,0,0,0,0,0,0,0,0,0,0,0,0,0,0,0,0,0,0,0,0,0,0,0,0,0,0,0,0,0,0,0,0,0,0,0,0,0,0,0,0,0,0,0,0,0,0,0,0,0,0,0,0,0,0,0,0,0,0,0,0,0,0,0,0,0,0,0,0,0,0,0,0,0,41,41,
41,41,0,0,0,0,0,0,0,0,0,0,0,0,0,0,0,0,0,0,0,0,0,0,0,0,0,0,0,0,0,0,0,0,0,0,0,0,0,0,0,0,0,0,0,0,0,0,0,0,0,0,0,0,0,0,0,0,0,0,0,0,0,0,0,0,0,0,0,0,0,0,0,0,0,0,0,0,0,0,0,0,0,0,0,0,0,0,0,0,0,0,0,0,0,0,0,0,0,0,0,0,0,0,0,0,0,0,0,0,0,0,0,0,0,0,0,0,0,0,0,0,0,0,0,0,41,41,
41,41,0,0,0,0,0,0,0,0,0,0,0,0,0,0,0,0,0,0,0,0,0,0,0,0,0,0,0,0,0,0,0,0,0,0,0,0,0,0,0,0,0,0,0,0,0,0,0,0,0,0,0,0,0,0,0,0,0,0,0,0,0,0,0,0,0,0,0,0,0,0,0,0,0,0,0,0,0,0,0,0,0,0,0,0,0,0,0,0,0,0,0,0,0,0,0,0,0,0,0,0,0,0,0,0,0,0,0,0,0,0,0,0,0,0,0,0,0,0,0,0,0,0,0,0,41,41,
41,41,0,0,0,0,0,0,0,0,0,0,0,0,0,0,0,0,0,0,0,0,0,0,0,0,0,0,0,0,0,0,0,0,0,0,0,0,0,0,0,0,0,0,0,0,0,0,0,0,0,0,0,0,0,0,0,0,0,0,0,0,0,0,0,0,0,0,0,0,0,0,0,0,0,0,0,0,0,0,0,0,0,0,0,0,0,0,0,0,0,0,0,0,0,0,0,0,0,0,0,0,0,0,0,0,0,0,0,0,0,0,0,0,0,0,0,0,0,0,0,0,0,0,0,0,41,41,
41,41,0,0,0,0,0,0,0,0,0,0,0,0,0,0,0,0,0,0,0,0,0,0,0,0,0,0,0,0,0,0,0,0,0,0,0,0,0,0,0,0,0,0,0,0,0,0,0,0,0,0,0,0,0,0,0,0,0,0,0,0,0,0,0,0,0,0,0,0,0,0,0,0,0,0,0,0,0,0,0,0,0,0,0,0,0,0,0,0,0,0,0,0,0,0,0,0,0,0,0,0,0,0,0,0,0,0,0,0,0,0,0,0,0,0,0,0,0,0,0,0,0,0,0,0,41,41,
41,41,41,41,41,41,41,41,41,41,41,41,41,41,41,41,41,41,41,41,41,41,41,41,41,41,41,41,41,41,41,41,41,41,41,41,41,41,41,41,41,41,41,41,41,41,41,41,41,41,41,41,41,41,41,41,41,41,41,41,41,41,41,41,41,41,41,41,41,41,41,41,41,41,41,41,41,41,41,41,41,41,41,41,41,41,41,41,41,41,41,41,41,41,41,41,41,41,41,41,41,41,41,41,41,41,41,41,41,41,41,41,41,41,41,41,41,41,41,41,41,41,41,41,41,41,41,41,
41,41,41,41,41,41,41,41,41,41,41,41,41,41,41,41,41,41,41,41,41,41,41,41,41,41,41,41,41,41,41,41,41,41,41,41,41,41,41,41,41,41,41,41,41,41,41,41,41,41,41,41,41,41,41,41,41,41,41,41,41,41,41,41,41,41,41,41,41,41,41,41,41,41,41,41,41,41,41,41,41,41,41,41,41,41,41,41,41,41,41,41,41,41,41,41,41,41,41,41,41,41,41,41,41,41,41,41,41,41,41,41,41,41,41,41,41,41,41,41,41,41,41,41,41,41,41,41
</data>
 </layer>
 <objectgroup id="7" name="COP SPAWN">
  <object id="1" name="COPSPAWN1" x="957" y="306">
   <point/>
  </object>
  <object id="3" name="COPSPAWN2" x="1928" y="1480">
   <point/>
  </object>
  <object id="4" name="COPSPAWN3" x="3146" y="2500">
   <point/>
  </object>
  <object id="5" name="COPSPAWN4" x="304" y="3812">
   <point/>
  </object>
  <object id="6" name="COPSPAWN5" x="1973" y="3860">
   <point/>
  </object>
 </objectgroup>
</map>
